(Project MFTfreeDog2x)
(Created with Estlcam 12.068)
(Machining time about 00:21:04 hours)

(Required tools:)
(1/8" Upcut Soft wood)

M03 S10000
G00 Z127.0000

(No. 1 Hole machining: Hole 20)
G00 X80.0537 Y80.0537 Z127.0000
G00 Z0.5000
G01 Z0.0000 F2.000 S10000
G02 X78.8202 Y81.6220 Z-2.0000 I5.9463 J5.9463
G02 X83.8235 Y94.1227 I7.1798 J4.3780 F25.000
G02 X94.1227 Y83.8235 I2.1765 J-8.1227
G02 X80.0537 Y80.0537 I-8.1227 J2.1765
G02 X78.8202 Y81.6220 Z-4.0000 I5.9463 J5.9463 F2.000
G02 X83.8235 Y94.1227 I7.1798 J4.3780 F25.000
G02 X94.1227 Y83.8235 I2.1765 J-8.1227
G02 X80.0537 Y80.0537 I-8.1227 J2.1765
G02 X78.8202 Y81.6220 Z-6.0000 I5.9463 J5.9463 F2.000
G02 X83.8235 Y94.1227 I7.1798 J4.3780 F25.000
G02 X94.1227 Y83.8235 I2.1765 J-8.1227
G02 X80.0537 Y80.0537 I-8.1227 J2.1765
G02 X78.8202 Y81.6220 I5.9463 J5.9463
G00 Z127.0000

(No. 2 Hole machining: Hole 38)
G00 X173.6061 Y85.4923 Z127.0000
G00 Z0.5000
G01 Z0.0000 F2.000
G02 X173.7227 Y87.4841 Z-2.0000 I8.3939 J0.5077
G02 X185.7572 Y93.5232 I8.2773 J-1.4841 F25.000
G02 X186.6367 Y78.9845 I-3.7572 J-7.5232
G02 X173.6061 Y85.4923 I-4.6367 J7.0155
G02 X173.7227 Y87.4841 Z-4.0000 I8.3939 J0.5077 F2.000
G02 X185.7572 Y93.5232 I8.2773 J-1.4841 F25.000
G02 X186.6367 Y78.9845 I-3.7572 J-7.5232
G02 X173.6061 Y85.4923 I-4.6367 J7.0155
G02 X173.7227 Y87.4841 Z-6.0000 I8.3939 J0.5077 F2.000
G02 X185.7572 Y93.5232 I8.2773 J-1.4841 F25.000
G02 X186.6367 Y78.9845 I-3.7572 J-7.5232
G02 X173.6061 Y85.4923 I-4.6367 J7.0155
G02 X173.7227 Y87.4841 I8.3939 J0.5077
G00 Z127.0000

(No. 3 Hole machining: Hole 13)
G00 X269.5907 Y86.0000 Z127.0000
G00 Z0.5000
G01 Z0.0000 F2.000
G02 X269.8274 Y87.9812 Z-2.0000 I8.4093 J0.0000
G02 X282.2046 Y93.2826 I8.1726 J-1.9812 F25.000
G02 Y78.7174 I-4.2046 J-7.2826
G02 X269.5907 Y86.0000 I-4.2046 J7.2826
G02 X269.8274 Y87.9812 Z-4.0000 I8.4093 J0.0000 F2.000
G02 X282.2046 Y93.2826 I8.1726 J-1.9812 F25.000
G02 Y78.7174 I-4.2046 J-7.2826
G02 X269.5907 Y86.0000 I-4.2046 J7.2826
G02 X269.8274 Y87.9812 Z-6.0000 I8.4093 J0.0000 F2.000
G02 X282.2046 Y93.2826 I8.1726 J-1.9812 F25.000
G02 Y78.7174 I-4.2046 J-7.2826
G02 X269.5907 Y86.0000 I-4.2046 J7.2826
G02 X269.8274 Y87.9812 I8.4093 J0.0000
G00 Z127.0000

(No. 4 Hole machining: Hole 14)
G00 X365.5907 Y86.0000 Z127.0000
G00 Z0.5000
G01 Z0.0000 F2.000
G02 X365.8274 Y87.9812 Z-2.0000 I8.4093 J0.0000
G02 X378.2046 Y93.2826 I8.1726 J-1.9812 F25.000
G02 Y78.7174 I-4.2046 J-7.2826
G02 X365.5907 Y86.0000 I-4.2046 J7.2826
G02 X365.8274 Y87.9812 Z-4.0000 I8.4093 J0.0000 F2.000
G02 X378.2046 Y93.2826 I8.1726 J-1.9812 F25.000
G02 Y78.7174 I-4.2046 J-7.2826
G02 X365.5907 Y86.0000 I-4.2046 J7.2826
G02 X365.8274 Y87.9812 Z-6.0000 I8.4093 J0.0000 F2.000
G02 X378.2046 Y93.2826 I8.1726 J-1.9812 F25.000
G02 Y78.7174 I-4.2046 J-7.2826
G02 X365.5907 Y86.0000 I-4.2046 J7.2826
G02 X365.8274 Y87.9812 I8.4093 J0.0000
G00 Z127.0000

(No. 5 Hole machining: Hole 15)
G00 X461.5907 Y86.0000 Z127.0000
G00 Z0.5000
G01 Z0.0000 F2.000
G02 X461.8274 Y87.9812 Z-2.0000 I8.4093 J0.0000
G02 X474.2046 Y93.2826 I8.1726 J-1.9812 F25.000
G02 Y78.7174 I-4.2046 J-7.2826
G02 X461.5907 Y86.0000 I-4.2046 J7.2826
G02 X461.8274 Y87.9812 Z-4.0000 I8.4093 J0.0000 F2.000
G02 X474.2046 Y93.2826 I8.1726 J-1.9812 F25.000
G02 Y78.7174 I-4.2046 J-7.2826
G02 X461.5907 Y86.0000 I-4.2046 J7.2826
G02 X461.8274 Y87.9812 Z-6.0000 I8.4093 J0.0000 F2.000
G02 X474.2046 Y93.2826 I8.1726 J-1.9812 F25.000
G02 Y78.7174 I-4.2046 J-7.2826
G02 X461.5907 Y86.0000 I-4.2046 J7.2826
G02 X461.8274 Y87.9812 I8.4093 J0.0000
G00 Z127.0000

(No. 6 Hole machining: Hole 18)
G00 X469.4923 Y173.6061 Z127.0000
G00 Z0.5000
G01 Z0.0000 F2.000
G02 X467.5290 Y173.9620 Z-2.0000 I0.5077 J8.3939
G02 X462.9845 Y186.6367 I2.4710 J8.0380 F25.000
G02 X477.5232 Y185.7572 I7.0155 J-4.6367
G02 X469.4923 Y173.6061 I-7.5232 J-3.7572
G02 X467.5290 Y173.9620 Z-4.0000 I0.5077 J8.3939 F2.000
G02 X462.9845 Y186.6367 I2.4710 J8.0380 F25.000
G02 X477.5232 Y185.7572 I7.0155 J-4.6367
G02 X469.4923 Y173.6061 I-7.5232 J-3.7572
G02 X467.5290 Y173.9620 Z-6.0000 I0.5077 J8.3939 F2.000
G02 X462.9845 Y186.6367 I2.4710 J8.0380 F25.000
G02 X477.5232 Y185.7572 I7.0155 J-4.6367
G02 X469.4923 Y173.6061 I-7.5232 J-3.7572
G02 X467.5290 Y173.9620 I0.5077 J8.3939
G00 Z127.0000

(No. 7 Hole machining: Hole 17)
G00 X382.3939 Y181.4923 Z127.0000
G00 Z0.5000
G01 Z0.0000 F2.000
G02 X382.0380 Y179.5290 Z-2.0000 I-8.3939 J0.5077
G02 X369.3633 Y174.9845 I-8.0380 J2.4710 F25.000
G02 X370.2427 Y189.5232 I4.6367 J7.0155
G02 X382.3939 Y181.4923 I3.7573 J-7.5232
G02 X382.0380 Y179.5290 Z-4.0000 I-8.3939 J0.5077 F2.000
G02 X369.3633 Y174.9845 I-8.0380 J2.4710 F25.000
G02 X370.2427 Y189.5232 I4.6367 J7.0155
G02 X382.3939 Y181.4923 I3.7573 J-7.5232
G02 X382.0380 Y179.5290 Z-6.0000 I-8.3939 J0.5077 F2.000
G02 X369.3633 Y174.9845 I-8.0380 J2.4710 F25.000
G02 X370.2427 Y189.5232 I4.6367 J7.0155
G02 X382.3939 Y181.4923 I3.7573 J-7.5232
G02 X382.0380 Y179.5290 I-8.3939 J0.5077
G00 Z127.0000

(No. 8 Hole machining: Hole 16)
G00 X286.4093 Y182.0000 Z127.0000
G00 Z0.5000
G01 Z0.0000 F2.000
G02 X286.1726 Y180.0188 Z-2.0000 I-8.4093 J0.0000
G02 X273.7954 Y174.7174 I-8.1726 J1.9812 F25.000
G02 Y189.2826 I4.2046 J7.2826
G02 X286.4093 Y182.0000 I4.2046 J-7.2826
G02 X286.1726 Y180.0188 Z-4.0000 I-8.4093 J0.0000 F2.000
G02 X273.7954 Y174.7174 I-8.1726 J1.9812 F25.000
G02 Y189.2826 I4.2046 J7.2826
G02 X286.4093 Y182.0000 I4.2046 J-7.2826
G02 X286.1726 Y180.0188 Z-6.0000 I-8.4093 J0.0000 F2.000
G02 X273.7954 Y174.7174 I-8.1726 J1.9812 F25.000
G02 Y189.2826 I4.2046 J7.2826
G02 X286.4093 Y182.0000 I4.2046 J-7.2826
G02 X286.1726 Y180.0188 I-8.4093 J0.0000
G00 Z127.0000

(No. 9 Hole machining: Hole 37)
G00 X190.4093 Y182.0000 Z127.0000
G00 Z0.5000
G01 Z0.0000 F2.000
G02 X190.1726 Y180.0188 Z-2.0000 I-8.4093 J0.0000
G02 X177.7954 Y174.7174 I-8.1726 J1.9812 F25.000
G02 Y189.2826 I4.2046 J7.2826
G02 X190.4093 Y182.0000 I4.2046 J-7.2826
G02 X190.1726 Y180.0188 Z-4.0000 I-8.4093 J0.0000 F2.000
G02 X177.7954 Y174.7174 I-8.1726 J1.9812 F25.000
G02 Y189.2826 I4.2046 J7.2826
G02 X190.4093 Y182.0000 I4.2046 J-7.2826
G02 X190.1726 Y180.0188 Z-6.0000 I-8.4093 J0.0000 F2.000
G02 X177.7954 Y174.7174 I-8.1726 J1.9812 F25.000
G02 Y189.2826 I4.2046 J7.2826
G02 X190.4093 Y182.0000 I4.2046 J-7.2826
G02 X190.1726 Y180.0188 I-8.4093 J0.0000
G00 Z127.0000

(No. 10 Hole machining: Hole 36)
G00 X94.4093 Y182.0000 Z127.0000
G00 Z0.5000
G01 Z0.0000 F2.000
G02 X94.1726 Y180.0188 Z-2.0000 I-8.4093 J0.0000
G02 X81.7954 Y174.7174 I-8.1726 J1.9812 F25.000
G02 Y189.2826 I4.2046 J7.2826
G02 X94.4093 Y182.0000 I4.2046 J-7.2826
G02 X94.1726 Y180.0188 Z-4.0000 I-8.4093 J0.0000 F2.000
G02 X81.7954 Y174.7174 I-8.1726 J1.9812 F25.000
G02 Y189.2826 I4.2046 J7.2826
G02 X94.4093 Y182.0000 I4.2046 J-7.2826
G02 X94.1726 Y180.0188 Z-6.0000 I-8.4093 J0.0000 F2.000
G02 X81.7954 Y174.7174 I-8.1726 J1.9812 F25.000
G02 Y189.2826 I4.2046 J7.2826
G02 X94.4093 Y182.0000 I4.2046 J-7.2826
G02 X94.1726 Y180.0188 I-8.4093 J0.0000
G00 Z127.0000

(No. 11 Hole machining: Hole 9)
G00 X86.5077 Y269.6061 Z127.0000
G00 Z0.5000
G01 Z0.0000 F2.000
G02 X84.5159 Y269.7227 Z-2.0000 I-0.5077 J8.3939
G02 X78.4768 Y281.7572 I1.4841 J8.2773 F25.000
G02 X93.0155 Y282.6367 I7.5232 J-3.7572
G02 X86.5077 Y269.6061 I-7.0155 J-4.6367
G02 X84.5159 Y269.7227 Z-4.0000 I-0.5077 J8.3939 F2.000
G02 X78.4768 Y281.7572 I1.4841 J8.2773 F25.000
G02 X93.0155 Y282.6367 I7.5232 J-3.7572
G02 X86.5077 Y269.6061 I-7.0155 J-4.6367
G02 X84.5159 Y269.7227 Z-6.0000 I-0.5077 J8.3939 F2.000
G02 X78.4768 Y281.7572 I1.4841 J8.2773 F25.000
G02 X93.0155 Y282.6367 I7.5232 J-3.7572
G02 X86.5077 Y269.6061 I-7.0155 J-4.6367
G02 X84.5159 Y269.7227 I-0.5077 J8.3939
G00 Z127.0000

(No. 12 Hole machining: Hole 21)
G00 X173.6061 Y277.4923 Z127.0000
G00 Z0.5000
G01 Z0.0000 F2.000
G02 X173.7227 Y279.4841 Z-2.0000 I8.3939 J0.5077
G02 X185.7572 Y285.5232 I8.2773 J-1.4841 F25.000
G02 X186.6367 Y270.9845 I-3.7572 J-7.5232
G02 X173.6061 Y277.4923 I-4.6367 J7.0155
G02 X173.7227 Y279.4841 Z-4.0000 I8.3939 J0.5077 F2.000
G02 X185.7572 Y285.5232 I8.2773 J-1.4841 F25.000
G02 X186.6367 Y270.9845 I-3.7572 J-7.5232
G02 X173.6061 Y277.4923 I-4.6367 J7.0155
G02 X173.7227 Y279.4841 Z-6.0000 I8.3939 J0.5077 F2.000
G02 X185.7572 Y285.5232 I8.2773 J-1.4841 F25.000
G02 X186.6367 Y270.9845 I-3.7572 J-7.5232
G02 X173.6061 Y277.4923 I-4.6367 J7.0155
G02 X173.7227 Y279.4841 I8.3939 J0.5077
G00 Z127.0000

(No. 13 Hole machining: Hole 24)
G00 X269.5907 Y278.0000 Z127.0000
G00 Z0.5000
G01 Z0.0000 F2.000
G02 X269.8274 Y279.9812 Z-2.0000 I8.4093 J0.0000
G02 X282.2046 Y285.2826 I8.1726 J-1.9812 F25.000
G02 Y270.7174 I-4.2046 J-7.2826
G02 X269.5907 Y278.0000 I-4.2046 J7.2826
G02 X269.8274 Y279.9812 Z-4.0000 I8.4093 J0.0000 F2.000
G02 X282.2046 Y285.2826 I8.1726 J-1.9812 F25.000
G02 Y270.7174 I-4.2046 J-7.2826
G02 X269.5907 Y278.0000 I-4.2046 J7.2826
G02 X269.8274 Y279.9812 Z-6.0000 I8.4093 J0.0000 F2.000
G02 X282.2046 Y285.2826 I8.1726 J-1.9812 F25.000
G02 Y270.7174 I-4.2046 J-7.2826
G02 X269.5907 Y278.0000 I-4.2046 J7.2826
G02 X269.8274 Y279.9812 I8.4093 J0.0000
G00 Z127.0000

(No. 14 Hole machining: Hole 25)
G00 X365.5907 Y278.0000 Z127.0000
G00 Z0.5000
G01 Z0.0000 F2.000
G02 X365.8274 Y279.9812 Z-2.0000 I8.4093 J0.0000
G02 X378.2046 Y285.2826 I8.1726 J-1.9812 F25.000
G02 Y270.7174 I-4.2046 J-7.2826
G02 X365.5907 Y278.0000 I-4.2046 J7.2826
G02 X365.8274 Y279.9812 Z-4.0000 I8.4093 J0.0000 F2.000
G02 X378.2046 Y285.2826 I8.1726 J-1.9812 F25.000
G02 Y270.7174 I-4.2046 J-7.2826
G02 X365.5907 Y278.0000 I-4.2046 J7.2826
G02 X365.8274 Y279.9812 Z-6.0000 I8.4093 J0.0000 F2.000
G02 X378.2046 Y285.2826 I8.1726 J-1.9812 F25.000
G02 Y270.7174 I-4.2046 J-7.2826
G02 X365.5907 Y278.0000 I-4.2046 J7.2826
G02 X365.8274 Y279.9812 I8.4093 J0.0000
G00 Z127.0000

(No. 15 Hole machining: Hole 26)
G00 X461.5907 Y278.0000 Z127.0000
G00 Z0.5000
G01 Z0.0000 F2.000
G02 X461.8274 Y279.9812 Z-2.0000 I8.4093 J0.0000
G02 X474.2046 Y285.2826 I8.1726 J-1.9812 F25.000
G02 Y270.7174 I-4.2046 J-7.2826
G02 X461.5907 Y278.0000 I-4.2046 J7.2826
G02 X461.8274 Y279.9812 Z-4.0000 I8.4093 J0.0000 F2.000
G02 X474.2046 Y285.2826 I8.1726 J-1.9812 F25.000
G02 Y270.7174 I-4.2046 J-7.2826
G02 X461.5907 Y278.0000 I-4.2046 J7.2826
G02 X461.8274 Y279.9812 Z-6.0000 I8.4093 J0.0000 F2.000
G02 X474.2046 Y285.2826 I8.1726 J-1.9812 F25.000
G02 Y270.7174 I-4.2046 J-7.2826
G02 X461.5907 Y278.0000 I-4.2046 J7.2826
G02 X461.8274 Y279.9812 I8.4093 J0.0000
G00 Z127.0000

(No. 16 Hole machining: Hole 29)
G00 X469.4923 Y365.6061 Z127.0000
G00 Z0.5000
G01 Z0.0000 F2.000
G02 X467.5290 Y365.9620 Z-2.0000 I0.5077 J8.3939
G02 X462.9845 Y378.6367 I2.4710 J8.0380 F25.000
G02 X477.5232 Y377.7572 I7.0155 J-4.6367
G02 X469.4923 Y365.6061 I-7.5232 J-3.7572
G02 X467.5290 Y365.9620 Z-4.0000 I0.5077 J8.3939 F2.000
G02 X462.9845 Y378.6367 I2.4710 J8.0380 F25.000
G02 X477.5232 Y377.7572 I7.0155 J-4.6367
G02 X469.4923 Y365.6061 I-7.5232 J-3.7572
G02 X467.5290 Y365.9620 Z-6.0000 I0.5077 J8.3939 F2.000
G02 X462.9845 Y378.6367 I2.4710 J8.0380 F25.000
G02 X477.5232 Y377.7572 I7.0155 J-4.6367
G02 X469.4923 Y365.6061 I-7.5232 J-3.7572
G02 X467.5290 Y365.9620 I0.5077 J8.3939
G00 Z127.0000

(No. 17 Hole machining: Hole 28)
G00 X382.3939 Y373.4923 Z127.0000
G00 Z0.5000
G01 Z0.0000 F2.000
G02 X382.0380 Y371.5290 Z-2.0000 I-8.3939 J0.5077
G02 X369.3633 Y366.9845 I-8.0380 J2.4710 F25.000
G02 X370.2427 Y381.5232 I4.6367 J7.0155
G02 X382.3939 Y373.4923 I3.7573 J-7.5232
G02 X382.0380 Y371.5290 Z-4.0000 I-8.3939 J0.5077 F2.000
G02 X369.3633 Y366.9845 I-8.0380 J2.4710 F25.000
G02 X370.2427 Y381.5232 I4.6367 J7.0155
G02 X382.3939 Y373.4923 I3.7573 J-7.5232
G02 X382.0380 Y371.5290 Z-6.0000 I-8.3939 J0.5077 F2.000
G02 X369.3633 Y366.9845 I-8.0380 J2.4710 F25.000
G02 X370.2427 Y381.5232 I4.6367 J7.0155
G02 X382.3939 Y373.4923 I3.7573 J-7.5232
G02 X382.0380 Y371.5290 I-8.3939 J0.5077
G00 Z127.0000

(No. 18 Hole machining: Hole 27)
G00 X286.4093 Y374.0000 Z127.0000
G00 Z0.5000
G01 Z0.0000 F2.000
G02 X286.1726 Y372.0188 Z-2.0000 I-8.4093 J0.0000
G02 X273.7954 Y366.7174 I-8.1726 J1.9812 F25.000
G02 Y381.2826 I4.2046 J7.2826
G02 X286.4093 Y374.0000 I4.2046 J-7.2826
G02 X286.1726 Y372.0188 Z-4.0000 I-8.4093 J0.0000 F2.000
G02 X273.7954 Y366.7174 I-8.1726 J1.9812 F25.000
G02 Y381.2826 I4.2046 J7.2826
G02 X286.4093 Y374.0000 I4.2046 J-7.2826
G02 X286.1726 Y372.0188 Z-6.0000 I-8.4093 J0.0000 F2.000
G02 X273.7954 Y366.7174 I-8.1726 J1.9812 F25.000
G02 Y381.2826 I4.2046 J7.2826
G02 X286.4093 Y374.0000 I4.2046 J-7.2826
G02 X286.1726 Y372.0188 I-8.4093 J0.0000
G00 Z127.0000

(No. 19 Hole machining: Hole 22)
G00 X190.4093 Y374.0000 Z127.0000
G00 Z0.5000
G01 Z0.0000 F2.000
G02 X190.1726 Y372.0188 Z-2.0000 I-8.4093 J0.0000
G02 X177.7954 Y366.7174 I-8.1726 J1.9812 F25.000
G02 Y381.2826 I4.2046 J7.2826
G02 X190.4093 Y374.0000 I4.2046 J-7.2826
G02 X190.1726 Y372.0188 Z-4.0000 I-8.4093 J0.0000 F2.000
G02 X177.7954 Y366.7174 I-8.1726 J1.9812 F25.000
G02 Y381.2826 I4.2046 J7.2826
G02 X190.4093 Y374.0000 I4.2046 J-7.2826
G02 X190.1726 Y372.0188 Z-6.0000 I-8.4093 J0.0000 F2.000
G02 X177.7954 Y366.7174 I-8.1726 J1.9812 F25.000
G02 Y381.2826 I4.2046 J7.2826
G02 X190.4093 Y374.0000 I4.2046 J-7.2826
G02 X190.1726 Y372.0188 I-8.4093 J0.0000
G00 Z127.0000

(No. 20 Hole machining: Hole 10)
G00 X94.4093 Y374.0000 Z127.0000
G00 Z0.5000
G01 Z0.0000 F2.000
G02 X94.1726 Y372.0188 Z-2.0000 I-8.4093 J0.0000
G02 X81.7954 Y366.7174 I-8.1726 J1.9812 F25.000
G02 Y381.2826 I4.2046 J7.2826
G02 X94.4093 Y374.0000 I4.2046 J-7.2826
G02 X94.1726 Y372.0188 Z-4.0000 I-8.4093 J0.0000 F2.000
G02 X81.7954 Y366.7174 I-8.1726 J1.9812 F25.000
G02 Y381.2826 I4.2046 J7.2826
G02 X94.4093 Y374.0000 I4.2046 J-7.2826
G02 X94.1726 Y372.0188 Z-6.0000 I-8.4093 J0.0000 F2.000
G02 X81.7954 Y366.7174 I-8.1726 J1.9812 F25.000
G02 Y381.2826 I4.2046 J7.2826
G02 X94.4093 Y374.0000 I4.2046 J-7.2826
G02 X94.1726 Y372.0188 I-8.4093 J0.0000
G00 Z127.0000

(No. 21 Hole machining: Hole 11)
G00 X86.5077 Y461.6061 Z127.0000
G00 Z0.5000
G01 Z0.0000 F2.000
G02 X84.5159 Y461.7227 Z-2.0000 I-0.5077 J8.3939
G02 X78.4768 Y473.7572 I1.4841 J8.2773 F25.000
G02 X93.0155 Y474.6367 I7.5232 J-3.7572
G02 X86.5077 Y461.6061 I-7.0155 J-4.6367
G02 X84.5159 Y461.7227 Z-4.0000 I-0.5077 J8.3939 F2.000
G02 X78.4768 Y473.7572 I1.4841 J8.2773 F25.000
G02 X93.0155 Y474.6367 I7.5232 J-3.7572
G02 X86.5077 Y461.6061 I-7.0155 J-4.6367
G02 X84.5159 Y461.7227 Z-6.0000 I-0.5077 J8.3939 F2.000
G02 X78.4768 Y473.7572 I1.4841 J8.2773 F25.000
G02 X93.0155 Y474.6367 I7.5232 J-3.7572
G02 X86.5077 Y461.6061 I-7.0155 J-4.6367
G02 X84.5159 Y461.7227 I-0.5077 J8.3939
G00 Z127.0000

(No. 22 Hole machining: Hole 23)
G00 X173.6061 Y469.4923 Z127.0000
G00 Z0.5000
G01 Z0.0000 F2.000
G02 X173.7227 Y471.4841 Z-2.0000 I8.3939 J0.5077
G02 X185.7572 Y477.5232 I8.2773 J-1.4841 F25.000
G02 X186.6367 Y462.9845 I-3.7572 J-7.5232
G02 X173.6061 Y469.4923 I-4.6367 J7.0155
G02 X173.7227 Y471.4841 Z-4.0000 I8.3939 J0.5077 F2.000
G02 X185.7572 Y477.5232 I8.2773 J-1.4841 F25.000
G02 X186.6367 Y462.9845 I-3.7572 J-7.5232
G02 X173.6061 Y469.4923 I-4.6367 J7.0155
G02 X173.7227 Y471.4841 Z-6.0000 I8.3939 J0.5077 F2.000
G02 X185.7572 Y477.5232 I8.2773 J-1.4841 F25.000
G02 X186.6367 Y462.9845 I-3.7572 J-7.5232
G02 X173.6061 Y469.4923 I-4.6367 J7.0155
G02 X173.7227 Y471.4841 I8.3939 J0.5077
G00 Z127.0000

(No. 23 Hole machining: Hole 30)
G00 X269.5907 Y470.0000 Z127.0000
G00 Z0.5000
G01 Z0.0000 F2.000
G02 X269.8274 Y471.9812 Z-2.0000 I8.4093 J0.0000
G02 X282.2046 Y477.2826 I8.1726 J-1.9812 F25.000
G02 Y462.7174 I-4.2046 J-7.2826
G02 X269.5907 Y470.0000 I-4.2046 J7.2826
G02 X269.8274 Y471.9812 Z-4.0000 I8.4093 J0.0000 F2.000
G02 X282.2046 Y477.2826 I8.1726 J-1.9812 F25.000
G02 Y462.7174 I-4.2046 J-7.2826
G02 X269.5907 Y470.0000 I-4.2046 J7.2826
G02 X269.8274 Y471.9812 Z-6.0000 I8.4093 J0.0000 F2.000
G02 X282.2046 Y477.2826 I8.1726 J-1.9812 F25.000
G02 Y462.7174 I-4.2046 J-7.2826
G02 X269.5907 Y470.0000 I-4.2046 J7.2826
G02 X269.8274 Y471.9812 I8.4093 J0.0000
G00 Z127.0000

(No. 24 Hole machining: Hole 31)
G00 X365.5907 Y470.0000 Z127.0000
G00 Z0.5000
G01 Z0.0000 F2.000
G02 X365.8274 Y471.9812 Z-2.0000 I8.4093 J0.0000
G02 X378.2046 Y477.2826 I8.1726 J-1.9812 F25.000
G02 Y462.7174 I-4.2046 J-7.2826
G02 X365.5907 Y470.0000 I-4.2046 J7.2826
G02 X365.8274 Y471.9812 Z-4.0000 I8.4093 J0.0000 F2.000
G02 X378.2046 Y477.2826 I8.1726 J-1.9812 F25.000
G02 Y462.7174 I-4.2046 J-7.2826
G02 X365.5907 Y470.0000 I-4.2046 J7.2826
G02 X365.8274 Y471.9812 Z-6.0000 I8.4093 J0.0000 F2.000
G02 X378.2046 Y477.2826 I8.1726 J-1.9812 F25.000
G02 Y462.7174 I-4.2046 J-7.2826
G02 X365.5907 Y470.0000 I-4.2046 J7.2826
G02 X365.8274 Y471.9812 I8.4093 J0.0000
G00 Z127.0000

(No. 25 Hole machining: Hole 32)
G00 X461.5907 Y470.0000 Z127.0000
G00 Z0.5000
G01 Z0.0000 F2.000
G02 X461.8274 Y471.9812 Z-2.0000 I8.4093 J0.0000
G02 X474.2046 Y477.2826 I8.1726 J-1.9812 F25.000
G02 Y462.7174 I-4.2046 J-7.2826
G02 X461.5907 Y470.0000 I-4.2046 J7.2826
G02 X461.8274 Y471.9812 Z-4.0000 I8.4093 J0.0000 F2.000
G02 X474.2046 Y477.2826 I8.1726 J-1.9812 F25.000
G02 Y462.7174 I-4.2046 J-7.2826
G02 X461.5907 Y470.0000 I-4.2046 J7.2826
G02 X461.8274 Y471.9812 Z-6.0000 I8.4093 J0.0000 F2.000
G02 X474.2046 Y477.2826 I8.1726 J-1.9812 F25.000
G02 Y462.7174 I-4.2046 J-7.2826
G02 X461.5907 Y470.0000 I-4.2046 J7.2826
G02 X461.8274 Y471.9812 I8.4093 J0.0000
G00 Z127.0000

(No. 26 Hole machining: Hole 46)
G00 X653.5907 Y470.0000 Z127.0000
G00 Z0.5000
G01 Z0.0000 F2.000
G02 X653.8274 Y471.9812 Z-2.0000 I8.4093 J0.0000
G02 X666.2046 Y477.2826 I8.1726 J-1.9812 F25.000
G02 Y462.7174 I-4.2046 J-7.2826
G02 X653.5907 Y470.0000 I-4.2046 J7.2826
G02 X653.8274 Y471.9812 Z-4.0000 I8.4093 J0.0000 F2.000
G02 X666.2046 Y477.2826 I8.1726 J-1.9812 F25.000
G02 Y462.7174 I-4.2046 J-7.2826
G02 X653.5907 Y470.0000 I-4.2046 J7.2826
G02 X653.8274 Y471.9812 Z-6.0000 I8.4093 J0.0000 F2.000
G02 X666.2046 Y477.2826 I8.1726 J-1.9812 F25.000
G02 Y462.7174 I-4.2046 J-7.2826
G02 X653.5907 Y470.0000 I-4.2046 J7.2826
G02 X653.8274 Y471.9812 I8.4093 J0.0000
G00 Z127.0000

(No. 27 Hole machining: Hole 53)
G00 X749.5907 Y470.0000 Z127.0000
G00 Z0.5000
G01 Z0.0000 F2.000
G02 X749.8274 Y471.9812 Z-2.0000 I8.4093 J0.0000
G02 X762.2046 Y477.2826 I8.1726 J-1.9812 F25.000
G02 Y462.7174 I-4.2046 J-7.2826
G02 X749.5907 Y470.0000 I-4.2046 J7.2826
G02 X749.8274 Y471.9812 Z-4.0000 I8.4093 J0.0000 F2.000
G02 X762.2046 Y477.2826 I8.1726 J-1.9812 F25.000
G02 Y462.7174 I-4.2046 J-7.2826
G02 X749.5907 Y470.0000 I-4.2046 J7.2826
G02 X749.8274 Y471.9812 Z-6.0000 I8.4093 J0.0000 F2.000
G02 X762.2046 Y477.2826 I8.1726 J-1.9812 F25.000
G02 Y462.7174 I-4.2046 J-7.2826
G02 X749.5907 Y470.0000 I-4.2046 J7.2826
G02 X749.8274 Y471.9812 I8.4093 J0.0000
G00 Z127.0000

(No. 28 Hole machining: Hole 49)
G00 X845.5907 Y470.0000 Z127.0000
G00 Z0.5000
G01 Z0.0000 F2.000
G02 X845.8274 Y471.9812 Z-2.0000 I8.4093 J0.0000
G02 X858.2046 Y477.2826 I8.1726 J-1.9812 F25.000
G02 Y462.7174 I-4.2046 J-7.2826
G02 X845.5907 Y470.0000 I-4.2046 J7.2826
G02 X845.8274 Y471.9812 Z-4.0000 I8.4093 J0.0000 F2.000
G02 X858.2046 Y477.2826 I8.1726 J-1.9812 F25.000
G02 Y462.7174 I-4.2046 J-7.2826
G02 X845.5907 Y470.0000 I-4.2046 J7.2826
G02 X845.8274 Y471.9812 Z-6.0000 I8.4093 J0.0000 F2.000
G02 X858.2046 Y477.2826 I8.1726 J-1.9812 F25.000
G02 Y462.7174 I-4.2046 J-7.2826
G02 X845.5907 Y470.0000 I-4.2046 J7.2826
G02 X845.8274 Y471.9812 I8.4093 J0.0000
G00 Z127.0000

(No. 29 Hole machining: Hole 57)
G00 X941.5907 Y470.0000 Z127.0000
G00 Z0.5000
G01 Z0.0000 F2.000
G02 X941.8274 Y471.9812 Z-2.0000 I8.4093 J0.0000
G02 X954.2046 Y477.2826 I8.1726 J-1.9812 F25.000
G02 Y462.7174 I-4.2046 J-7.2826
G02 X941.5907 Y470.0000 I-4.2046 J7.2826
G02 X941.8274 Y471.9812 Z-4.0000 I8.4093 J0.0000 F2.000
G02 X954.2046 Y477.2826 I8.1726 J-1.9812 F25.000
G02 Y462.7174 I-4.2046 J-7.2826
G02 X941.5907 Y470.0000 I-4.2046 J7.2826
G02 X941.8274 Y471.9812 Z-6.0000 I8.4093 J0.0000 F2.000
G02 X954.2046 Y477.2826 I8.1726 J-1.9812 F25.000
G02 Y462.7174 I-4.2046 J-7.2826
G02 X941.5907 Y470.0000 I-4.2046 J7.2826
G02 X941.8274 Y471.9812 I8.4093 J0.0000
G00 Z127.0000

(No. 30 Hole machining: Hole 35)
G00 X1037.5907 Y470.0000 Z127.0000
G00 Z0.5000
G01 Z0.0000 F2.000
G02 X1037.8274 Y471.9812 Z-2.0000 I8.4093 J0.0000
G02 X1054.4093 Y470.0000 I8.1726 J-1.9812 F25.000
G02 X1037.5907 I-8.4093 J0.0000
G02 X1037.8274 Y471.9812 Z-4.0000 I8.4093 J0.0000 F2.000
G02 X1054.4093 Y470.0000 I8.1726 J-1.9812 F25.000
G02 X1037.5907 I-8.4093 J0.0000
G02 X1037.8274 Y471.9812 Z-6.0000 I8.4093 J0.0000 F2.000
G02 X1054.4093 Y470.0000 I8.1726 J-1.9812 F25.000
G02 X1037.5907 I-8.4093 J0.0000
G02 X1037.8274 Y471.9812 I8.4093 J0.0000
G00 Z127.0000

(No. 31 Hole machining: Hole 33)
G00 X1045.4923 Y382.3939 Z127.0000
G00 Z0.5000
G01 Z0.0000 F2.000
G02 X1047.4841 Y382.2773 Z-2.0000 I0.5077 J-8.3939
G02 X1053.5232 Y370.2427 I-1.4841 J-8.2773 F25.000
G02 X1038.9845 Y369.3633 I-7.5232 J3.7573
G02 X1045.4923 Y382.3939 I7.0155 J4.6367
G02 X1047.4841 Y382.2773 Z-4.0000 I0.5077 J-8.3939 F2.000
G02 X1053.5232 Y370.2427 I-1.4841 J-8.2773 F25.000
G02 X1038.9845 Y369.3633 I-7.5232 J3.7573
G02 X1045.4923 Y382.3939 I7.0155 J4.6367
G02 X1047.4841 Y382.2773 Z-6.0000 I0.5077 J-8.3939 F2.000
G02 X1053.5232 Y370.2427 I-1.4841 J-8.2773 F25.000
G02 X1038.9845 Y369.3633 I-7.5232 J3.7573
G02 X1045.4923 Y382.3939 I7.0155 J4.6367
G02 X1047.4841 Y382.2773 I0.5077 J-8.3939
G00 Z127.0000

(No. 32 Hole machining: Hole 58)
G00 X958.3939 Y374.5077 Z127.0000
G00 Z0.5000
G01 Z0.0000 F2.000
G02 X958.2773 Y372.5159 Z-2.0000 I-8.3939 J-0.5077
G02 X946.2427 Y366.4768 I-8.2773 J1.4842 F25.000
G02 X945.3633 Y381.0155 I3.7573 J7.5232
G02 X958.3939 Y374.5077 I4.6367 J-7.0155
G02 X958.2773 Y372.5159 Z-4.0000 I-8.3939 J-0.5077 F2.000
G02 X946.2427 Y366.4768 I-8.2773 J1.4842 F25.000
G02 X945.3633 Y381.0155 I3.7573 J7.5232
G02 X958.3939 Y374.5077 I4.6367 J-7.0155
G02 X958.2773 Y372.5159 Z-6.0000 I-8.3939 J-0.5077 F2.000
G02 X946.2427 Y366.4768 I-8.2773 J1.4842 F25.000
G02 X945.3633 Y381.0155 I3.7573 J7.5232
G02 X958.3939 Y374.5077 I4.6367 J-7.0155
G02 X958.2773 Y372.5159 I-8.3939 J-0.5077
G00 Z127.0000

(No. 33 Hole machining: Hole 52)
G00 X862.4093 Y374.0000 Z127.0000
G00 Z0.5000
G01 Z0.0000 F2.000
G02 X862.1726 Y372.0188 Z-2.0000 I-8.4093 J0.0000
G02 X849.7954 Y366.7174 I-8.1726 J1.9812 F25.000
G02 Y381.2826 I4.2046 J7.2826
G02 X862.4093 Y374.0000 I4.2046 J-7.2826
G02 X862.1726 Y372.0188 Z-4.0000 I-8.4093 J0.0000 F2.000
G02 X849.7954 Y366.7174 I-8.1726 J1.9812 F25.000
G02 Y381.2826 I4.2046 J7.2826
G02 X862.4093 Y374.0000 I4.2046 J-7.2826
G02 X862.1726 Y372.0188 Z-6.0000 I-8.4093 J0.0000 F2.000
G02 X849.7954 Y366.7174 I-8.1726 J1.9812 F25.000
G02 Y381.2826 I4.2046 J7.2826
G02 X862.4093 Y374.0000 I4.2046 J-7.2826
G02 X862.1726 Y372.0188 I-8.4093 J0.0000
G00 Z127.0000

(No. 34 Hole machining: Hole 55)
G00 X766.4093 Y374.0000 Z127.0000
G00 Z0.5000
G01 Z0.0000 F2.000
G02 X766.1726 Y372.0188 Z-2.0000 I-8.4093 J0.0000
G02 X753.7954 Y366.7174 I-8.1726 J1.9812 F25.000
G02 Y381.2826 I4.2046 J7.2826
G02 X766.4093 Y374.0000 I4.2046 J-7.2826
G02 X766.1726 Y372.0188 Z-4.0000 I-8.4093 J0.0000 F2.000
G02 X753.7954 Y366.7174 I-8.1726 J1.9812 F25.000
G02 Y381.2826 I4.2046 J7.2826
G02 X766.4093 Y374.0000 I4.2046 J-7.2826
G02 X766.1726 Y372.0188 Z-6.0000 I-8.4093 J0.0000 F2.000
G02 X753.7954 Y366.7174 I-8.1726 J1.9812 F25.000
G02 Y381.2826 I4.2046 J7.2826
G02 X766.4093 Y374.0000 I4.2046 J-7.2826
G02 X766.1726 Y372.0188 I-8.4093 J0.0000
G00 Z127.0000

(No. 35 Hole machining: Hole 48)
G00 X670.4093 Y374.0000 Z127.0000
G00 Z0.5000
G01 Z0.0000 F2.000
G02 X670.1726 Y372.0188 Z-2.0000 I-8.4093 J0.0000
G02 X657.7954 Y366.7174 I-8.1726 J1.9812 F25.000
G02 Y381.2826 I4.2046 J7.2826
G02 X670.4093 Y374.0000 I4.2046 J-7.2826
G02 X670.1726 Y372.0188 Z-4.0000 I-8.4093 J0.0000 F2.000
G02 X657.7954 Y366.7174 I-8.1726 J1.9812 F25.000
G02 Y381.2826 I4.2046 J7.2826
G02 X670.4093 Y374.0000 I4.2046 J-7.2826
G02 X670.1726 Y372.0188 Z-6.0000 I-8.4093 J0.0000 F2.000
G02 X657.7954 Y366.7174 I-8.1726 J1.9812 F25.000
G02 Y381.2826 I4.2046 J7.2826
G02 X670.4093 Y374.0000 I4.2046 J-7.2826
G02 X670.1726 Y372.0188 I-8.4093 J0.0000
G00 Z127.0000

(No. 36 Hole machining: Hole 47)
G00 X662.5077 Y286.3939 Z127.0000
G00 Z0.5000
G01 Z0.0000 F2.000
G02 X664.4710 Y286.0380 Z-2.0000 I-0.5077 J-8.3939
G02 X669.0155 Y273.3633 I-2.4710 J-8.0380 F25.000
G02 X654.4768 Y274.2427 I-7.0155 J4.6367
G02 X662.5077 Y286.3939 I7.5232 J3.7573
G02 X664.4710 Y286.0380 Z-4.0000 I-0.5077 J-8.3939 F2.000
G02 X669.0155 Y273.3633 I-2.4710 J-8.0380 F25.000
G02 X654.4768 Y274.2427 I-7.0155 J4.6367
G02 X662.5077 Y286.3939 I7.5232 J3.7573
G02 X664.4710 Y286.0380 Z-6.0000 I-0.5077 J-8.3939 F2.000
G02 X669.0155 Y273.3633 I-2.4710 J-8.0380 F25.000
G02 X654.4768 Y274.2427 I-7.0155 J4.6367
G02 X662.5077 Y286.3939 I7.5232 J3.7573
G02 X664.4710 Y286.0380 I-0.5077 J-8.3939
G00 Z127.0000

(No. 37 Hole machining: Hole 54)
G00 X749.6061 Y278.5077 Z127.0000
G00 Z0.5000
G01 Z0.0000 F2.000
G02 X749.9620 Y280.4710 Z-2.0000 I8.3939 J-0.5077
G02 X762.6367 Y285.0155 I8.0380 J-2.4710 F25.000
G02 X761.7572 Y270.4768 I-4.6367 J-7.0155
G02 X749.6061 Y278.5077 I-3.7572 J7.5232
G02 X749.9620 Y280.4710 Z-4.0000 I8.3939 J-0.5077 F2.000
G02 X762.6367 Y285.0155 I8.0380 J-2.4710 F25.000
G02 X761.7572 Y270.4768 I-4.6367 J-7.0155
G02 X749.6061 Y278.5077 I-3.7572 J7.5232
G02 X749.9620 Y280.4710 Z-6.0000 I8.3939 J-0.5077 F2.000
G02 X762.6367 Y285.0155 I8.0380 J-2.4710 F25.000
G02 X761.7572 Y270.4768 I-4.6367 J-7.0155
G02 X749.6061 Y278.5077 I-3.7572 J7.5232
G02 X749.9620 Y280.4710 I8.3939 J-0.5077
G00 Z127.0000

(No. 38 Hole machining: Hole 45)
G00 X845.5907 Y278.0000 Z127.0000
G00 Z0.5000
G01 Z0.0000 F2.000
G02 X845.8274 Y279.9812 Z-2.0000 I8.4093 J0.0000
G02 X858.2046 Y285.2826 I8.1726 J-1.9812 F25.000
G02 Y270.7174 I-4.2046 J-7.2826
G02 X845.5907 Y278.0000 I-4.2046 J7.2826
G02 X845.8274 Y279.9812 Z-4.0000 I8.4093 J0.0000 F2.000
G02 X858.2046 Y285.2826 I8.1726 J-1.9812 F25.000
G02 Y270.7174 I-4.2046 J-7.2826
G02 X845.5907 Y278.0000 I-4.2046 J7.2826
G02 X845.8274 Y279.9812 Z-6.0000 I8.4093 J0.0000 F2.000
G02 X858.2046 Y285.2826 I8.1726 J-1.9812 F25.000
G02 Y270.7174 I-4.2046 J-7.2826
G02 X845.5907 Y278.0000 I-4.2046 J7.2826
G02 X845.8274 Y279.9812 I8.4093 J0.0000
G00 Z127.0000

(No. 39 Hole machining: Hole 56)
G00 X941.5907 Y278.0000 Z127.0000
G00 Z0.5000
G01 Z0.0000 F2.000
G02 X941.8274 Y279.9812 Z-2.0000 I8.4093 J0.0000
G02 X954.2046 Y285.2826 I8.1726 J-1.9812 F25.000
G02 Y270.7174 I-4.2046 J-7.2826
G02 X941.5907 Y278.0000 I-4.2046 J7.2826
G02 X941.8274 Y279.9812 Z-4.0000 I8.4093 J0.0000 F2.000
G02 X954.2046 Y285.2826 I8.1726 J-1.9812 F25.000
G02 Y270.7174 I-4.2046 J-7.2826
G02 X941.5907 Y278.0000 I-4.2046 J7.2826
G02 X941.8274 Y279.9812 Z-6.0000 I8.4093 J0.0000 F2.000
G02 X954.2046 Y285.2826 I8.1726 J-1.9812 F25.000
G02 Y270.7174 I-4.2046 J-7.2826
G02 X941.5907 Y278.0000 I-4.2046 J7.2826
G02 X941.8274 Y279.9812 I8.4093 J0.0000
G00 Z127.0000

(No. 40 Hole machining: Hole 34)
G00 X1037.5907 Y278.0000 Z127.0000
G00 Z0.5000
G01 Z0.0000 F2.000
G02 X1037.8274 Y279.9812 Z-2.0000 I8.4093 J0.0000
G02 X1054.4093 Y278.0000 I8.1726 J-1.9812 F25.000
G02 X1037.5907 I-8.4093 J0.0000
G02 X1037.8274 Y279.9812 Z-4.0000 I8.4093 J0.0000 F2.000
G02 X1054.4093 Y278.0000 I8.1726 J-1.9812 F25.000
G02 X1037.5907 I-8.4093 J0.0000
G02 X1037.8274 Y279.9812 Z-6.0000 I8.4093 J0.0000 F2.000
G02 X1054.4093 Y278.0000 I8.1726 J-1.9812 F25.000
G02 X1037.5907 I-8.4093 J0.0000
G02 X1037.8274 Y279.9812 I8.4093 J0.0000
G00 Z127.0000

(No. 41 Hole machining: Hole 12)
G00 X1045.4923 Y190.3939 Z127.0000
G00 Z0.5000
G01 Z0.0000 F2.000
G02 X1047.4841 Y190.2773 Z-2.0000 I0.5077 J-8.3939
G02 X1046.5077 Y173.6061 I-1.4841 J-8.2773 F25.000
G02 X1045.4923 Y190.3939 I-0.5077 J8.3939
G02 X1047.4841 Y190.2773 Z-4.0000 I0.5077 J-8.3939 F2.000
G02 X1046.5077 Y173.6061 I-1.4841 J-8.2773 F25.000
G02 X1045.4923 Y190.3939 I-0.5077 J8.3939
G02 X1047.4841 Y190.2773 Z-6.0000 I0.5077 J-8.3939 F2.000
G02 X1046.5077 Y173.6061 I-1.4841 J-8.2773 F25.000
G02 X1045.4923 Y190.3939 I-0.5077 J8.3939
G02 X1047.4841 Y190.2773 I0.5077 J-8.3939
G00 Z127.0000

(No. 42 Hole machining: Hole 51)
G00 X958.3939 Y182.5077 Z127.0000
G00 Z0.5000
G01 Z0.0000 F2.000
G02 X958.2773 Y180.5159 Z-2.0000 I-8.3939 J-0.5077
G02 X946.2427 Y174.4768 I-8.2773 J1.4842 F25.000
G02 X945.3633 Y189.0155 I3.7573 J7.5232
G02 X958.3939 Y182.5077 I4.6367 J-7.0155
G02 X958.2773 Y180.5159 Z-4.0000 I-8.3939 J-0.5077 F2.000
G02 X946.2427 Y174.4768 I-8.2773 J1.4842 F25.000
G02 X945.3633 Y189.0155 I3.7573 J7.5232
G02 X958.3939 Y182.5077 I4.6367 J-7.0155
G02 X958.2773 Y180.5159 Z-6.0000 I-8.3939 J-0.5077 F2.000
G02 X946.2427 Y174.4768 I-8.2773 J1.4842 F25.000
G02 X945.3633 Y189.0155 I3.7573 J7.5232
G02 X958.3939 Y182.5077 I4.6367 J-7.0155
G02 X958.2773 Y180.5159 I-8.3939 J-0.5077
G00 Z127.0000

(No. 43 Hole machining: Hole 44)
G00 X862.4093 Y182.0000 Z127.0000
G00 Z0.5000
G01 Z0.0000 F2.000
G02 X862.1726 Y180.0188 Z-2.0000 I-8.4093 J0.0000
G02 X849.7954 Y174.7174 I-8.1726 J1.9812 F25.000
G02 Y189.2826 I4.2046 J7.2826
G02 X862.4093 Y182.0000 I4.2046 J-7.2826
G02 X862.1726 Y180.0188 Z-4.0000 I-8.4093 J0.0000 F2.000
G02 X849.7954 Y174.7174 I-8.1726 J1.9812 F25.000
G02 Y189.2826 I4.2046 J7.2826
G02 X862.4093 Y182.0000 I4.2046 J-7.2826
G02 X862.1726 Y180.0188 Z-6.0000 I-8.4093 J0.0000 F2.000
G02 X849.7954 Y174.7174 I-8.1726 J1.9812 F25.000
G02 Y189.2826 I4.2046 J7.2826
G02 X862.4093 Y182.0000 I4.2046 J-7.2826
G02 X862.1726 Y180.0188 I-8.4093 J0.0000
G00 Z127.0000

(No. 44 Hole machining: Hole 50)
G00 X766.4093 Y182.0000 Z127.0000
G00 Z0.5000
G01 Z0.0000 F2.000
G02 X766.1726 Y180.0188 Z-2.0000 I-8.4093 J0.0000
G02 X753.7954 Y174.7174 I-8.1726 J1.9812 F25.000
G02 Y189.2826 I4.2046 J7.2826
G02 X766.4093 Y182.0000 I4.2046 J-7.2826
G02 X766.1726 Y180.0188 Z-4.0000 I-8.4093 J0.0000 F2.000
G02 X753.7954 Y174.7174 I-8.1726 J1.9812 F25.000
G02 Y189.2826 I4.2046 J7.2826
G02 X766.4093 Y182.0000 I4.2046 J-7.2826
G02 X766.1726 Y180.0188 Z-6.0000 I-8.4093 J0.0000 F2.000
G02 X753.7954 Y174.7174 I-8.1726 J1.9812 F25.000
G02 Y189.2826 I4.2046 J7.2826
G02 X766.4093 Y182.0000 I4.2046 J-7.2826
G02 X766.1726 Y180.0188 I-8.4093 J0.0000
G00 Z127.0000

(No. 45 Hole machining: Hole 42)
G00 X670.4093 Y182.0000 Z127.0000
G00 Z0.5000
G01 Z0.0000 F2.000
G02 X670.1726 Y180.0188 Z-2.0000 I-8.4093 J0.0000
G02 X657.7954 Y174.7174 I-8.1726 J1.9812 F25.000
G02 Y189.2826 I4.2046 J7.2826
G02 X670.4093 Y182.0000 I4.2046 J-7.2826
G02 X670.1726 Y180.0188 Z-4.0000 I-8.4093 J0.0000 F2.000
G02 X657.7954 Y174.7174 I-8.1726 J1.9812 F25.000
G02 Y189.2826 I4.2046 J7.2826
G02 X670.4093 Y182.0000 I4.2046 J-7.2826
G02 X670.1726 Y180.0188 Z-6.0000 I-8.4093 J0.0000 F2.000
G02 X657.7954 Y174.7174 I-8.1726 J1.9812 F25.000
G02 Y189.2826 I4.2046 J7.2826
G02 X670.4093 Y182.0000 I4.2046 J-7.2826
G02 X670.1726 Y180.0188 I-8.4093 J0.0000
G00 Z127.0000

(No. 46 Hole machining: Hole 40)
G00 X662.5077 Y94.3939 Z127.0000
G00 Z0.5000
G01 Z0.0000 F2.000
G02 X664.4710 Y94.0380 Z-2.0000 I-0.5077 J-8.3939
G02 X669.0155 Y81.3633 I-2.4710 J-8.0380 F25.000
G02 X654.4768 Y82.2427 I-7.0155 J4.6367
G02 X662.5077 Y94.3939 I7.5232 J3.7573
G02 X664.4710 Y94.0380 Z-4.0000 I-0.5077 J-8.3939 F2.000
G02 X669.0155 Y81.3633 I-2.4710 J-8.0380 F25.000
G02 X654.4768 Y82.2427 I-7.0155 J4.6367
G02 X662.5077 Y94.3939 I7.5232 J3.7573
G02 X664.4710 Y94.0380 Z-6.0000 I-0.5077 J-8.3939 F2.000
G02 X669.0155 Y81.3633 I-2.4710 J-8.0380 F25.000
G02 X654.4768 Y82.2427 I-7.0155 J4.6367
G02 X662.5077 Y94.3939 I7.5232 J3.7573
G02 X664.4710 Y94.0380 I-0.5077 J-8.3939
G00 Z127.0000

(No. 47 Hole machining: Hole 41)
G00 X749.6061 Y86.5077 Z127.0000
G00 Z0.5000
G01 Z0.0000 F2.000
G02 X749.9620 Y88.4710 Z-2.0000 I8.3939 J-0.5077
G02 X762.6367 Y93.0155 I8.0380 J-2.4710 F25.000
G02 X761.7572 Y78.4768 I-4.6367 J-7.0155
G02 X749.6061 Y86.5077 I-3.7572 J7.5232
G02 X749.9620 Y88.4710 Z-4.0000 I8.3939 J-0.5077 F2.000
G02 X762.6367 Y93.0155 I8.0380 J-2.4710 F25.000
G02 X761.7572 Y78.4768 I-4.6367 J-7.0155
G02 X749.6061 Y86.5077 I-3.7572 J7.5232
G02 X749.9620 Y88.4710 Z-6.0000 I8.3939 J-0.5077 F2.000
G02 X762.6367 Y93.0155 I8.0380 J-2.4710 F25.000
G02 X761.7572 Y78.4768 I-4.6367 J-7.0155
G02 X749.6061 Y86.5077 I-3.7572 J7.5232
G02 X749.9620 Y88.4710 I8.3939 J-0.5077
G00 Z127.0000

(No. 48 Hole machining: Hole 39)
G00 X845.5907 Y86.0000 Z127.0000
G00 Z0.5000
G01 Z0.0000 F2.000
G02 X845.8274 Y87.9812 Z-2.0000 I8.4093 J0.0000
G02 X862.4093 Y86.0000 I8.1726 J-1.9812 F25.000
G02 X845.5907 I-8.4093 J0.0000
G02 X845.8274 Y87.9812 Z-4.0000 I8.4093 J0.0000 F2.000
G02 X862.4093 Y86.0000 I8.1726 J-1.9812 F25.000
G02 X845.5907 I-8.4093 J0.0000
G02 X845.8274 Y87.9812 Z-6.0000 I8.4093 J0.0000 F2.000
G02 X862.4093 Y86.0000 I8.1726 J-1.9812 F25.000
G02 X845.5907 I-8.4093 J0.0000
G02 X845.8274 Y87.9812 I8.4093 J0.0000
G00 Z127.0000

(No. 49 Hole machining: Hole 43)
G00 X941.5907 Y86.0000 Z127.0000
G00 Z0.5000
G01 Z0.0000 F2.000
G02 X941.8274 Y87.9812 Z-2.0000 I8.4093 J0.0000
G02 X954.2046 Y93.2826 I8.1726 J-1.9812 F25.000
G02 Y78.7174 I-4.2046 J-7.2826
G02 X941.5907 Y86.0000 I-4.2046 J7.2826
G02 X941.8274 Y87.9812 Z-4.0000 I8.4093 J0.0000 F2.000
G02 X954.2046 Y93.2826 I8.1726 J-1.9812 F25.000
G02 Y78.7174 I-4.2046 J-7.2826
G02 X941.5907 Y86.0000 I-4.2046 J7.2826
G02 X941.8274 Y87.9812 Z-6.0000 I8.4093 J0.0000 F2.000
G02 X954.2046 Y93.2826 I8.1726 J-1.9812 F25.000
G02 Y78.7174 I-4.2046 J-7.2826
G02 X941.5907 Y86.0000 I-4.2046 J7.2826
G02 X941.8274 Y87.9812 I8.4093 J0.0000
G00 Z127.0000

(No. 50 Hole machining: Hole 19)
G00 X1037.5907 Y86.0000 Z127.0000
G00 Z0.5000
G01 Z0.0000 F2.000
G02 X1037.8274 Y87.9812 Z-2.0000 I8.4093 J0.0000
G02 X1050.2046 Y93.2826 I8.1726 J-1.9812 F25.000
G02 Y78.7174 I-4.2046 J-7.2826
G02 X1037.5907 Y86.0000 I-4.2046 J7.2826
G02 X1037.8274 Y87.9812 Z-4.0000 I8.4093 J0.0000 F2.000
G02 X1050.2046 Y93.2826 I8.1726 J-1.9812 F25.000
G02 Y78.7174 I-4.2046 J-7.2826
G02 X1037.5907 Y86.0000 I-4.2046 J7.2826
G02 X1037.8274 Y87.9812 Z-6.0000 I8.4093 J0.0000 F2.000
G02 X1050.2046 Y93.2826 I8.1726 J-1.9812 F25.000
G02 Y78.7174 I-4.2046 J-7.2826
G02 X1037.5907 Y86.0000 I-4.2046 J7.2826
G02 X1037.8274 Y87.9812 I8.4093 J0.0000
G00 Z127.0000
G00 X0.0000 Y0.0000

M05
