(Project MftfreeFix2x)
(Created with Estlcam 12.068)
(Machining time about 06:48:52 hours)

(Required tools:)
(1/8" Upcut Soft wood)

M03 S10000
G00 Z127.0000

(No. 1 Drill machining: Drill 1)
G00 X10.0000 Y10.0000 Z127.0000
G00 Z0.5000
G01 Z-2.0000 F2.000 S10000
G00 Z0.5000
G00 Z-1.5000
G01 Z-4.0000
G00 Z0.5000
G00 Z-3.5000
G01 Z-6.0000
G00 Z127.0000

(No. 2 Drill machining: Drill 4)
G00 X38.0000 Y38.0000 Z127.0000
G00 Z0.5000
G01 Z-2.0000 F2.000
G00 Z0.5000
G00 Z-1.5000
G01 Z-4.0000
G00 Z0.5000
G00 Z-3.5000
G01 Z-6.0000
G00 Z127.0000

(No. 3 Drill machining: Drill 5)
G00 X86.0000 Y86.0000 Z127.0000
G00 Z0.5000
G01 Z-2.0000 F2.000
G00 Z0.5000
G00 Z-1.5000
G01 Z-4.0000
G00 Z0.5000
G00 Z-3.5000
G01 Z-6.0000
G00 Z127.0000

(No. 4 Drill machining: Drill 6)
G00 X134.0000 Y38.0000 Z127.0000
G00 Z0.5000
G01 Z-2.0000 F2.000
G00 Z0.5000
G00 Z-1.5000
G01 Z-4.0000
G00 Z0.5000
G00 Z-3.5000
G01 Z-6.0000
G00 Z127.0000

(No. 5 Drill machining: Drill 41)
G00 X182.0000 Y86.0000 Z127.0000
G00 Z0.5000
G01 Z-2.0000 F2.000
G00 Z0.5000
G00 Z-1.5000
G01 Z-4.0000
G00 Z0.5000
G00 Z-3.5000
G01 Z-6.0000
G00 Z127.0000

(No. 6 Drill machining: Drill 7)
G00 X230.0000 Y38.0000 Z127.0000
G00 Z0.5000
G01 Z-2.0000 F2.000
G00 Z0.5000
G00 Z-1.5000
G01 Z-4.0000
G00 Z0.5000
G00 Z-3.5000
G01 Z-6.0000
G00 Z127.0000

(No. 7 Drill machining: Drill 2)
G00 X278.0000 Y10.0000 Z127.0000
G00 Z0.5000
G01 Z-2.0000 F2.000
G00 Z0.5000
G00 Z-1.5000
G01 Z-4.0000
G00 Z0.5000
G00 Z-3.5000
G01 Z-6.0000
G00 Z127.0000

(No. 8 Drill machining: Drill 8)
G00 X326.0000 Y38.0000 Z127.0000
G00 Z0.5000
G01 Z-2.0000 F2.000
G00 Z0.5000
G00 Z-1.5000
G01 Z-4.0000
G00 Z0.5000
G00 Z-3.5000
G01 Z-6.0000
G00 Z127.0000

(No. 9 Drill machining: Drill 42)
G00 X278.0000 Y86.0000 Z127.0000
G00 Z0.5000
G01 Z-2.0000 F2.000
G00 Z0.5000
G00 Z-1.5000
G01 Z-4.0000
G00 Z0.5000
G00 Z-3.5000
G01 Z-6.0000
G00 Z127.0000

(No. 10 Drill machining: Drill 13)
G00 X230.0000 Y134.0000 Z127.0000
G00 Z0.5000
G01 Z-2.0000 F2.000
G00 Z0.5000
G00 Z-1.5000
G01 Z-4.0000
G00 Z0.5000
G00 Z-3.5000
G01 Z-6.0000
G00 Z127.0000

(No. 11 Drill machining: Drill 47)
G00 X278.0000 Y182.0000 Z127.0000
G00 Z0.5000
G01 Z-2.0000 F2.000
G00 Z0.5000
G00 Z-1.5000
G01 Z-4.0000
G00 Z0.5000
G00 Z-3.5000
G01 Z-6.0000
G00 Z127.0000

(No. 12 Drill machining: Drill 14)
G00 X326.0000 Y134.0000 Z127.0000
G00 Z0.5000
G01 Z-2.0000 F2.000
G00 Z0.5000
G00 Z-1.5000
G01 Z-4.0000
G00 Z0.5000
G00 Z-3.5000
G01 Z-6.0000
G00 Z127.0000

(No. 13 Drill machining: Drill 43)
G00 X374.0000 Y86.0000 Z127.0000
G00 Z0.5000
G01 Z-2.0000 F2.000
G00 Z0.5000
G00 Z-1.5000
G01 Z-4.0000
G00 Z0.5000
G00 Z-3.5000
G01 Z-6.0000
G00 Z127.0000

(No. 14 Drill machining: Drill 9)
G00 X422.0000 Y38.0000 Z127.0000
G00 Z0.5000
G01 Z-2.0000 F2.000
G00 Z0.5000
G00 Z-1.5000
G01 Z-4.0000
G00 Z0.5000
G00 Z-3.5000
G01 Z-6.0000
G00 Z127.0000

(No. 15 Drill machining: Drill 44)
G00 X470.0000 Y86.0000 Z127.0000
G00 Z0.5000
G01 Z-2.0000 F2.000
G00 Z0.5000
G00 Z-1.5000
G01 Z-4.0000
G00 Z0.5000
G00 Z-3.5000
G01 Z-6.0000
G00 Z127.0000

(No. 16 Drill machining: Drill 10)
G00 X518.0000 Y38.0000 Z127.0000
G00 Z0.5000
G01 Z-2.0000 F2.000
G00 Z0.5000
G00 Z-1.5000
G01 Z-4.0000
G00 Z0.5000
G00 Z-3.5000
G01 Z-6.0000
G00 Z127.0000

(No. 17 Drill machining: Drill 65)
G00 X546.0000 Y10.0000 Z127.0000
G00 Z0.5000
G01 Z-2.0000 F2.000
G00 Z0.5000
G00 Z-1.5000
G01 Z-4.0000
G00 Z0.5000
G00 Z-3.5000
G01 Z-6.0000
G00 Z127.0000

(No. 18 Drill machining: Drill 108)
G00 X586.0000 Y10.0000 Z127.0000
G00 Z0.5000
G01 Z-2.0000 F2.000
G00 Z0.5000
G00 Z-1.5000
G01 Z-4.0000
G00 Z0.5000
G00 Z-3.5000
G01 Z-6.0000
G00 Z127.0000

(No. 19 Drill machining: Drill 104)
G00 X614.0000 Y38.0000 Z127.0000
G00 Z0.5000
G01 Z-2.0000 F2.000
G00 Z0.5000
G00 Z-1.5000
G01 Z-4.0000
G00 Z0.5000
G00 Z-3.5000
G01 Z-6.0000
G00 Z127.0000

(No. 20 Drill machining: Drill 79)
G00 X662.0000 Y86.0000 Z127.0000
G00 Z0.5000
G01 Z-2.0000 F2.000
G00 Z0.5000
G00 Z-1.5000
G01 Z-4.0000
G00 Z0.5000
G00 Z-3.5000
G01 Z-6.0000
G00 Z127.0000

(No. 21 Drill machining: Drill 115)
G00 X710.0000 Y38.0000 Z127.0000
G00 Z0.5000
G01 Z-2.0000 F2.000
G00 Z0.5000
G00 Z-1.5000
G01 Z-4.0000
G00 Z0.5000
G00 Z-3.5000
G01 Z-6.0000
G00 Z127.0000

(No. 22 Drill machining: Drill 121)
G00 X758.0000 Y86.0000 Z127.0000
G00 Z0.5000
G01 Z-2.0000 F2.000
G00 Z0.5000
G00 Z-1.5000
G01 Z-4.0000
G00 Z0.5000
G00 Z-3.5000
G01 Z-6.0000
G00 Z127.0000

(No. 23 Drill machining: Drill 78)
G00 X806.0000 Y38.0000 Z127.0000
G00 Z0.5000
G01 Z-2.0000 F2.000
G00 Z0.5000
G00 Z-1.5000
G01 Z-4.0000
G00 Z0.5000
G00 Z-3.5000
G01 Z-6.0000
G00 Z127.0000

(No. 24 Drill machining: Drill 92)
G00 X854.0000 Y10.0000 Z127.0000
G00 Z0.5000
G01 Z-2.0000 F2.000
G00 Z0.5000
G00 Z-1.5000
G01 Z-4.0000
G00 Z0.5000
G00 Z-3.5000
G01 Z-6.0000
G00 Z127.0000

(No. 25 Drill machining: Drill 103)
G00 X902.0000 Y38.0000 Z127.0000
G00 Z0.5000
G01 Z-2.0000 F2.000
G00 Z0.5000
G00 Z-1.5000
G01 Z-4.0000
G00 Z0.5000
G00 Z-3.5000
G01 Z-6.0000
G00 Z127.0000

(No. 26 Drill machining: Drill 107)
G00 X950.0000 Y86.0000 Z127.0000
G00 Z0.5000
G01 Z-2.0000 F2.000
G00 Z0.5000
G00 Z-1.5000
G01 Z-4.0000
G00 Z0.5000
G00 Z-3.5000
G01 Z-6.0000
G00 Z127.0000

(No. 27 Drill machining: Drill 71)
G00 X998.0000 Y38.0000 Z127.0000
G00 Z0.5000
G01 Z-2.0000 F2.000
G00 Z0.5000
G00 Z-1.5000
G01 Z-4.0000
G00 Z0.5000
G00 Z-3.5000
G01 Z-6.0000
G00 Z127.0000

(No. 28 Drill machining: Drill 122)
G00 X1046.0000 Y86.0000 Z127.0000
G00 Z0.5000
G01 Z-2.0000 F2.000
G00 Z0.5000
G00 Z-1.5000
G01 Z-4.0000
G00 Z0.5000
G00 Z-3.5000
G01 Z-6.0000
G00 Z127.0000

(No. 29 Drill machining: Drill 109)
G00 X1094.0000 Y38.0000 Z127.0000
G00 Z0.5000
G01 Z-2.0000 F2.000
G00 Z0.5000
G00 Z-1.5000
G01 Z-4.0000
G00 Z0.5000
G00 Z-3.5000
G01 Z-6.0000
G00 Z127.0000

(No. 30 Drill machining: Drill 82)
G00 X1122.0000 Y10.0000 Z127.0000
G00 Z0.5000
G01 Z-2.0000 F2.000
G00 Z0.5000
G00 Z-1.5000
G01 Z-4.0000
G00 Z0.5000
G00 Z-3.5000
G01 Z-6.0000
G00 Z127.0000

(No. 31 Drill machining: Drill 95)
G00 X1094.0000 Y134.0000 Z127.0000
G00 Z0.5000
G01 Z-2.0000 F2.000
G00 Z0.5000
G00 Z-1.5000
G01 Z-4.0000
G00 Z0.5000
G00 Z-3.5000
G01 Z-6.0000
G00 Z127.0000

(No. 32 Drill machining: Drill 120)
G00 X1046.0000 Y182.0000 Z127.0000
G00 Z0.5000
G01 Z-2.0000 F2.000
G00 Z0.5000
G00 Z-1.5000
G01 Z-4.0000
G00 Z0.5000
G00 Z-3.5000
G01 Z-6.0000
G00 Z127.0000

(No. 33 Drill machining: Drill 75)
G00 X998.0000 Y134.0000 Z127.0000
G00 Z0.5000
G01 Z-2.0000 F2.000
G00 Z0.5000
G00 Z-1.5000
G01 Z-4.0000
G00 Z0.5000
G00 Z-3.5000
G01 Z-6.0000
G00 Z127.0000

(No. 34 Drill machining: Drill 114)
G00 X950.0000 Y182.0000 Z127.0000
G00 Z0.5000
G01 Z-2.0000 F2.000
G00 Z0.5000
G00 Z-1.5000
G01 Z-4.0000
G00 Z0.5000
G00 Z-3.5000
G01 Z-6.0000
G00 Z127.0000

(No. 35 Drill machining: Drill 97)
G00 X902.0000 Y134.0000 Z127.0000
G00 Z0.5000
G01 Z-2.0000 F2.000
G00 Z0.5000
G00 Z-1.5000
G01 Z-4.0000
G00 Z0.5000
G00 Z-3.5000
G01 Z-6.0000
G00 Z127.0000

(No. 36 Drill machining: Drill 131)
G00 X854.0000 Y86.0000 Z127.0000
G00 Z0.5000
G01 Z-2.0000 F2.000
G00 Z0.5000
G00 Z-1.5000
G01 Z-4.0000
G00 Z0.5000
G00 Z-3.5000
G01 Z-6.0000
G00 Z127.0000

(No. 37 Drill machining: Drill 111)
G00 X806.0000 Y134.0000 Z127.0000
G00 Z0.5000
G01 Z-2.0000 F2.000
G00 Z0.5000
G00 Z-1.5000
G01 Z-4.0000
G00 Z0.5000
G00 Z-3.5000
G01 Z-6.0000
G00 Z127.0000

(No. 38 Drill machining: Drill 118)
G00 X758.0000 Y182.0000 Z127.0000
G00 Z0.5000
G01 Z-2.0000 F2.000
G00 Z0.5000
G00 Z-1.5000
G01 Z-4.0000
G00 Z0.5000
G00 Z-3.5000
G01 Z-6.0000
G00 Z127.0000

(No. 39 Drill machining: Drill 70)
G00 X806.0000 Y230.0000 Z127.0000
G00 Z0.5000
G01 Z-2.0000 F2.000
G00 Z0.5000
G00 Z-1.5000
G01 Z-4.0000
G00 Z0.5000
G00 Z-3.5000
G01 Z-6.0000
G00 Z127.0000

(No. 40 Drill machining: Drill 135)
G00 X854.0000 Y182.0000 Z127.0000
G00 Z0.5000
G01 Z-2.0000 F2.000
G00 Z0.5000
G00 Z-1.5000
G01 Z-4.0000
G00 Z0.5000
G00 Z-3.5000
G01 Z-6.0000
G00 Z127.0000

(No. 41 Drill machining: Drill 117)
G00 X902.0000 Y230.0000 Z127.0000
G00 Z0.5000
G01 Z-2.0000 F2.000
G00 Z0.5000
G00 Z-1.5000
G01 Z-4.0000
G00 Z0.5000
G00 Z-3.5000
G01 Z-6.0000
G00 Z127.0000

(No. 42 Drill machining: Drill 126)
G00 X854.0000 Y278.0000 Z127.0000
G00 Z0.5000
G01 Z-2.0000 F2.000
G00 Z0.5000
G00 Z-1.5000
G01 Z-4.0000
G00 Z0.5000
G00 Z-3.5000
G01 Z-6.0000
G00 Z127.0000

(No. 43 Drill machining: Drill 77)
G00 X806.0000 Y326.0000 Z127.0000
G00 Z0.5000
G01 Z-2.0000 F2.000
G00 Z0.5000
G00 Z-1.5000
G01 Z-4.0000
G00 Z0.5000
G00 Z-3.5000
G01 Z-6.0000
G00 Z127.0000

(No. 44 Drill machining: Drill 89)
G00 X758.0000 Y278.0000 Z127.0000
G00 Z0.5000
G01 Z-2.0000 F2.000
G00 Z0.5000
G00 Z-1.5000
G01 Z-4.0000
G00 Z0.5000
G00 Z-3.5000
G01 Z-6.0000
G00 Z127.0000

(No. 45 Drill machining: Drill 98)
G00 X710.0000 Y230.0000 Z127.0000
G00 Z0.5000
G01 Z-2.0000 F2.000
G00 Z0.5000
G00 Z-1.5000
G01 Z-4.0000
G00 Z0.5000
G00 Z-3.5000
G01 Z-6.0000
G00 Z127.0000

(No. 46 Drill machining: Drill 73)
G00 X662.0000 Y182.0000 Z127.0000
G00 Z0.5000
G01 Z-2.0000 F2.000
G00 Z0.5000
G00 Z-1.5000
G01 Z-4.0000
G00 Z0.5000
G00 Z-3.5000
G01 Z-6.0000
G00 Z127.0000

(No. 47 Drill machining: Drill 86)
G00 X710.0000 Y134.0000 Z127.0000
G00 Z0.5000
G01 Z-2.0000 F2.000
G00 Z0.5000
G00 Z-1.5000
G01 Z-4.0000
G00 Z0.5000
G00 Z-3.5000
G01 Z-6.0000
G00 Z127.0000

(No. 48 Drill machining: Drill 133)
G00 X614.0000 Y134.0000 Z127.0000
G00 Z0.5000
G01 Z-2.0000 F2.000
G00 Z0.5000
G00 Z-1.5000
G01 Z-4.0000
G00 Z0.5000
G00 Z-3.5000
G01 Z-6.0000
G00 Z127.0000

(No. 49 Drill machining: Drill 16)
G00 X518.0000 Y134.0000 Z127.0000
G00 Z0.5000
G01 Z-2.0000 F2.000
G00 Z0.5000
G00 Z-1.5000
G01 Z-4.0000
G00 Z0.5000
G00 Z-3.5000
G01 Z-6.0000
G00 Z127.0000

(No. 50 Drill machining: Drill 49)
G00 X470.0000 Y182.0000 Z127.0000
G00 Z0.5000
G01 Z-2.0000 F2.000
G00 Z0.5000
G00 Z-1.5000
G01 Z-4.0000
G00 Z0.5000
G00 Z-3.5000
G01 Z-6.0000
G00 Z127.0000

(No. 51 Drill machining: Drill 15)
G00 X422.0000 Y134.0000 Z127.0000
G00 Z0.5000
G01 Z-2.0000 F2.000
G00 Z0.5000
G00 Z-1.5000
G01 Z-4.0000
G00 Z0.5000
G00 Z-3.5000
G01 Z-6.0000
G00 Z127.0000

(No. 52 Drill machining: Drill 48)
G00 X374.0000 Y182.0000 Z127.0000
G00 Z0.5000
G01 Z-2.0000 F2.000
G00 Z0.5000
G00 Z-1.5000
G01 Z-4.0000
G00 Z0.5000
G00 Z-3.5000
G01 Z-6.0000
G00 Z127.0000

(No. 53 Drill machining: Drill 21)
G00 X422.0000 Y230.0000 Z127.0000
G00 Z0.5000
G01 Z-2.0000 F2.000
G00 Z0.5000
G00 Z-1.5000
G01 Z-4.0000
G00 Z0.5000
G00 Z-3.5000
G01 Z-6.0000
G00 Z127.0000

(No. 54 Drill machining: Drill 53)
G00 X374.0000 Y278.0000 Z127.0000
G00 Z0.5000
G01 Z-2.0000 F2.000
G00 Z0.5000
G00 Z-1.5000
G01 Z-4.0000
G00 Z0.5000
G00 Z-3.5000
G01 Z-6.0000
G00 Z127.0000

(No. 55 Drill machining: Drill 20)
G00 X326.0000 Y230.0000 Z127.0000
G00 Z0.5000
G01 Z-2.0000 F2.000
G00 Z0.5000
G00 Z-1.5000
G01 Z-4.0000
G00 Z0.5000
G00 Z-3.5000
G01 Z-6.0000
G00 Z127.0000

(No. 56 Drill machining: Drill 52)
G00 X278.0000 Y278.0000 Z127.0000
G00 Z0.5000
G01 Z-2.0000 F2.000
G00 Z0.5000
G00 Z-1.5000
G01 Z-4.0000
G00 Z0.5000
G00 Z-3.5000
G01 Z-6.0000
G00 Z127.0000

(No. 57 Drill machining: Drill 26)
G00 X326.0000 Y326.0000 Z127.0000
G00 Z0.5000
G01 Z-2.0000 F2.000
G00 Z0.5000
G00 Z-1.5000
G01 Z-4.0000
G00 Z0.5000
G00 Z-3.5000
G01 Z-6.0000
G00 Z127.0000

(No. 58 Drill machining: Drill 58)
G00 X374.0000 Y374.0000 Z127.0000
G00 Z0.5000
G01 Z-2.0000 F2.000
G00 Z0.5000
G00 Z-1.5000
G01 Z-4.0000
G00 Z0.5000
G00 Z-3.5000
G01 Z-6.0000
G00 Z127.0000

(No. 59 Drill machining: Drill 27)
G00 X422.0000 Y326.0000 Z127.0000
G00 Z0.5000
G01 Z-2.0000 F2.000
G00 Z0.5000
G00 Z-1.5000
G01 Z-4.0000
G00 Z0.5000
G00 Z-3.5000
G01 Z-6.0000
G00 Z127.0000

(No. 60 Drill machining: Drill 54)
G00 X470.0000 Y278.0000 Z127.0000
G00 Z0.5000
G01 Z-2.0000 F2.000
G00 Z0.5000
G00 Z-1.5000
G01 Z-4.0000
G00 Z0.5000
G00 Z-3.5000
G01 Z-6.0000
G00 Z127.0000

(No. 61 Drill machining: Drill 22)
G00 X518.0000 Y230.0000 Z127.0000
G00 Z0.5000
G01 Z-2.0000 F2.000
G00 Z0.5000
G00 Z-1.5000
G01 Z-4.0000
G00 Z0.5000
G00 Z-3.5000
G01 Z-6.0000
G00 Z127.0000

(No. 62 Drill machining: Drill 66)
G00 X546.0000 Y278.0000 Z127.0000
G00 Z0.5000
G01 Z-2.0000 F2.000
G00 Z0.5000
G00 Z-1.5000
G01 Z-4.0000
G00 Z0.5000
G00 Z-3.5000
G01 Z-6.0000
G00 Z127.0000

(No. 63 Drill machining: Drill 93)
G00 X586.0000 Y278.0000 Z127.0000
G00 Z0.5000
G01 Z-2.0000 F2.000
G00 Z0.5000
G00 Z-1.5000
G01 Z-4.0000
G00 Z0.5000
G00 Z-3.5000
G01 Z-6.0000
G00 Z127.0000

(No. 64 Drill machining: Drill 137)
G00 X614.0000 Y230.0000 Z127.0000
G00 Z0.5000
G01 Z-2.0000 F2.000
G00 Z0.5000
G00 Z-1.5000
G01 Z-4.0000
G00 Z0.5000
G00 Z-3.5000
G01 Z-6.0000
G00 Z127.0000

(No. 65 Drill machining: Drill 72)
G00 X662.0000 Y278.0000 Z127.0000
G00 Z0.5000
G01 Z-2.0000 F2.000
G00 Z0.5000
G00 Z-1.5000
G01 Z-4.0000
G00 Z0.5000
G00 Z-3.5000
G01 Z-6.0000
G00 Z127.0000

(No. 66 Drill machining: Drill 96)
G00 X614.0000 Y326.0000 Z127.0000
G00 Z0.5000
G01 Z-2.0000 F2.000
G00 Z0.5000
G00 Z-1.5000
G01 Z-4.0000
G00 Z0.5000
G00 Z-3.5000
G01 Z-6.0000
G00 Z127.0000

(No. 67 Drill machining: Drill 84)
G00 X662.0000 Y374.0000 Z127.0000
G00 Z0.5000
G01 Z-2.0000 F2.000
G00 Z0.5000
G00 Z-1.5000
G01 Z-4.0000
G00 Z0.5000
G00 Z-3.5000
G01 Z-6.0000
G00 Z127.0000

(No. 68 Drill machining: Drill 102)
G00 X710.0000 Y326.0000 Z127.0000
G00 Z0.5000
G01 Z-2.0000 F2.000
G00 Z0.5000
G00 Z-1.5000
G01 Z-4.0000
G00 Z0.5000
G00 Z-3.5000
G01 Z-6.0000
G00 Z127.0000

(No. 69 Drill machining: Drill 136)
G00 X758.0000 Y374.0000 Z127.0000
G00 Z0.5000
G01 Z-2.0000 F2.000
G00 Z0.5000
G00 Z-1.5000
G01 Z-4.0000
G00 Z0.5000
G00 Z-3.5000
G01 Z-6.0000
G00 Z127.0000

(No. 70 Drill machining: Drill 125)
G00 X806.0000 Y422.0000 Z127.0000
G00 Z0.5000
G01 Z-2.0000 F2.000
G00 Z0.5000
G00 Z-1.5000
G01 Z-4.0000
G00 Z0.5000
G00 Z-3.5000
G01 Z-6.0000
G00 Z127.0000

(No. 71 Drill machining: Drill 112)
G00 X854.0000 Y374.0000 Z127.0000
G00 Z0.5000
G01 Z-2.0000 F2.000
G00 Z0.5000
G00 Z-1.5000
G01 Z-4.0000
G00 Z0.5000
G00 Z-3.5000
G01 Z-6.0000
G00 Z127.0000

(No. 72 Drill machining: Drill 76)
G00 X902.0000 Y326.0000 Z127.0000
G00 Z0.5000
G01 Z-2.0000 F2.000
G00 Z0.5000
G00 Z-1.5000
G01 Z-4.0000
G00 Z0.5000
G00 Z-3.5000
G01 Z-6.0000
G00 Z127.0000

(No. 73 Drill machining: Drill 99)
G00 X950.0000 Y374.0000 Z127.0000
G00 Z0.5000
G01 Z-2.0000 F2.000
G00 Z0.5000
G00 Z-1.5000
G01 Z-4.0000
G00 Z0.5000
G00 Z-3.5000
G01 Z-6.0000
G00 Z127.0000

(No. 74 Drill machining: Drill 128)
G00 X998.0000 Y326.0000 Z127.0000
G00 Z0.5000
G01 Z-2.0000 F2.000
G00 Z0.5000
G00 Z-1.5000
G01 Z-4.0000
G00 Z0.5000
G00 Z-3.5000
G01 Z-6.0000
G00 Z127.0000

(No. 75 Drill machining: Drill 134)
G00 X950.0000 Y278.0000 Z127.0000
G00 Z0.5000
G01 Z-2.0000 F2.000
G00 Z0.5000
G00 Z-1.5000
G01 Z-4.0000
G00 Z0.5000
G00 Z-3.5000
G01 Z-6.0000
G00 Z127.0000

(No. 76 Drill machining: Drill 106)
G00 X998.0000 Y230.0000 Z127.0000
G00 Z0.5000
G01 Z-2.0000 F2.000
G00 Z0.5000
G00 Z-1.5000
G01 Z-4.0000
G00 Z0.5000
G00 Z-3.5000
G01 Z-6.0000
G00 Z127.0000

(No. 77 Drill machining: Drill 101)
G00 X1046.0000 Y278.0000 Z127.0000
G00 Z0.5000
G01 Z-2.0000 F2.000
G00 Z0.5000
G00 Z-1.5000
G01 Z-4.0000
G00 Z0.5000
G00 Z-3.5000
G01 Z-6.0000
G00 Z127.0000

(No. 78 Drill machining: Drill 124)
G00 X1094.0000 Y230.0000 Z127.0000
G00 Z0.5000
G01 Z-2.0000 F2.000
G00 Z0.5000
G00 Z-1.5000
G01 Z-4.0000
G00 Z0.5000
G00 Z-3.5000
G01 Z-6.0000
G00 Z127.0000

(No. 79 Drill machining: Drill 85)
G00 X1122.0000 Y278.0000 Z127.0000
G00 Z0.5000
G01 Z-2.0000 F2.000
G00 Z0.5000
G00 Z-1.5000
G01 Z-4.0000
G00 Z0.5000
G00 Z-3.5000
G01 Z-6.0000
G00 Z127.0000

(No. 80 Drill machining: Drill 123)
G00 X1094.0000 Y326.0000 Z127.0000
G00 Z0.5000
G01 Z-2.0000 F2.000
G00 Z0.5000
G00 Z-1.5000
G01 Z-4.0000
G00 Z0.5000
G00 Z-3.5000
G01 Z-6.0000
G00 Z127.0000

(No. 81 Drill machining: Drill 130)
G00 X1046.0000 Y374.0000 Z127.0000
G00 Z0.5000
G01 Z-2.0000 F2.000
G00 Z0.5000
G00 Z-1.5000
G01 Z-4.0000
G00 Z0.5000
G00 Z-3.5000
G01 Z-6.0000
G00 Z127.0000

(No. 82 Drill machining: Drill 94)
G00 X1094.0000 Y422.0000 Z127.0000
G00 Z0.5000
G01 Z-2.0000 F2.000
G00 Z0.5000
G00 Z-1.5000
G01 Z-4.0000
G00 Z0.5000
G00 Z-3.5000
G01 Z-6.0000
G00 Z127.0000

(No. 83 Drill machining: Drill 116)
G00 X1046.0000 Y470.0000 Z127.0000
G00 Z0.5000
G01 Z-2.0000 F2.000
G00 Z0.5000
G00 Z-1.5000
G01 Z-4.0000
G00 Z0.5000
G00 Z-3.5000
G01 Z-6.0000
G00 Z127.0000

(No. 84 Drill machining: Drill 110)
G00 X998.0000 Y422.0000 Z127.0000
G00 Z0.5000
G01 Z-2.0000 F2.000
G00 Z0.5000
G00 Z-1.5000
G01 Z-4.0000
G00 Z0.5000
G00 Z-3.5000
G01 Z-6.0000
G00 Z127.0000

(No. 85 Drill machining: Drill 88)
G00 X950.0000 Y470.0000 Z127.0000
G00 Z0.5000
G01 Z-2.0000 F2.000
G00 Z0.5000
G00 Z-1.5000
G01 Z-4.0000
G00 Z0.5000
G00 Z-3.5000
G01 Z-6.0000
G00 Z127.0000

(No. 86 Drill machining: Drill 132)
G00 X902.0000 Y422.0000 Z127.0000
G00 Z0.5000
G01 Z-2.0000 F2.000
G00 Z0.5000
G00 Z-1.5000
G01 Z-4.0000
G00 Z0.5000
G00 Z-3.5000
G01 Z-6.0000
G00 Z127.0000

(No. 87 Drill machining: Drill 119)
G00 X854.0000 Y470.0000 Z127.0000
G00 Z0.5000
G01 Z-2.0000 F2.000
G00 Z0.5000
G00 Z-1.5000
G01 Z-4.0000
G00 Z0.5000
G00 Z-3.5000
G01 Z-6.0000
G00 Z127.0000

(No. 88 Drill machining: Drill 113)
G00 X806.0000 Y518.0000 Z127.0000
G00 Z0.5000
G01 Z-2.0000 F2.000
G00 Z0.5000
G00 Z-1.5000
G01 Z-4.0000
G00 Z0.5000
G00 Z-3.5000
G01 Z-6.0000
G00 Z127.0000

(No. 89 Drill machining: Drill 127)
G00 X854.0000 Y546.0000 Z127.0000
G00 Z0.5000
G01 Z-2.0000 F2.000
G00 Z0.5000
G00 Z-1.5000
G01 Z-4.0000
G00 Z0.5000
G00 Z-3.5000
G01 Z-6.0000
G00 Z127.0000

(No. 90 Drill machining: Drill 91)
G00 X902.0000 Y518.0000 Z127.0000
G00 Z0.5000
G01 Z-2.0000 F2.000
G00 Z0.5000
G00 Z-1.5000
G01 Z-4.0000
G00 Z0.5000
G00 Z-3.5000
G01 Z-6.0000
G00 Z127.0000

(No. 91 Drill machining: Drill 90)
G00 X998.0000 Y518.0000 Z127.0000
G00 Z0.5000
G01 Z-2.0000 F2.000
G00 Z0.5000
G00 Z-1.5000
G01 Z-4.0000
G00 Z0.5000
G00 Z-3.5000
G01 Z-6.0000
G00 Z127.0000

(No. 92 Drill machining: Drill 129)
G00 X1094.0000 Y518.0000 Z127.0000
G00 Z0.5000
G01 Z-2.0000 F2.000
G00 Z0.5000
G00 Z-1.5000
G01 Z-4.0000
G00 Z0.5000
G00 Z-3.5000
G01 Z-6.0000
G00 Z127.0000

(No. 93 Drill machining: Drill 83)
G00 X1122.0000 Y546.0000 Z127.0000
G00 Z0.5000
G01 Z-2.0000 F2.000
G00 Z0.5000
G00 Z-1.5000
G01 Z-4.0000
G00 Z0.5000
G00 Z-3.5000
G01 Z-6.0000
G00 Z127.0000

(No. 94 Drill machining: Drill 138)
G00 X758.0000 Y470.0000 Z127.0000
G00 Z0.5000
G01 Z-2.0000 F2.000
G00 Z0.5000
G00 Z-1.5000
G01 Z-4.0000
G00 Z0.5000
G00 Z-3.5000
G01 Z-6.0000
G00 Z127.0000

(No. 95 Drill machining: Drill 105)
G00 X710.0000 Y518.0000 Z127.0000
G00 Z0.5000
G01 Z-2.0000 F2.000
G00 Z0.5000
G00 Z-1.5000
G01 Z-4.0000
G00 Z0.5000
G00 Z-3.5000
G01 Z-6.0000
G00 Z127.0000

(No. 96 Drill machining: Drill 74)
G00 X662.0000 Y470.0000 Z127.0000
G00 Z0.5000
G01 Z-2.0000 F2.000
G00 Z0.5000
G00 Z-1.5000
G01 Z-4.0000
G00 Z0.5000
G00 Z-3.5000
G01 Z-6.0000
G00 Z127.0000

(No. 97 Drill machining: Drill 100)
G00 X614.0000 Y422.0000 Z127.0000
G00 Z0.5000
G01 Z-2.0000 F2.000
G00 Z0.5000
G00 Z-1.5000
G01 Z-4.0000
G00 Z0.5000
G00 Z-3.5000
G01 Z-6.0000
G00 Z127.0000

(No. 98 Drill machining: Drill 34)
G00 X518.0000 Y422.0000 Z127.0000
G00 Z0.5000
G01 Z-2.0000 F2.000
G00 Z0.5000
G00 Z-1.5000
G01 Z-4.0000
G00 Z0.5000
G00 Z-3.5000
G01 Z-6.0000
G00 Z127.0000

(No. 99 Drill machining: Drill 59)
G00 X470.0000 Y374.0000 Z127.0000
G00 Z0.5000
G01 Z-2.0000 F2.000
G00 Z0.5000
G00 Z-1.5000
G01 Z-4.0000
G00 Z0.5000
G00 Z-3.5000
G01 Z-6.0000
G00 Z127.0000

(No. 100 Drill machining: Drill 28)
G00 X518.0000 Y326.0000 Z127.0000
G00 Z0.5000
G01 Z-2.0000 F2.000
G00 Z0.5000
G00 Z-1.5000
G01 Z-4.0000
G00 Z0.5000
G00 Z-3.5000
G01 Z-6.0000
G00 Z127.0000

(No. 101 Drill machining: Drill 33)
G00 X422.0000 Y422.0000 Z127.0000
G00 Z0.5000
G01 Z-2.0000 F2.000
G00 Z0.5000
G00 Z-1.5000
G01 Z-4.0000
G00 Z0.5000
G00 Z-3.5000
G01 Z-6.0000
G00 Z127.0000

(No. 102 Drill machining: Drill 63)
G00 X374.0000 Y470.0000 Z127.0000
G00 Z0.5000
G01 Z-2.0000 F2.000
G00 Z0.5000
G00 Z-1.5000
G01 Z-4.0000
G00 Z0.5000
G00 Z-3.5000
G01 Z-6.0000
G00 Z127.0000

(No. 103 Drill machining: Drill 38)
G00 X326.0000 Y518.0000 Z127.0000
G00 Z0.5000
G01 Z-2.0000 F2.000
G00 Z0.5000
G00 Z-1.5000
G01 Z-4.0000
G00 Z0.5000
G00 Z-3.5000
G01 Z-6.0000
G00 Z127.0000

(No. 104 Drill machining: Drill 68)
G00 X278.0000 Y546.0000 Z127.0000
G00 Z0.5000
G01 Z-2.0000 F2.000
G00 Z0.5000
G00 Z-1.5000
G01 Z-4.0000
G00 Z0.5000
G00 Z-3.5000
G01 Z-6.0000
G00 Z127.0000

(No. 105 Drill machining: Drill 37)
G00 X230.0000 Y518.0000 Z127.0000
G00 Z0.5000
G01 Z-2.0000 F2.000
G00 Z0.5000
G00 Z-1.5000
G01 Z-4.0000
G00 Z0.5000
G00 Z-3.5000
G01 Z-6.0000
G00 Z127.0000

(No. 106 Drill machining: Drill 61)
G00 X182.0000 Y470.0000 Z127.0000
G00 Z0.5000
G01 Z-2.0000 F2.000
G00 Z0.5000
G00 Z-1.5000
G01 Z-4.0000
G00 Z0.5000
G00 Z-3.5000
G01 Z-6.0000
G00 Z127.0000

(No. 107 Drill machining: Drill 30)
G00 X134.0000 Y422.0000 Z127.0000
G00 Z0.5000
G01 Z-2.0000 F2.000
G00 Z0.5000
G00 Z-1.5000
G01 Z-4.0000
G00 Z0.5000
G00 Z-3.5000
G01 Z-6.0000
G00 Z127.0000

(No. 108 Drill machining: Drill 55)
G00 X86.0000 Y374.0000 Z127.0000
G00 Z0.5000
G01 Z-2.0000 F2.000
G00 Z0.5000
G00 Z-1.5000
G01 Z-4.0000
G00 Z0.5000
G00 Z-3.5000
G01 Z-6.0000
G00 Z127.0000

(No. 109 Drill machining: Drill 23)
G00 X38.0000 Y326.0000 Z127.0000
G00 Z0.5000
G01 Z-2.0000 F2.000
G00 Z0.5000
G00 Z-1.5000
G01 Z-4.0000
G00 Z0.5000
G00 Z-3.5000
G01 Z-6.0000
G00 Z127.0000

(No. 110 Drill machining: Drill 3)
G00 X10.0000 Y278.0000 Z127.0000
G00 Z0.5000
G01 Z-2.0000 F2.000
G00 Z0.5000
G00 Z-1.5000
G01 Z-4.0000
G00 Z0.5000
G00 Z-3.5000
G01 Z-6.0000
G00 Z127.0000

(No. 111 Drill machining: Drill 17)
G00 X38.0000 Y230.0000 Z127.0000
G00 Z0.5000
G01 Z-2.0000 F2.000
G00 Z0.5000
G00 Z-1.5000
G01 Z-4.0000
G00 Z0.5000
G00 Z-3.5000
G01 Z-6.0000
G00 Z127.0000

(No. 112 Drill machining: Drill 45)
G00 X86.0000 Y182.0000 Z127.0000
G00 Z0.5000
G01 Z-2.0000 F2.000
G00 Z0.5000
G00 Z-1.5000
G01 Z-4.0000
G00 Z0.5000
G00 Z-3.5000
G01 Z-6.0000
G00 Z127.0000

(No. 113 Drill machining: Drill 12)
G00 X134.0000 Y134.0000 Z127.0000
G00 Z0.5000
G01 Z-2.0000 F2.000
G00 Z0.5000
G00 Z-1.5000
G01 Z-4.0000
G00 Z0.5000
G00 Z-3.5000
G01 Z-6.0000
G00 Z127.0000

(No. 114 Drill machining: Drill 46)
G00 X182.0000 Y182.0000 Z127.0000
G00 Z0.5000
G01 Z-2.0000 F2.000
G00 Z0.5000
G00 Z-1.5000
G01 Z-4.0000
G00 Z0.5000
G00 Z-3.5000
G01 Z-6.0000
G00 Z127.0000

(No. 115 Drill machining: Drill 19)
G00 X230.0000 Y230.0000 Z127.0000
G00 Z0.5000
G01 Z-2.0000 F2.000
G00 Z0.5000
G00 Z-1.5000
G01 Z-4.0000
G00 Z0.5000
G00 Z-3.5000
G01 Z-6.0000
G00 Z127.0000

(No. 116 Drill machining: Drill 51)
G00 X182.0000 Y278.0000 Z127.0000
G00 Z0.5000
G01 Z-2.0000 F2.000
G00 Z0.5000
G00 Z-1.5000
G01 Z-4.0000
G00 Z0.5000
G00 Z-3.5000
G01 Z-6.0000
G00 Z127.0000

(No. 117 Drill machining: Drill 18)
G00 X134.0000 Y230.0000 Z127.0000
G00 Z0.5000
G01 Z-2.0000 F2.000
G00 Z0.5000
G00 Z-1.5000
G01 Z-4.0000
G00 Z0.5000
G00 Z-3.5000
G01 Z-6.0000
G00 Z127.0000

(No. 118 Drill machining: Drill 50)
G00 X86.0000 Y278.0000 Z127.0000
G00 Z0.5000
G01 Z-2.0000 F2.000
G00 Z0.5000
G00 Z-1.5000
G01 Z-4.0000
G00 Z0.5000
G00 Z-3.5000
G01 Z-6.0000
G00 Z127.0000

(No. 119 Drill machining: Drill 24)
G00 X134.0000 Y326.0000 Z127.0000
G00 Z0.5000
G01 Z-2.0000 F2.000
G00 Z0.5000
G00 Z-1.5000
G01 Z-4.0000
G00 Z0.5000
G00 Z-3.5000
G01 Z-6.0000
G00 Z127.0000

(No. 120 Drill machining: Drill 56)
G00 X182.0000 Y374.0000 Z127.0000
G00 Z0.5000
G01 Z-2.0000 F2.000
G00 Z0.5000
G00 Z-1.5000
G01 Z-4.0000
G00 Z0.5000
G00 Z-3.5000
G01 Z-6.0000
G00 Z127.0000

(No. 121 Drill machining: Drill 25)
G00 X230.0000 Y326.0000 Z127.0000
G00 Z0.5000
G01 Z-2.0000 F2.000
G00 Z0.5000
G00 Z-1.5000
G01 Z-4.0000
G00 Z0.5000
G00 Z-3.5000
G01 Z-6.0000
G00 Z127.0000

(No. 122 Drill machining: Drill 57)
G00 X278.0000 Y374.0000 Z127.0000
G00 Z0.5000
G01 Z-2.0000 F2.000
G00 Z0.5000
G00 Z-1.5000
G01 Z-4.0000
G00 Z0.5000
G00 Z-3.5000
G01 Z-6.0000
G00 Z127.0000

(No. 123 Drill machining: Drill 31)
G00 X230.0000 Y422.0000 Z127.0000
G00 Z0.5000
G01 Z-2.0000 F2.000
G00 Z0.5000
G00 Z-1.5000
G01 Z-4.0000
G00 Z0.5000
G00 Z-3.5000
G01 Z-6.0000
G00 Z127.0000

(No. 124 Drill machining: Drill 62)
G00 X278.0000 Y470.0000 Z127.0000
G00 Z0.5000
G01 Z-2.0000 F2.000
G00 Z0.5000
G00 Z-1.5000
G01 Z-4.0000
G00 Z0.5000
G00 Z-3.5000
G01 Z-6.0000
G00 Z127.0000

(No. 125 Drill machining: Drill 32)
G00 X326.0000 Y422.0000 Z127.0000
G00 Z0.5000
G01 Z-2.0000 F2.000
G00 Z0.5000
G00 Z-1.5000
G01 Z-4.0000
G00 Z0.5000
G00 Z-3.5000
G01 Z-6.0000
G00 Z127.0000

(No. 126 Drill machining: Drill 39)
G00 X422.0000 Y518.0000 Z127.0000
G00 Z0.5000
G01 Z-2.0000 F2.000
G00 Z0.5000
G00 Z-1.5000
G01 Z-4.0000
G00 Z0.5000
G00 Z-3.5000
G01 Z-6.0000
G00 Z127.0000

(No. 127 Drill machining: Drill 64)
G00 X470.0000 Y470.0000 Z127.0000
G00 Z0.5000
G01 Z-2.0000 F2.000
G00 Z0.5000
G00 Z-1.5000
G01 Z-4.0000
G00 Z0.5000
G00 Z-3.5000
G01 Z-6.0000
G00 Z127.0000

(No. 128 Drill machining: Drill 40)
G00 X518.0000 Y518.0000 Z127.0000
G00 Z0.5000
G01 Z-2.0000 F2.000
G00 Z0.5000
G00 Z-1.5000
G01 Z-4.0000
G00 Z0.5000
G00 Z-3.5000
G01 Z-6.0000
G00 Z127.0000

(No. 129 Drill machining: Drill 69)
G00 X546.0000 Y546.0000 Z127.0000
G00 Z0.5000
G01 Z-2.0000 F2.000
G00 Z0.5000
G00 Z-1.5000
G01 Z-4.0000
G00 Z0.5000
G00 Z-3.5000
G01 Z-6.0000
G00 Z127.0000

(No. 130 Drill machining: Drill 81)
G00 X586.0000 Y546.0000 Z127.0000
G00 Z0.5000
G01 Z-2.0000 F2.000
G00 Z0.5000
G00 Z-1.5000
G01 Z-4.0000
G00 Z0.5000
G00 Z-3.5000
G01 Z-6.0000
G00 Z127.0000

(No. 131 Drill machining: Drill 87)
G00 X614.0000 Y518.0000 Z127.0000
G00 Z0.5000
G01 Z-2.0000 F2.000
G00 Z0.5000
G00 Z-1.5000
G01 Z-4.0000
G00 Z0.5000
G00 Z-3.5000
G01 Z-6.0000
G00 Z127.0000

(No. 132 Drill machining: Drill 80)
G00 X710.0000 Y422.0000 Z127.0000
G00 Z0.5000
G01 Z-2.0000 F2.000
G00 Z0.5000
G00 Z-1.5000
G01 Z-4.0000
G00 Z0.5000
G00 Z-3.5000
G01 Z-6.0000
G00 Z127.0000

(No. 133 Drill machining: Drill 36)
G00 X134.0000 Y518.0000 Z127.0000
G00 Z0.5000
G01 Z-2.0000 F2.000
G00 Z0.5000
G00 Z-1.5000
G01 Z-4.0000
G00 Z0.5000
G00 Z-3.5000
G01 Z-6.0000
G00 Z127.0000

(No. 134 Drill machining: Drill 60)
G00 X86.0000 Y470.0000 Z127.0000
G00 Z0.5000
G01 Z-2.0000 F2.000
G00 Z0.5000
G00 Z-1.5000
G01 Z-4.0000
G00 Z0.5000
G00 Z-3.5000
G01 Z-6.0000
G00 Z127.0000

(No. 135 Drill machining: Drill 29)
G00 X38.0000 Y422.0000 Z127.0000
G00 Z0.5000
G01 Z-2.0000 F2.000
G00 Z0.5000
G00 Z-1.5000
G01 Z-4.0000
G00 Z0.5000
G00 Z-3.5000
G01 Z-6.0000
G00 Z127.0000

(No. 136 Drill machining: Drill 35)
G00 X38.0000 Y518.0000 Z127.0000
G00 Z0.5000
G01 Z-2.0000 F2.000
G00 Z0.5000
G00 Z-1.5000
G01 Z-4.0000
G00 Z0.5000
G00 Z-3.5000
G01 Z-6.0000
G00 Z127.0000

(No. 137 Drill machining: Drill 67)
G00 X10.0000 Y546.0000 Z127.0000
G00 Z0.5000
G01 Z-2.0000 F2.000
G00 Z0.5000
G00 Z-1.5000
G01 Z-4.0000
G00 Z0.5000
G00 Z-3.5000
G01 Z-6.0000
G00 Z127.0000

(No. 138 Drill machining: Drill 11)
G00 X38.0000 Y134.0000 Z127.0000
G00 Z0.5000
G01 Z-2.0000 F2.000
G00 Z0.5000
G00 Z-1.5000
G01 Z-4.0000
G00 Z0.5000
G00 Z-3.5000
G01 Z-6.0000
G00 Z127.0000
G00 X0.0000 Y0.0000

M05
