(Project MFTfreeRail)
(Created with Estlcam 12.068)
(Machining time about 00:35:23 hours)

(Required tools:)
(1/8" Upcut Soft wood)

M03 S10000
G00 Z127.0000

(No. 1 Drill machining: Drill 1)
G00 X566.0000 Y20.0000 Z127.0000
G00 Z0.5000
G01 Z-2.0000 F2.000 S10000
G00 Z0.5000
G00 Z-1.5000
G01 Z-4.0000
G00 Z0.5000
G00 Z-3.5000
G01 Z-6.0000
G00 Z127.0000

(No. 2 Drill machining: Drill 2)
G00 X566.0000 Y71.6000 Z127.0000
G00 Z0.5000
G01 Z-2.0000 F2.000
G00 Z0.5000
G00 Z-1.5000
G01 Z-4.0000
G00 Z0.5000
G00 Z-3.5000
G01 Z-6.0000
G00 Z127.0000

(No. 3 Drill machining: Drill 3)
G00 X566.0000 Y123.2000 Z127.0000
G00 Z0.5000
G01 Z-2.0000 F2.000
G00 Z0.5000
G00 Z-1.5000
G01 Z-4.0000
G00 Z0.5000
G00 Z-3.5000
G01 Z-6.0000
G00 Z127.0000

(No. 4 Drill machining: Drill 4)
G00 X566.0000 Y174.8000 Z127.0000
G00 Z0.5000
G01 Z-2.0000 F2.000
G00 Z0.5000
G00 Z-1.5000
G01 Z-4.0000
G00 Z0.5000
G00 Z-3.5000
G01 Z-6.0000
G00 Z127.0000

(No. 5 Drill machining: Drill 5)
G00 X566.0000 Y226.4000 Z127.0000
G00 Z0.5000
G01 Z-2.0000 F2.000
G00 Z0.5000
G00 Z-1.5000
G01 Z-4.0000
G00 Z0.5000
G00 Z-3.5000
G01 Z-6.0000
G00 Z127.0000

(No. 6 Drill machining: Drill 6)
G00 X566.0000 Y278.0000 Z127.0000
G00 Z0.5000
G01 Z-2.0000 F2.000
G00 Z0.5000
G00 Z-1.5000
G01 Z-4.0000
G00 Z0.5000
G00 Z-3.5000
G01 Z-6.0000
G00 Z127.0000

(No. 7 Drill machining: Drill 7)
G00 X566.0000 Y329.6000 Z127.0000
G00 Z0.5000
G01 Z-2.0000 F2.000
G00 Z0.5000
G00 Z-1.5000
G01 Z-4.0000
G00 Z0.5000
G00 Z-3.5000
G01 Z-6.0000
G00 Z127.0000

(No. 8 Drill machining: Drill 8)
G00 X566.0000 Y381.2000 Z127.0000
G00 Z0.5000
G01 Z-2.0000 F2.000
G00 Z0.5000
G00 Z-1.5000
G01 Z-4.0000
G00 Z0.5000
G00 Z-3.5000
G01 Z-6.0000
G00 Z127.0000

(No. 9 Drill machining: Drill 9)
G00 X566.0000 Y432.8000 Z127.0000
G00 Z0.5000
G01 Z-2.0000 F2.000
G00 Z0.5000
G00 Z-1.5000
G01 Z-4.0000
G00 Z0.5000
G00 Z-3.5000
G01 Z-6.0000
G00 Z127.0000

(No. 10 Drill machining: Drill 10)
G00 X566.0000 Y484.4000 Z127.0000
G00 Z0.5000
G01 Z-2.0000 F2.000
G00 Z0.5000
G00 Z-1.5000
G01 Z-4.0000
G00 Z0.5000
G00 Z-3.5000
G01 Z-6.0000
G00 Z127.0000

(No. 11 Drill machining: Drill 11)
G00 X566.0000 Y536.0000 Z127.0000
G00 Z0.5000
G01 Z-2.0000 F2.000
G00 Z0.5000
G00 Z-1.5000
G01 Z-4.0000
G00 Z0.5000
G00 Z-3.5000
G01 Z-6.0000
G00 Z127.0000
G00 X0.0000 Y0.0000

M05
