;Project MFTF2xNNtmpl
;Created by Estlcam version 12 build 12.068
;Machining time about 00:01:23 hours

G90
M03 S10000
G00 Z9.0000


;No. 1: Helical drill 1
G00 X30.9100 Y-10.0000 Z9.0000
G00 Z0.5000
G02 X29.5450 Y-10.7881 Z-0.1667 I-0.9100 J0.0000 F120 S10000
G02 Y-9.2119 Z-0.8333 I0.4550 J0.7881
G02 X30.9100 Y-10.0000 Z-1.5000 I0.4550 J-0.7881
G02 X29.5450 Y-10.7881 Z-2.1667 I-0.9100 J0.0000
G02 Y-9.2119 Z-2.8333 I0.4550 J0.7881
G02 X30.9100 Y-10.0000 Z-3.5000 I0.4550 J-0.7881
G02 X29.5450 Y-10.7881 Z-4.1667 I-0.9100 J0.0000
G02 Y-9.2119 Z-4.8333 I0.4550 J0.7881
G02 X30.9100 Y-10.0000 Z-5.5000 I0.4550 J-0.7881
G02 X30.0000 Y-10.9100 Z-6.0000 I-0.9100 J0.0000
G02 X29.2119 Y-9.5450 I0.0000 J0.9100
G02 X30.7881 I0.7881 J-0.4550
G02 X30.0000 Y-10.9100 I-0.7881 J-0.4550
G02 X29.5450 Y-10.4550 Z-5.8863 I0.0000 J0.4550 F1500
G00 Z9.0000


;No. 2: Helical drill 2
G00 X75.9100 Y-10.0000 Z9.0000
G00 Z0.5000
G02 X74.5450 Y-10.7881 Z-0.1667 I-0.9100 J0.0000 F120
G02 Y-9.2119 Z-0.8333 I0.4550 J0.7881
G02 X75.9100 Y-10.0000 Z-1.5000 I0.4550 J-0.7881
G02 X74.5450 Y-10.7881 Z-2.1667 I-0.9100 J0.0000
G02 Y-9.2119 Z-2.8333 I0.4550 J0.7881
G02 X75.9100 Y-10.0000 Z-3.5000 I0.4550 J-0.7881
G02 X74.5450 Y-10.7881 Z-4.1667 I-0.9100 J0.0000
G02 Y-9.2119 Z-4.8333 I0.4550 J0.7881
G02 X75.9100 Y-10.0000 Z-5.5000 I0.4550 J-0.7881
G02 X75.0000 Y-10.9100 Z-6.0000 I-0.9100 J0.0000
G02 X74.2119 Y-9.5450 I0.0000 J0.9100
G02 X75.7881 I0.7881 J-0.4550
G02 X75.0000 Y-10.9100 I-0.7881 J-0.4550
G02 X74.5450 Y-10.4550 Z-5.8863 I0.0000 J0.4550 F1500
G00 Z9.0000


;No. 3: Helical drill 3
G00 X120.9100 Y-10.0000 Z9.0000
G00 Z0.5000
G02 X119.5450 Y-10.7881 Z-0.1667 I-0.9100 J0.0000 F120
G02 Y-9.2119 Z-0.8333 I0.4550 J0.7881
G02 X120.9100 Y-10.0000 Z-1.5000 I0.4550 J-0.7881
G02 X119.5450 Y-10.7881 Z-2.1667 I-0.9100 J0.0000
G02 Y-9.2119 Z-2.8333 I0.4550 J0.7881
G02 X120.9100 Y-10.0000 Z-3.5000 I0.4550 J-0.7881
G02 X119.5450 Y-10.7881 Z-4.1667 I-0.9100 J0.0000
G02 Y-9.2119 Z-4.8333 I0.4550 J0.7881
G02 X120.9100 Y-10.0000 Z-5.5000 I0.4550 J-0.7881
G02 X120.0000 Y-10.9100 Z-6.0000 I-0.9100 J0.0000
G02 X119.2119 Y-9.5450 I0.0000 J0.9100
G02 X120.7881 I0.7881 J-0.4550
G02 X120.0000 Y-10.9100 I-0.7881 J-0.4550
G02 X119.5450 Y-10.4550 Z-5.8862 I0.0000 J0.4550 F1500
G00 Z9.0000


;No. 4: Helical drill 4
G00 X165.9100 Y-10.0000 Z9.0000
G00 Z0.5000
G02 X164.5450 Y-10.7881 Z-0.1667 I-0.9100 J0.0000 F120
G02 Y-9.2119 Z-0.8333 I0.4550 J0.7881
G02 X165.9100 Y-10.0000 Z-1.5000 I0.4550 J-0.7881
G02 X164.5450 Y-10.7881 Z-2.1667 I-0.9100 J0.0000
G02 Y-9.2119 Z-2.8333 I0.4550 J0.7881
G02 X165.9100 Y-10.0000 Z-3.5000 I0.4550 J-0.7881
G02 X164.5450 Y-10.7881 Z-4.1667 I-0.9100 J0.0000
G02 Y-9.2119 Z-4.8333 I0.4550 J0.7881
G02 X165.9100 Y-10.0000 Z-5.5000 I0.4550 J-0.7881
G02 X165.0000 Y-10.9100 Z-6.0000 I-0.9100 J0.0000
G02 X164.2119 Y-9.5450 I0.0000 J0.9100
G02 X165.7881 I0.7881 J-0.4550
G02 X165.0000 Y-10.9100 I-0.7881 J-0.4550
G02 X164.5450 Y-10.4550 Z-5.8862 I0.0000 J0.4550 F1500
G00 Z9.0000


;No. 5: Helical drill 5
G00 X210.9100 Y-10.0000 Z9.0000
G00 Z0.5000
G02 X209.5450 Y-10.7881 Z-0.1667 I-0.9100 J0.0000 F120
G02 Y-9.2119 Z-0.8333 I0.4550 J0.7881
G02 X210.9100 Y-10.0000 Z-1.5000 I0.4550 J-0.7881
G02 X209.5450 Y-10.7881 Z-2.1667 I-0.9100 J0.0000
G02 Y-9.2119 Z-2.8333 I0.4550 J0.7881
G02 X210.9100 Y-10.0000 Z-3.5000 I0.4550 J-0.7881
G02 X209.5450 Y-10.7881 Z-4.1667 I-0.9100 J0.0000
G02 Y-9.2119 Z-4.8333 I0.4550 J0.7881
G02 X210.9100 Y-10.0000 Z-5.5000 I0.4550 J-0.7881
G02 X210.0000 Y-10.9100 Z-6.0000 I-0.9100 J0.0000
G02 X209.2119 Y-9.5450 I0.0000 J0.9100
G02 X210.7881 I0.7881 J-0.4550
G02 X210.0000 Y-10.9100 I-0.7881 J-0.4550
G02 X209.5450 Y-10.4550 Z-5.8862 I0.0000 J0.4550 F1500
G00 Z9.0000
G00 X0.0000 Y0.0000

M05
