;Project MFTF2xNNtmpl
;Created by Estlcam version 12 build 12.068
;Machining time about 00:03:31 hours

G90
M03 S10000
G00 Z9.0000


;No. 1: Helical drill 1
G00 X30.7600 Y-10.0000 Z9.0000
G00 Z0.5000
G02 X29.6200 Y-10.6582 Z-0.1667 I-0.7600 J0.0000 F1037 S10000
G02 Y-9.3418 Z-0.8333 I0.3800 J0.6582
G02 X30.7600 Y-10.0000 Z-1.5000 I0.3800 J-0.6582
G02 X29.6200 Y-10.6582 Z-2.1667 I-0.7600 J0.0000
G02 Y-9.3418 Z-2.8333 I0.3800 J0.6582
G02 X30.7600 Y-10.0000 Z-3.5000 I0.3800 J-0.6582
G02 X29.6200 Y-10.6582 Z-4.1667 I-0.7600 J0.0000
G02 Y-9.3418 Z-4.8333 I0.3800 J0.6582
G02 X30.7600 Y-10.0000 Z-5.5000 I0.3800 J-0.6582
G02 X30.0000 Y-10.7600 Z-6.0000 I-0.7600 J0.0000
G02 X29.3418 Y-9.6200 I0.0000 J0.7600
G02 X30.6582 I0.6582 J-0.3800
G02 X30.0000 Y-10.7600 I-0.6582 J-0.3800
G02 X29.6200 Y-10.3800 Z-5.9050 I0.0000 J0.3800 F1500
G00 X29.6200 Y-10.3800 Z0.0000
G01 X30.9100 Y-10.0000 F1500
G02 X29.5450 Y-10.7881 Z-0.6667 I-0.9100 J0.0000 F120
G02 Y-9.2119 Z-1.3333 I0.4550 J0.7881
G02 X30.9100 Y-10.0000 Z-2.0000 I0.4550 J-0.7881
G02 X29.5450 Y-10.7881 Z-2.6667 I-0.9100 J0.0000
G02 Y-9.2119 Z-3.3333 I0.4550 J0.7881
G02 X30.9100 Y-10.0000 Z-4.0000 I0.4550 J-0.7881
G02 X29.5450 Y-10.7881 Z-4.6667 I-0.9100 J0.0000
G02 Y-9.2119 Z-5.3333 I0.4550 J0.7881
G02 X30.9100 Y-10.0000 Z-6.0000 I0.4550 J-0.7881
G02 X29.5450 Y-10.7881 I-0.9100 J0.0000
G02 Y-9.2119 I0.4550 J0.7881
G02 X30.9100 Y-10.0000 I0.4550 J-0.7881
G02 X30.4550 Y-10.4550 Z-5.8863 I-0.4550 J0.0000 F1500
G00 Z9.0000


;No. 2: Helical drill 2
G00 X75.7600 Y-10.0000 Z9.0000
G00 Z0.5000
G02 X74.6200 Y-10.6582 Z-0.1667 I-0.7600 J0.0000 F1037
G02 Y-9.3418 Z-0.8333 I0.3800 J0.6582
G02 X75.7600 Y-10.0000 Z-1.5000 I0.3800 J-0.6582
G02 X74.6200 Y-10.6582 Z-2.1667 I-0.7600 J0.0000
G02 Y-9.3418 Z-2.8333 I0.3800 J0.6582
G02 X75.7600 Y-10.0000 Z-3.5000 I0.3800 J-0.6582
G02 X74.6200 Y-10.6582 Z-4.1667 I-0.7600 J0.0000
G02 Y-9.3418 Z-4.8333 I0.3800 J0.6582
G02 X75.7600 Y-10.0000 Z-5.5000 I0.3800 J-0.6582
G02 X75.0000 Y-10.7600 Z-6.0000 I-0.7600 J0.0000
G02 X74.3418 Y-9.6200 I0.0000 J0.7600
G02 X75.6582 I0.6582 J-0.3800
G02 X75.0000 Y-10.7600 I-0.6582 J-0.3800
G02 X74.6200 Y-10.3800 Z-5.9050 I0.0000 J0.3800 F1500
G00 X74.6200 Y-10.3800 Z0.0000
G01 X75.9100 Y-10.0000 F1500
G02 X74.5450 Y-10.7881 Z-0.6667 I-0.9100 J0.0000 F120
G02 Y-9.2119 Z-1.3333 I0.4550 J0.7881
G02 X75.9100 Y-10.0000 Z-2.0000 I0.4550 J-0.7881
G02 X74.5450 Y-10.7881 Z-2.6667 I-0.9100 J0.0000
G02 Y-9.2119 Z-3.3333 I0.4550 J0.7881
G02 X75.9100 Y-10.0000 Z-4.0000 I0.4550 J-0.7881
G02 X74.5450 Y-10.7881 Z-4.6667 I-0.9100 J0.0000
G02 Y-9.2119 Z-5.3333 I0.4550 J0.7881
G02 X75.9100 Y-10.0000 Z-6.0000 I0.4550 J-0.7881
G02 X74.5450 Y-10.7881 I-0.9100 J0.0000
G02 Y-9.2119 I0.4550 J0.7881
G02 X75.9100 Y-10.0000 I0.4550 J-0.7881
G02 X75.4550 Y-10.4550 Z-5.8863 I-0.4550 J0.0000 F1500
G00 Z9.0000


;No. 3: Helical drill 3
G00 X120.7600 Y-10.0000 Z9.0000
G00 Z0.5000
G02 X119.6200 Y-10.6582 Z-0.1667 I-0.7600 J0.0000 F1037
G02 Y-9.3418 Z-0.8333 I0.3800 J0.6582
G02 X120.7600 Y-10.0000 Z-1.5000 I0.3800 J-0.6582
G02 X119.6200 Y-10.6582 Z-2.1667 I-0.7600 J0.0000
G02 Y-9.3418 Z-2.8333 I0.3800 J0.6582
G02 X120.7600 Y-10.0000 Z-3.5000 I0.3800 J-0.6582
G02 X119.6200 Y-10.6582 Z-4.1667 I-0.7600 J0.0000
G02 Y-9.3418 Z-4.8333 I0.3800 J0.6582
G02 X120.7600 Y-10.0000 Z-5.5000 I0.3800 J-0.6582
G02 X120.0000 Y-10.7600 Z-6.0000 I-0.7600 J0.0000
G02 X119.3418 Y-9.6200 I0.0000 J0.7600
G02 X120.6582 I0.6582 J-0.3800
G02 X120.0000 Y-10.7600 I-0.6582 J-0.3800
G02 X119.6200 Y-10.3800 Z-5.9050 I0.0000 J0.3800 F1500
G00 X119.6200 Y-10.3800 Z0.0000
G01 X120.9100 Y-10.0000 F1500
G02 X119.5450 Y-10.7881 Z-0.6667 I-0.9100 J0.0000 F120
G02 Y-9.2119 Z-1.3333 I0.4550 J0.7881
G02 X120.9100 Y-10.0000 Z-2.0000 I0.4550 J-0.7881
G02 X119.5450 Y-10.7881 Z-2.6667 I-0.9100 J0.0000
G02 Y-9.2119 Z-3.3333 I0.4550 J0.7881
G02 X120.9100 Y-10.0000 Z-4.0000 I0.4550 J-0.7881
G02 X119.5450 Y-10.7881 Z-4.6667 I-0.9100 J0.0000
G02 Y-9.2119 Z-5.3333 I0.4550 J0.7881
G02 X120.9100 Y-10.0000 Z-6.0000 I0.4550 J-0.7881
G02 X119.5450 Y-10.7881 I-0.9100 J0.0000
G02 Y-9.2119 I0.4550 J0.7881
G02 X120.9100 Y-10.0000 I0.4550 J-0.7881
G02 X120.4550 Y-10.4550 Z-5.8862 I-0.4550 J0.0000 F1500
G00 Z9.0000


;No. 4: Helical drill 4
G00 X165.7600 Y-10.0000 Z9.0000
G00 Z0.5000
G02 X164.6200 Y-10.6582 Z-0.1667 I-0.7600 J0.0000 F1037
G02 Y-9.3418 Z-0.8333 I0.3800 J0.6582
G02 X165.7600 Y-10.0000 Z-1.5000 I0.3800 J-0.6582
G02 X164.6200 Y-10.6582 Z-2.1667 I-0.7600 J0.0000
G02 Y-9.3418 Z-2.8333 I0.3800 J0.6582
G02 X165.7600 Y-10.0000 Z-3.5000 I0.3800 J-0.6582
G02 X164.6200 Y-10.6582 Z-4.1667 I-0.7600 J0.0000
G02 Y-9.3418 Z-4.8333 I0.3800 J0.6582
G02 X165.7600 Y-10.0000 Z-5.5000 I0.3800 J-0.6582
G02 X165.0000 Y-10.7600 Z-6.0000 I-0.7600 J0.0000
G02 X164.3418 Y-9.6200 I0.0000 J0.7600
G02 X165.6582 I0.6582 J-0.3800
G02 X165.0000 Y-10.7600 I-0.6582 J-0.3800
G02 X164.6200 Y-10.3800 Z-5.9050 I0.0000 J0.3800 F1500
G00 X164.6200 Y-10.3800 Z0.0000
G01 X165.9100 Y-10.0000 F1500
G02 X164.5450 Y-10.7881 Z-0.6667 I-0.9100 J0.0000 F120
G02 Y-9.2119 Z-1.3333 I0.4550 J0.7881
G02 X165.9100 Y-10.0000 Z-2.0000 I0.4550 J-0.7881
G02 X164.5450 Y-10.7881 Z-2.6667 I-0.9100 J0.0000
G02 Y-9.2119 Z-3.3333 I0.4550 J0.7881
G02 X165.9100 Y-10.0000 Z-4.0000 I0.4550 J-0.7881
G02 X164.5450 Y-10.7881 Z-4.6667 I-0.9100 J0.0000
G02 Y-9.2119 Z-5.3333 I0.4550 J0.7881
G02 X165.9100 Y-10.0000 Z-6.0000 I0.4550 J-0.7881
G02 X164.5450 Y-10.7881 I-0.9100 J0.0000
G02 Y-9.2119 I0.4550 J0.7881
G02 X165.9100 Y-10.0000 I0.4550 J-0.7881
G02 X165.4550 Y-10.4550 Z-5.8862 I-0.4550 J0.0000 F1500
G00 Z9.0000


;No. 5: Helical drill 5
G00 X210.7600 Y-10.0000 Z9.0000
G00 Z0.5000
G02 X209.6200 Y-10.6582 Z-0.1667 I-0.7600 J0.0000 F1037
G02 Y-9.3418 Z-0.8333 I0.3800 J0.6582
G02 X210.7600 Y-10.0000 Z-1.5000 I0.3800 J-0.6582
G02 X209.6200 Y-10.6582 Z-2.1667 I-0.7600 J0.0000
G02 Y-9.3418 Z-2.8333 I0.3800 J0.6582
G02 X210.7600 Y-10.0000 Z-3.5000 I0.3800 J-0.6582
G02 X209.6200 Y-10.6582 Z-4.1667 I-0.7600 J0.0000
G02 Y-9.3418 Z-4.8333 I0.3800 J0.6582
G02 X210.7600 Y-10.0000 Z-5.5000 I0.3800 J-0.6582
G02 X210.0000 Y-10.7600 Z-6.0000 I-0.7600 J0.0000
G02 X209.3418 Y-9.6200 I0.0000 J0.7600
G02 X210.6582 I0.6582 J-0.3800
G02 X210.0000 Y-10.7600 I-0.6582 J-0.3800
G02 X209.6200 Y-10.3800 Z-5.9050 I0.0000 J0.3800 F1500
G00 X209.6200 Y-10.3800 Z0.0000
G01 X210.9100 Y-10.0000 F1500
G02 X209.5450 Y-10.7881 Z-0.6667 I-0.9100 J0.0000 F120
G02 Y-9.2119 Z-1.3333 I0.4550 J0.7881
G02 X210.9100 Y-10.0000 Z-2.0000 I0.4550 J-0.7881
G02 X209.5450 Y-10.7881 Z-2.6667 I-0.9100 J0.0000
G02 Y-9.2119 Z-3.3333 I0.4550 J0.7881
G02 X210.9100 Y-10.0000 Z-4.0000 I0.4550 J-0.7881
G02 X209.5450 Y-10.7881 Z-4.6667 I-0.9100 J0.0000
G02 Y-9.2119 Z-5.3333 I0.4550 J0.7881
G02 X210.9100 Y-10.0000 Z-6.0000 I0.4550 J-0.7881
G02 X209.5450 Y-10.7881 I-0.9100 J0.0000
G02 Y-9.2119 I0.4550 J0.7881
G02 X210.9100 Y-10.0000 I0.4550 J-0.7881
G02 X210.4550 Y-10.4550 Z-5.8862 I-0.4550 J0.0000 F1500
G00 Z9.0000


;No. 6: Part 1
G00 X210.4550 Y-18.5650 Z9.0000
G00 Z0.5000
G01 Z0.0000 F120
G01 X212.4550 Z-2.0000
G01 X220.0000 F1500
G03 X221.7400 Y-16.8250 I0.0000 J1.7400
G01 Y-3.1750
G03 X220.0000 Y-1.4350 I-1.7400 J0.0000
G01 X20.0000
G03 X18.2600 Y-3.1750 I0.0000 J-1.7400
G01 Y-16.8250
G03 X20.0000 Y-18.5650 I1.7400 J0.0000
G01 X210.4550
G01 X212.4550 Z-4.0000 F120
G01 X220.0000 F1500
G03 X221.7400 Y-16.8250 I0.0000 J1.7400
G01 Y-3.1750
G03 X220.0000 Y-1.4350 I-1.7400 J0.0000
G01 X20.0000
G03 X18.2600 Y-3.1750 I0.0000 J-1.7400
G01 Y-16.8250
G03 X20.0000 Y-18.5650 I1.7400 J0.0000
G01 X210.4550
G01 X212.4550 Z-6.0000 F120
G01 X220.0000 F1500
G03 X221.7400 Y-16.8250 I0.0000 J1.7400
G01 Y-3.1750
G03 X220.0000 Y-1.4350 I-1.7400 J0.0000
G01 X20.0000
G03 X18.2600 Y-3.1750 I0.0000 J-1.7400
G01 Y-16.8250
G03 X20.0000 Y-18.5650 I1.7400 J0.0000
G01 X210.4550
G01 X212.4550
G00 X212.4550 Y-18.5650 Z-2.0000
G01 Y-18.4150 F1500
G01 X220.0000
G03 X221.5900 Y-16.8250 I0.0000 J1.5900
G01 Y-3.1750
G03 X220.0000 Y-1.5850 I-1.5900 J0.0000
G01 X20.0000
G03 X18.4100 Y-3.1750 I0.0000 J-1.5900
G01 Y-16.8250
G03 X20.0000 Y-18.4150 I1.5900 J0.0000
G01 X212.4550
G01 X214.4550 Z-4.0000 F120
G01 X220.0000 F1500
G03 X221.5900 Y-16.8250 I0.0000 J1.5900
G01 Y-3.1750
G03 X220.0000 Y-1.5850 I-1.5900 J0.0000
G01 X20.0000
G03 X18.4100 Y-3.1750 I0.0000 J-1.5900
G01 Y-16.8250
G03 X20.0000 Y-18.4150 I1.5900 J0.0000
G01 X212.4550
G01 X214.4550 Z-6.0000 F120
G01 X220.0000 F1500
G03 X221.5900 Y-16.8250 I0.0000 J1.5900
G01 Y-3.1750
G03 X220.0000 Y-1.5850 I-1.5900 J0.0000
G01 X20.0000
G03 X18.4100 Y-3.1750 I0.0000 J-1.5900
G01 Y-16.8250
G03 X20.0000 Y-18.4150 I1.5900 J0.0000
G01 X212.4550
G01 X214.4550
G00 Z9.0000
G00 X0.0000 Y0.0000

M05
