;Project MftfreeFrame2x
;Created by Estlcam version 12 build 12.068
;Machining time about 00:22:13 hours

G90
M03 S10000
G00 Z9.0000


;No. 1: Part 2
G00 X574.4100 Y0.0000 Z9.0000
G00 Z0.5000
G01 Z0.0000 F120 S10000
G03 X575.5105 Y-1.5128 Z-2.0000 I1.5900 J0.0000
G03 X576.0000 Y-1.5900 I0.4895 J1.5128 F1500
G01 X1132.0000
G03 X1133.5900 Y0.0000 I0.0000 J1.5900
G01 Y556.0000
G03 X1132.0000 Y557.5900 I-1.5900 J0.0000
G01 X576.0000
G03 X574.4100 Y556.0000 I0.0000 J-1.5900
G01 Y0.0000
G03 X575.5105 Y-1.5128 Z-4.0000 I1.5900 J0.0000 F120
G03 X576.0000 Y-1.5900 I0.4895 J1.5128 F1500
G01 X1132.0000
G03 X1133.5900 Y0.0000 I0.0000 J1.5900
G01 Y556.0000
G03 X1132.0000 Y557.5900 I-1.5900 J0.0000
G01 X576.0000
G03 X574.4100 Y556.0000 I0.0000 J-1.5900
G01 Y0.0000
G03 X575.5105 Y-1.5128 Z-6.0000 I1.5900 J0.0000 F120
G03 X576.0000 Y-1.5900 I0.4895 J1.5128 F1500
G01 X1132.0000
G03 X1133.5900 Y0.0000 I0.0000 J1.5900
G01 Y556.0000
G03 X1132.0000 Y557.5900 I-1.5900 J0.0000
G01 X576.0000
G03 X574.4100 Y556.0000 I0.0000 J-1.5900
G01 Y0.0000
G03 X575.5105 Y-1.5128 I1.5900 J0.0000
G00 Z9.0000


;No. 2: Part 1
G00 X557.5866 Y-0.1040 Z9.0000
G00 Z0.5000
G01 Z0.0000 F120
G01 X557.5900 Y0.0000 Z-0.1040
G01 Y1.8960 Z-2.0000
G01 Y556.0000 F1500
G03 X556.0000 Y557.5900 I-1.5900 J0.0000
G01 X0.0000
G03 X-1.5900 Y556.0000 I0.0000 J-1.5900
G01 Y0.0000
G03 X0.0000 Y-1.5900 I1.5900 J0.0000
G01 X556.0000
G03 X557.5866 Y-0.1040 I0.0000 J1.5900
G01 X557.5900 Y0.0000 Z-2.1040 F120
G01 Y1.8960 Z-4.0000
G01 Y556.0000 F1500
G03 X556.0000 Y557.5900 I-1.5900 J0.0000
G01 X0.0000
G03 X-1.5900 Y556.0000 I0.0000 J-1.5900
G01 Y0.0000
G03 X0.0000 Y-1.5900 I1.5900 J0.0000
G01 X556.0000
G03 X557.5866 Y-0.1040 I0.0000 J1.5900
G01 X557.5900 Y0.0000 Z-4.1040 F120
G01 Y1.8960 Z-6.0000
G01 Y556.0000 F1500
G03 X556.0000 Y557.5900 I-1.5900 J0.0000
G01 X0.0000
G03 X-1.5900 Y556.0000 I0.0000 J-1.5900
G01 Y0.0000
G03 X0.0000 Y-1.5900 I1.5900 J0.0000
G01 X556.0000
G03 X557.5866 Y-0.1040 I0.0000 J1.5900
G01 X557.5900 Y0.0000
G01 Y1.8960
G00 Z9.0000
G00 X0.0000 Y0.0000

M05
