;Project MftfreeFix2x
;Created by Estlcam version 12 build 12.068
;Machining time about 02:18:27 hours

G90
M03 S10000
G00 Z9.0000


;No. 1: Drill 1
G00 X10.0000 Y10.0000 Z9.0000
G00 Z0.5000
G01 Z-2.0000 F120 S10000
G00 Z0.5000
G00 Z-1.5000
G01 Z-4.0000
G00 Z0.5000
G00 Z-3.5000
G01 Z-6.0000
G00 Z9.0000


;No. 2: Drill 4
G00 X38.0000 Y38.0000 Z9.0000
G00 Z0.5000
G01 Z-2.0000 F120
G00 Z0.5000
G00 Z-1.5000
G01 Z-4.0000
G00 Z0.5000
G00 Z-3.5000
G01 Z-6.0000
G00 Z9.0000


;No. 3: Drill 5
G00 X86.0000 Y86.0000 Z9.0000
G00 Z0.5000
G01 Z-2.0000 F120
G00 Z0.5000
G00 Z-1.5000
G01 Z-4.0000
G00 Z0.5000
G00 Z-3.5000
G01 Z-6.0000
G00 Z9.0000


;No. 4: Drill 6
G00 X134.0000 Y38.0000 Z9.0000
G00 Z0.5000
G01 Z-2.0000 F120
G00 Z0.5000
G00 Z-1.5000
G01 Z-4.0000
G00 Z0.5000
G00 Z-3.5000
G01 Z-6.0000
G00 Z9.0000


;No. 5: Drill 41
G00 X182.0000 Y86.0000 Z9.0000
G00 Z0.5000
G01 Z-2.0000 F120
G00 Z0.5000
G00 Z-1.5000
G01 Z-4.0000
G00 Z0.5000
G00 Z-3.5000
G01 Z-6.0000
G00 Z9.0000


;No. 6: Drill 7
G00 X230.0000 Y38.0000 Z9.0000
G00 Z0.5000
G01 Z-2.0000 F120
G00 Z0.5000
G00 Z-1.5000
G01 Z-4.0000
G00 Z0.5000
G00 Z-3.5000
G01 Z-6.0000
G00 Z9.0000


;No. 7: Drill 2
G00 X278.0000 Y10.0000 Z9.0000
G00 Z0.5000
G01 Z-2.0000 F120
G00 Z0.5000
G00 Z-1.5000
G01 Z-4.0000
G00 Z0.5000
G00 Z-3.5000
G01 Z-6.0000
G00 Z9.0000


;No. 8: Drill 8
G00 X326.0000 Y38.0000 Z9.0000
G00 Z0.5000
G01 Z-2.0000 F120
G00 Z0.5000
G00 Z-1.5000
G01 Z-4.0000
G00 Z0.5000
G00 Z-3.5000
G01 Z-6.0000
G00 Z9.0000


;No. 9: Drill 42
G00 X278.0000 Y86.0000 Z9.0000
G00 Z0.5000
G01 Z-2.0000 F120
G00 Z0.5000
G00 Z-1.5000
G01 Z-4.0000
G00 Z0.5000
G00 Z-3.5000
G01 Z-6.0000
G00 Z9.0000


;No. 10: Drill 13
G00 X230.0000 Y134.0000 Z9.0000
G00 Z0.5000
G01 Z-2.0000 F120
G00 Z0.5000
G00 Z-1.5000
G01 Z-4.0000
G00 Z0.5000
G00 Z-3.5000
G01 Z-6.0000
G00 Z9.0000


;No. 11: Drill 47
G00 X278.0000 Y182.0000 Z9.0000
G00 Z0.5000
G01 Z-2.0000 F120
G00 Z0.5000
G00 Z-1.5000
G01 Z-4.0000
G00 Z0.5000
G00 Z-3.5000
G01 Z-6.0000
G00 Z9.0000


;No. 12: Drill 14
G00 X326.0000 Y134.0000 Z9.0000
G00 Z0.5000
G01 Z-2.0000 F120
G00 Z0.5000
G00 Z-1.5000
G01 Z-4.0000
G00 Z0.5000
G00 Z-3.5000
G01 Z-6.0000
G00 Z9.0000


;No. 13: Drill 43
G00 X374.0000 Y86.0000 Z9.0000
G00 Z0.5000
G01 Z-2.0000 F120
G00 Z0.5000
G00 Z-1.5000
G01 Z-4.0000
G00 Z0.5000
G00 Z-3.5000
G01 Z-6.0000
G00 Z9.0000


;No. 14: Drill 9
G00 X422.0000 Y38.0000 Z9.0000
G00 Z0.5000
G01 Z-2.0000 F120
G00 Z0.5000
G00 Z-1.5000
G01 Z-4.0000
G00 Z0.5000
G00 Z-3.5000
G01 Z-6.0000
G00 Z9.0000


;No. 15: Drill 44
G00 X470.0000 Y86.0000 Z9.0000
G00 Z0.5000
G01 Z-2.0000 F120
G00 Z0.5000
G00 Z-1.5000
G01 Z-4.0000
G00 Z0.5000
G00 Z-3.5000
G01 Z-6.0000
G00 Z9.0000


;No. 16: Drill 10
G00 X518.0000 Y38.0000 Z9.0000
G00 Z0.5000
G01 Z-2.0000 F120
G00 Z0.5000
G00 Z-1.5000
G01 Z-4.0000
G00 Z0.5000
G00 Z-3.5000
G01 Z-6.0000
G00 Z9.0000


;No. 17: Drill 65
G00 X546.0000 Y10.0000 Z9.0000
G00 Z0.5000
G01 Z-2.0000 F120
G00 Z0.5000
G00 Z-1.5000
G01 Z-4.0000
G00 Z0.5000
G00 Z-3.5000
G01 Z-6.0000
G00 Z9.0000


;No. 18: Drill 108
G00 X586.0000 Y10.0000 Z9.0000
G00 Z0.5000
G01 Z-2.0000 F120
G00 Z0.5000
G00 Z-1.5000
G01 Z-4.0000
G00 Z0.5000
G00 Z-3.5000
G01 Z-6.0000
G00 Z9.0000


;No. 19: Drill 104
G00 X614.0000 Y38.0000 Z9.0000
G00 Z0.5000
G01 Z-2.0000 F120
G00 Z0.5000
G00 Z-1.5000
G01 Z-4.0000
G00 Z0.5000
G00 Z-3.5000
G01 Z-6.0000
G00 Z9.0000


;No. 20: Drill 79
G00 X662.0000 Y86.0000 Z9.0000
G00 Z0.5000
G01 Z-2.0000 F120
G00 Z0.5000
G00 Z-1.5000
G01 Z-4.0000
G00 Z0.5000
G00 Z-3.5000
G01 Z-6.0000
G00 Z9.0000


;No. 21: Drill 115
G00 X710.0000 Y38.0000 Z9.0000
G00 Z0.5000
G01 Z-2.0000 F120
G00 Z0.5000
G00 Z-1.5000
G01 Z-4.0000
G00 Z0.5000
G00 Z-3.5000
G01 Z-6.0000
G00 Z9.0000


;No. 22: Drill 121
G00 X758.0000 Y86.0000 Z9.0000
G00 Z0.5000
G01 Z-2.0000 F120
G00 Z0.5000
G00 Z-1.5000
G01 Z-4.0000
G00 Z0.5000
G00 Z-3.5000
G01 Z-6.0000
G00 Z9.0000


;No. 23: Drill 78
G00 X806.0000 Y38.0000 Z9.0000
G00 Z0.5000
G01 Z-2.0000 F120
G00 Z0.5000
G00 Z-1.5000
G01 Z-4.0000
G00 Z0.5000
G00 Z-3.5000
G01 Z-6.0000
G00 Z9.0000


;No. 24: Drill 92
G00 X854.0000 Y10.0000 Z9.0000
G00 Z0.5000
G01 Z-2.0000 F120
G00 Z0.5000
G00 Z-1.5000
G01 Z-4.0000
G00 Z0.5000
G00 Z-3.5000
G01 Z-6.0000
G00 Z9.0000


;No. 25: Drill 103
G00 X902.0000 Y38.0000 Z9.0000
G00 Z0.5000
G01 Z-2.0000 F120
G00 Z0.5000
G00 Z-1.5000
G01 Z-4.0000
G00 Z0.5000
G00 Z-3.5000
G01 Z-6.0000
G00 Z9.0000


;No. 26: Drill 107
G00 X950.0000 Y86.0000 Z9.0000
G00 Z0.5000
G01 Z-2.0000 F120
G00 Z0.5000
G00 Z-1.5000
G01 Z-4.0000
G00 Z0.5000
G00 Z-3.5000
G01 Z-6.0000
G00 Z9.0000


;No. 27: Drill 71
G00 X998.0000 Y38.0000 Z9.0000
G00 Z0.5000
G01 Z-2.0000 F120
G00 Z0.5000
G00 Z-1.5000
G01 Z-4.0000
G00 Z0.5000
G00 Z-3.5000
G01 Z-6.0000
G00 Z9.0000


;No. 28: Drill 122
G00 X1046.0000 Y86.0000 Z9.0000
G00 Z0.5000
G01 Z-2.0000 F120
G00 Z0.5000
G00 Z-1.5000
G01 Z-4.0000
G00 Z0.5000
G00 Z-3.5000
G01 Z-6.0000
G00 Z9.0000


;No. 29: Drill 109
G00 X1094.0000 Y38.0000 Z9.0000
G00 Z0.5000
G01 Z-2.0000 F120
G00 Z0.5000
G00 Z-1.5000
G01 Z-4.0000
G00 Z0.5000
G00 Z-3.5000
G01 Z-6.0000
G00 Z9.0000


;No. 30: Drill 82
G00 X1122.0000 Y10.0000 Z9.0000
G00 Z0.5000
G01 Z-2.0000 F120
G00 Z0.5000
G00 Z-1.5000
G01 Z-4.0000
G00 Z0.5000
G00 Z-3.5000
G01 Z-6.0000
G00 Z9.0000


;No. 31: Drill 95
G00 X1094.0000 Y134.0000 Z9.0000
G00 Z0.5000
G01 Z-2.0000 F120
G00 Z0.5000
G00 Z-1.5000
G01 Z-4.0000
G00 Z0.5000
G00 Z-3.5000
G01 Z-6.0000
G00 Z9.0000


;No. 32: Drill 120
G00 X1046.0000 Y182.0000 Z9.0000
G00 Z0.5000
G01 Z-2.0000 F120
G00 Z0.5000
G00 Z-1.5000
G01 Z-4.0000
G00 Z0.5000
G00 Z-3.5000
G01 Z-6.0000
G00 Z9.0000


;No. 33: Drill 75
G00 X998.0000 Y134.0000 Z9.0000
G00 Z0.5000
G01 Z-2.0000 F120
G00 Z0.5000
G00 Z-1.5000
G01 Z-4.0000
G00 Z0.5000
G00 Z-3.5000
G01 Z-6.0000
G00 Z9.0000


;No. 34: Drill 114
G00 X950.0000 Y182.0000 Z9.0000
G00 Z0.5000
G01 Z-2.0000 F120
G00 Z0.5000
G00 Z-1.5000
G01 Z-4.0000
G00 Z0.5000
G00 Z-3.5000
G01 Z-6.0000
G00 Z9.0000


;No. 35: Drill 97
G00 X902.0000 Y134.0000 Z9.0000
G00 Z0.5000
G01 Z-2.0000 F120
G00 Z0.5000
G00 Z-1.5000
G01 Z-4.0000
G00 Z0.5000
G00 Z-3.5000
G01 Z-6.0000
G00 Z9.0000


;No. 36: Drill 131
G00 X854.0000 Y86.0000 Z9.0000
G00 Z0.5000
G01 Z-2.0000 F120
G00 Z0.5000
G00 Z-1.5000
G01 Z-4.0000
G00 Z0.5000
G00 Z-3.5000
G01 Z-6.0000
G00 Z9.0000


;No. 37: Drill 111
G00 X806.0000 Y134.0000 Z9.0000
G00 Z0.5000
G01 Z-2.0000 F120
G00 Z0.5000
G00 Z-1.5000
G01 Z-4.0000
G00 Z0.5000
G00 Z-3.5000
G01 Z-6.0000
G00 Z9.0000


;No. 38: Drill 118
G00 X758.0000 Y182.0000 Z9.0000
G00 Z0.5000
G01 Z-2.0000 F120
G00 Z0.5000
G00 Z-1.5000
G01 Z-4.0000
G00 Z0.5000
G00 Z-3.5000
G01 Z-6.0000
G00 Z9.0000


;No. 39: Drill 70
G00 X806.0000 Y230.0000 Z9.0000
G00 Z0.5000
G01 Z-2.0000 F120
G00 Z0.5000
G00 Z-1.5000
G01 Z-4.0000
G00 Z0.5000
G00 Z-3.5000
G01 Z-6.0000
G00 Z9.0000


;No. 40: Drill 135
G00 X854.0000 Y182.0000 Z9.0000
G00 Z0.5000
G01 Z-2.0000 F120
G00 Z0.5000
G00 Z-1.5000
G01 Z-4.0000
G00 Z0.5000
G00 Z-3.5000
G01 Z-6.0000
G00 Z9.0000


;No. 41: Drill 117
G00 X902.0000 Y230.0000 Z9.0000
G00 Z0.5000
G01 Z-2.0000 F120
G00 Z0.5000
G00 Z-1.5000
G01 Z-4.0000
G00 Z0.5000
G00 Z-3.5000
G01 Z-6.0000
G00 Z9.0000


;No. 42: Drill 126
G00 X854.0000 Y278.0000 Z9.0000
G00 Z0.5000
G01 Z-2.0000 F120
G00 Z0.5000
G00 Z-1.5000
G01 Z-4.0000
G00 Z0.5000
G00 Z-3.5000
G01 Z-6.0000
G00 Z9.0000


;No. 43: Drill 77
G00 X806.0000 Y326.0000 Z9.0000
G00 Z0.5000
G01 Z-2.0000 F120
G00 Z0.5000
G00 Z-1.5000
G01 Z-4.0000
G00 Z0.5000
G00 Z-3.5000
G01 Z-6.0000
G00 Z9.0000


;No. 44: Drill 89
G00 X758.0000 Y278.0000 Z9.0000
G00 Z0.5000
G01 Z-2.0000 F120
G00 Z0.5000
G00 Z-1.5000
G01 Z-4.0000
G00 Z0.5000
G00 Z-3.5000
G01 Z-6.0000
G00 Z9.0000


;No. 45: Drill 98
G00 X710.0000 Y230.0000 Z9.0000
G00 Z0.5000
G01 Z-2.0000 F120
G00 Z0.5000
G00 Z-1.5000
G01 Z-4.0000
G00 Z0.5000
G00 Z-3.5000
G01 Z-6.0000
G00 Z9.0000


;No. 46: Drill 73
G00 X662.0000 Y182.0000 Z9.0000
G00 Z0.5000
G01 Z-2.0000 F120
G00 Z0.5000
G00 Z-1.5000
G01 Z-4.0000
G00 Z0.5000
G00 Z-3.5000
G01 Z-6.0000
G00 Z9.0000


;No. 47: Drill 86
G00 X710.0000 Y134.0000 Z9.0000
G00 Z0.5000
G01 Z-2.0000 F120
G00 Z0.5000
G00 Z-1.5000
G01 Z-4.0000
G00 Z0.5000
G00 Z-3.5000
G01 Z-6.0000
G00 Z9.0000


;No. 48: Drill 133
G00 X614.0000 Y134.0000 Z9.0000
G00 Z0.5000
G01 Z-2.0000 F120
G00 Z0.5000
G00 Z-1.5000
G01 Z-4.0000
G00 Z0.5000
G00 Z-3.5000
G01 Z-6.0000
G00 Z9.0000


;No. 49: Drill 16
G00 X518.0000 Y134.0000 Z9.0000
G00 Z0.5000
G01 Z-2.0000 F120
G00 Z0.5000
G00 Z-1.5000
G01 Z-4.0000
G00 Z0.5000
G00 Z-3.5000
G01 Z-6.0000
G00 Z9.0000


;No. 50: Drill 49
G00 X470.0000 Y182.0000 Z9.0000
G00 Z0.5000
G01 Z-2.0000 F120
G00 Z0.5000
G00 Z-1.5000
G01 Z-4.0000
G00 Z0.5000
G00 Z-3.5000
G01 Z-6.0000
G00 Z9.0000


;No. 51: Drill 15
G00 X422.0000 Y134.0000 Z9.0000
G00 Z0.5000
G01 Z-2.0000 F120
G00 Z0.5000
G00 Z-1.5000
G01 Z-4.0000
G00 Z0.5000
G00 Z-3.5000
G01 Z-6.0000
G00 Z9.0000


;No. 52: Drill 48
G00 X374.0000 Y182.0000 Z9.0000
G00 Z0.5000
G01 Z-2.0000 F120
G00 Z0.5000
G00 Z-1.5000
G01 Z-4.0000
G00 Z0.5000
G00 Z-3.5000
G01 Z-6.0000
G00 Z9.0000


;No. 53: Drill 21
G00 X422.0000 Y230.0000 Z9.0000
G00 Z0.5000
G01 Z-2.0000 F120
G00 Z0.5000
G00 Z-1.5000
G01 Z-4.0000
G00 Z0.5000
G00 Z-3.5000
G01 Z-6.0000
G00 Z9.0000


;No. 54: Drill 53
G00 X374.0000 Y278.0000 Z9.0000
G00 Z0.5000
G01 Z-2.0000 F120
G00 Z0.5000
G00 Z-1.5000
G01 Z-4.0000
G00 Z0.5000
G00 Z-3.5000
G01 Z-6.0000
G00 Z9.0000


;No. 55: Drill 20
G00 X326.0000 Y230.0000 Z9.0000
G00 Z0.5000
G01 Z-2.0000 F120
G00 Z0.5000
G00 Z-1.5000
G01 Z-4.0000
G00 Z0.5000
G00 Z-3.5000
G01 Z-6.0000
G00 Z9.0000


;No. 56: Drill 52
G00 X278.0000 Y278.0000 Z9.0000
G00 Z0.5000
G01 Z-2.0000 F120
G00 Z0.5000
G00 Z-1.5000
G01 Z-4.0000
G00 Z0.5000
G00 Z-3.5000
G01 Z-6.0000
G00 Z9.0000


;No. 57: Drill 26
G00 X326.0000 Y326.0000 Z9.0000
G00 Z0.5000
G01 Z-2.0000 F120
G00 Z0.5000
G00 Z-1.5000
G01 Z-4.0000
G00 Z0.5000
G00 Z-3.5000
G01 Z-6.0000
G00 Z9.0000


;No. 58: Drill 58
G00 X374.0000 Y374.0000 Z9.0000
G00 Z0.5000
G01 Z-2.0000 F120
G00 Z0.5000
G00 Z-1.5000
G01 Z-4.0000
G00 Z0.5000
G00 Z-3.5000
G01 Z-6.0000
G00 Z9.0000


;No. 59: Drill 27
G00 X422.0000 Y326.0000 Z9.0000
G00 Z0.5000
G01 Z-2.0000 F120
G00 Z0.5000
G00 Z-1.5000
G01 Z-4.0000
G00 Z0.5000
G00 Z-3.5000
G01 Z-6.0000
G00 Z9.0000


;No. 60: Drill 54
G00 X470.0000 Y278.0000 Z9.0000
G00 Z0.5000
G01 Z-2.0000 F120
G00 Z0.5000
G00 Z-1.5000
G01 Z-4.0000
G00 Z0.5000
G00 Z-3.5000
G01 Z-6.0000
G00 Z9.0000


;No. 61: Drill 22
G00 X518.0000 Y230.0000 Z9.0000
G00 Z0.5000
G01 Z-2.0000 F120
G00 Z0.5000
G00 Z-1.5000
G01 Z-4.0000
G00 Z0.5000
G00 Z-3.5000
G01 Z-6.0000
G00 Z9.0000


;No. 62: Drill 66
G00 X546.0000 Y278.0000 Z9.0000
G00 Z0.5000
G01 Z-2.0000 F120
G00 Z0.5000
G00 Z-1.5000
G01 Z-4.0000
G00 Z0.5000
G00 Z-3.5000
G01 Z-6.0000
G00 Z9.0000


;No. 63: Drill 93
G00 X586.0000 Y278.0000 Z9.0000
G00 Z0.5000
G01 Z-2.0000 F120
G00 Z0.5000
G00 Z-1.5000
G01 Z-4.0000
G00 Z0.5000
G00 Z-3.5000
G01 Z-6.0000
G00 Z9.0000


;No. 64: Drill 137
G00 X614.0000 Y230.0000 Z9.0000
G00 Z0.5000
G01 Z-2.0000 F120
G00 Z0.5000
G00 Z-1.5000
G01 Z-4.0000
G00 Z0.5000
G00 Z-3.5000
G01 Z-6.0000
G00 Z9.0000


;No. 65: Drill 72
G00 X662.0000 Y278.0000 Z9.0000
G00 Z0.5000
G01 Z-2.0000 F120
G00 Z0.5000
G00 Z-1.5000
G01 Z-4.0000
G00 Z0.5000
G00 Z-3.5000
G01 Z-6.0000
G00 Z9.0000


;No. 66: Drill 96
G00 X614.0000 Y326.0000 Z9.0000
G00 Z0.5000
G01 Z-2.0000 F120
G00 Z0.5000
G00 Z-1.5000
G01 Z-4.0000
G00 Z0.5000
G00 Z-3.5000
G01 Z-6.0000
G00 Z9.0000


;No. 67: Drill 84
G00 X662.0000 Y374.0000 Z9.0000
G00 Z0.5000
G01 Z-2.0000 F120
G00 Z0.5000
G00 Z-1.5000
G01 Z-4.0000
G00 Z0.5000
G00 Z-3.5000
G01 Z-6.0000
G00 Z9.0000


;No. 68: Drill 102
G00 X710.0000 Y326.0000 Z9.0000
G00 Z0.5000
G01 Z-2.0000 F120
G00 Z0.5000
G00 Z-1.5000
G01 Z-4.0000
G00 Z0.5000
G00 Z-3.5000
G01 Z-6.0000
G00 Z9.0000


;No. 69: Drill 136
G00 X758.0000 Y374.0000 Z9.0000
G00 Z0.5000
G01 Z-2.0000 F120
G00 Z0.5000
G00 Z-1.5000
G01 Z-4.0000
G00 Z0.5000
G00 Z-3.5000
G01 Z-6.0000
G00 Z9.0000


;No. 70: Drill 125
G00 X806.0000 Y422.0000 Z9.0000
G00 Z0.5000
G01 Z-2.0000 F120
G00 Z0.5000
G00 Z-1.5000
G01 Z-4.0000
G00 Z0.5000
G00 Z-3.5000
G01 Z-6.0000
G00 Z9.0000


;No. 71: Drill 112
G00 X854.0000 Y374.0000 Z9.0000
G00 Z0.5000
G01 Z-2.0000 F120
G00 Z0.5000
G00 Z-1.5000
G01 Z-4.0000
G00 Z0.5000
G00 Z-3.5000
G01 Z-6.0000
G00 Z9.0000


;No. 72: Drill 76
G00 X902.0000 Y326.0000 Z9.0000
G00 Z0.5000
G01 Z-2.0000 F120
G00 Z0.5000
G00 Z-1.5000
G01 Z-4.0000
G00 Z0.5000
G00 Z-3.5000
G01 Z-6.0000
G00 Z9.0000


;No. 73: Drill 99
G00 X950.0000 Y374.0000 Z9.0000
G00 Z0.5000
G01 Z-2.0000 F120
G00 Z0.5000
G00 Z-1.5000
G01 Z-4.0000
G00 Z0.5000
G00 Z-3.5000
G01 Z-6.0000
G00 Z9.0000


;No. 74: Drill 128
G00 X998.0000 Y326.0000 Z9.0000
G00 Z0.5000
G01 Z-2.0000 F120
G00 Z0.5000
G00 Z-1.5000
G01 Z-4.0000
G00 Z0.5000
G00 Z-3.5000
G01 Z-6.0000
G00 Z9.0000


;No. 75: Drill 134
G00 X950.0000 Y278.0000 Z9.0000
G00 Z0.5000
G01 Z-2.0000 F120
G00 Z0.5000
G00 Z-1.5000
G01 Z-4.0000
G00 Z0.5000
G00 Z-3.5000
G01 Z-6.0000
G00 Z9.0000


;No. 76: Drill 106
G00 X998.0000 Y230.0000 Z9.0000
G00 Z0.5000
G01 Z-2.0000 F120
G00 Z0.5000
G00 Z-1.5000
G01 Z-4.0000
G00 Z0.5000
G00 Z-3.5000
G01 Z-6.0000
G00 Z9.0000


;No. 77: Drill 101
G00 X1046.0000 Y278.0000 Z9.0000
G00 Z0.5000
G01 Z-2.0000 F120
G00 Z0.5000
G00 Z-1.5000
G01 Z-4.0000
G00 Z0.5000
G00 Z-3.5000
G01 Z-6.0000
G00 Z9.0000


;No. 78: Drill 124
G00 X1094.0000 Y230.0000 Z9.0000
G00 Z0.5000
G01 Z-2.0000 F120
G00 Z0.5000
G00 Z-1.5000
G01 Z-4.0000
G00 Z0.5000
G00 Z-3.5000
G01 Z-6.0000
G00 Z9.0000


;No. 79: Drill 85
G00 X1122.0000 Y278.0000 Z9.0000
G00 Z0.5000
G01 Z-2.0000 F120
G00 Z0.5000
G00 Z-1.5000
G01 Z-4.0000
G00 Z0.5000
G00 Z-3.5000
G01 Z-6.0000
G00 Z9.0000


;No. 80: Drill 123
G00 X1094.0000 Y326.0000 Z9.0000
G00 Z0.5000
G01 Z-2.0000 F120
G00 Z0.5000
G00 Z-1.5000
G01 Z-4.0000
G00 Z0.5000
G00 Z-3.5000
G01 Z-6.0000
G00 Z9.0000


;No. 81: Drill 130
G00 X1046.0000 Y374.0000 Z9.0000
G00 Z0.5000
G01 Z-2.0000 F120
G00 Z0.5000
G00 Z-1.5000
G01 Z-4.0000
G00 Z0.5000
G00 Z-3.5000
G01 Z-6.0000
G00 Z9.0000


;No. 82: Drill 94
G00 X1094.0000 Y422.0000 Z9.0000
G00 Z0.5000
G01 Z-2.0000 F120
G00 Z0.5000
G00 Z-1.5000
G01 Z-4.0000
G00 Z0.5000
G00 Z-3.5000
G01 Z-6.0000
G00 Z9.0000


;No. 83: Drill 116
G00 X1046.0000 Y470.0000 Z9.0000
G00 Z0.5000
G01 Z-2.0000 F120
G00 Z0.5000
G00 Z-1.5000
G01 Z-4.0000
G00 Z0.5000
G00 Z-3.5000
G01 Z-6.0000
G00 Z9.0000


;No. 84: Drill 110
G00 X998.0000 Y422.0000 Z9.0000
G00 Z0.5000
G01 Z-2.0000 F120
G00 Z0.5000
G00 Z-1.5000
G01 Z-4.0000
G00 Z0.5000
G00 Z-3.5000
G01 Z-6.0000
G00 Z9.0000


;No. 85: Drill 88
G00 X950.0000 Y470.0000 Z9.0000
G00 Z0.5000
G01 Z-2.0000 F120
G00 Z0.5000
G00 Z-1.5000
G01 Z-4.0000
G00 Z0.5000
G00 Z-3.5000
G01 Z-6.0000
G00 Z9.0000


;No. 86: Drill 132
G00 X902.0000 Y422.0000 Z9.0000
G00 Z0.5000
G01 Z-2.0000 F120
G00 Z0.5000
G00 Z-1.5000
G01 Z-4.0000
G00 Z0.5000
G00 Z-3.5000
G01 Z-6.0000
G00 Z9.0000


;No. 87: Drill 119
G00 X854.0000 Y470.0000 Z9.0000
G00 Z0.5000
G01 Z-2.0000 F120
G00 Z0.5000
G00 Z-1.5000
G01 Z-4.0000
G00 Z0.5000
G00 Z-3.5000
G01 Z-6.0000
G00 Z9.0000


;No. 88: Drill 113
G00 X806.0000 Y518.0000 Z9.0000
G00 Z0.5000
G01 Z-2.0000 F120
G00 Z0.5000
G00 Z-1.5000
G01 Z-4.0000
G00 Z0.5000
G00 Z-3.5000
G01 Z-6.0000
G00 Z9.0000


;No. 89: Drill 127
G00 X854.0000 Y546.0000 Z9.0000
G00 Z0.5000
G01 Z-2.0000 F120
G00 Z0.5000
G00 Z-1.5000
G01 Z-4.0000
G00 Z0.5000
G00 Z-3.5000
G01 Z-6.0000
G00 Z9.0000


;No. 90: Drill 91
G00 X902.0000 Y518.0000 Z9.0000
G00 Z0.5000
G01 Z-2.0000 F120
G00 Z0.5000
G00 Z-1.5000
G01 Z-4.0000
G00 Z0.5000
G00 Z-3.5000
G01 Z-6.0000
G00 Z9.0000


;No. 91: Drill 90
G00 X998.0000 Y518.0000 Z9.0000
G00 Z0.5000
G01 Z-2.0000 F120
G00 Z0.5000
G00 Z-1.5000
G01 Z-4.0000
G00 Z0.5000
G00 Z-3.5000
G01 Z-6.0000
G00 Z9.0000


;No. 92: Drill 129
G00 X1094.0000 Y518.0000 Z9.0000
G00 Z0.5000
G01 Z-2.0000 F120
G00 Z0.5000
G00 Z-1.5000
G01 Z-4.0000
G00 Z0.5000
G00 Z-3.5000
G01 Z-6.0000
G00 Z9.0000


;No. 93: Drill 83
G00 X1122.0000 Y546.0000 Z9.0000
G00 Z0.5000
G01 Z-2.0000 F120
G00 Z0.5000
G00 Z-1.5000
G01 Z-4.0000
G00 Z0.5000
G00 Z-3.5000
G01 Z-6.0000
G00 Z9.0000


;No. 94: Drill 138
G00 X758.0000 Y470.0000 Z9.0000
G00 Z0.5000
G01 Z-2.0000 F120
G00 Z0.5000
G00 Z-1.5000
G01 Z-4.0000
G00 Z0.5000
G00 Z-3.5000
G01 Z-6.0000
G00 Z9.0000


;No. 95: Drill 105
G00 X710.0000 Y518.0000 Z9.0000
G00 Z0.5000
G01 Z-2.0000 F120
G00 Z0.5000
G00 Z-1.5000
G01 Z-4.0000
G00 Z0.5000
G00 Z-3.5000
G01 Z-6.0000
G00 Z9.0000


;No. 96: Drill 74
G00 X662.0000 Y470.0000 Z9.0000
G00 Z0.5000
G01 Z-2.0000 F120
G00 Z0.5000
G00 Z-1.5000
G01 Z-4.0000
G00 Z0.5000
G00 Z-3.5000
G01 Z-6.0000
G00 Z9.0000


;No. 97: Drill 100
G00 X614.0000 Y422.0000 Z9.0000
G00 Z0.5000
G01 Z-2.0000 F120
G00 Z0.5000
G00 Z-1.5000
G01 Z-4.0000
G00 Z0.5000
G00 Z-3.5000
G01 Z-6.0000
G00 Z9.0000


;No. 98: Drill 34
G00 X518.0000 Y422.0000 Z9.0000
G00 Z0.5000
G01 Z-2.0000 F120
G00 Z0.5000
G00 Z-1.5000
G01 Z-4.0000
G00 Z0.5000
G00 Z-3.5000
G01 Z-6.0000
G00 Z9.0000


;No. 99: Drill 59
G00 X470.0000 Y374.0000 Z9.0000
G00 Z0.5000
G01 Z-2.0000 F120
G00 Z0.5000
G00 Z-1.5000
G01 Z-4.0000
G00 Z0.5000
G00 Z-3.5000
G01 Z-6.0000
G00 Z9.0000


;No. 100: Drill 28
G00 X518.0000 Y326.0000 Z9.0000
G00 Z0.5000
G01 Z-2.0000 F120
G00 Z0.5000
G00 Z-1.5000
G01 Z-4.0000
G00 Z0.5000
G00 Z-3.5000
G01 Z-6.0000
G00 Z9.0000


;No. 101: Drill 33
G00 X422.0000 Y422.0000 Z9.0000
G00 Z0.5000
G01 Z-2.0000 F120
G00 Z0.5000
G00 Z-1.5000
G01 Z-4.0000
G00 Z0.5000
G00 Z-3.5000
G01 Z-6.0000
G00 Z9.0000


;No. 102: Drill 63
G00 X374.0000 Y470.0000 Z9.0000
G00 Z0.5000
G01 Z-2.0000 F120
G00 Z0.5000
G00 Z-1.5000
G01 Z-4.0000
G00 Z0.5000
G00 Z-3.5000
G01 Z-6.0000
G00 Z9.0000


;No. 103: Drill 38
G00 X326.0000 Y518.0000 Z9.0000
G00 Z0.5000
G01 Z-2.0000 F120
G00 Z0.5000
G00 Z-1.5000
G01 Z-4.0000
G00 Z0.5000
G00 Z-3.5000
G01 Z-6.0000
G00 Z9.0000


;No. 104: Drill 68
G00 X278.0000 Y546.0000 Z9.0000
G00 Z0.5000
G01 Z-2.0000 F120
G00 Z0.5000
G00 Z-1.5000
G01 Z-4.0000
G00 Z0.5000
G00 Z-3.5000
G01 Z-6.0000
G00 Z9.0000


;No. 105: Drill 37
G00 X230.0000 Y518.0000 Z9.0000
G00 Z0.5000
G01 Z-2.0000 F120
G00 Z0.5000
G00 Z-1.5000
G01 Z-4.0000
G00 Z0.5000
G00 Z-3.5000
G01 Z-6.0000
G00 Z9.0000


;No. 106: Drill 61
G00 X182.0000 Y470.0000 Z9.0000
G00 Z0.5000
G01 Z-2.0000 F120
G00 Z0.5000
G00 Z-1.5000
G01 Z-4.0000
G00 Z0.5000
G00 Z-3.5000
G01 Z-6.0000
G00 Z9.0000


;No. 107: Drill 30
G00 X134.0000 Y422.0000 Z9.0000
G00 Z0.5000
G01 Z-2.0000 F120
G00 Z0.5000
G00 Z-1.5000
G01 Z-4.0000
G00 Z0.5000
G00 Z-3.5000
G01 Z-6.0000
G00 Z9.0000


;No. 108: Drill 55
G00 X86.0000 Y374.0000 Z9.0000
G00 Z0.5000
G01 Z-2.0000 F120
G00 Z0.5000
G00 Z-1.5000
G01 Z-4.0000
G00 Z0.5000
G00 Z-3.5000
G01 Z-6.0000
G00 Z9.0000


;No. 109: Drill 23
G00 X38.0000 Y326.0000 Z9.0000
G00 Z0.5000
G01 Z-2.0000 F120
G00 Z0.5000
G00 Z-1.5000
G01 Z-4.0000
G00 Z0.5000
G00 Z-3.5000
G01 Z-6.0000
G00 Z9.0000


;No. 110: Drill 3
G00 X10.0000 Y278.0000 Z9.0000
G00 Z0.5000
G01 Z-2.0000 F120
G00 Z0.5000
G00 Z-1.5000
G01 Z-4.0000
G00 Z0.5000
G00 Z-3.5000
G01 Z-6.0000
G00 Z9.0000


;No. 111: Drill 17
G00 X38.0000 Y230.0000 Z9.0000
G00 Z0.5000
G01 Z-2.0000 F120
G00 Z0.5000
G00 Z-1.5000
G01 Z-4.0000
G00 Z0.5000
G00 Z-3.5000
G01 Z-6.0000
G00 Z9.0000


;No. 112: Drill 45
G00 X86.0000 Y182.0000 Z9.0000
G00 Z0.5000
G01 Z-2.0000 F120
G00 Z0.5000
G00 Z-1.5000
G01 Z-4.0000
G00 Z0.5000
G00 Z-3.5000
G01 Z-6.0000
G00 Z9.0000


;No. 113: Drill 12
G00 X134.0000 Y134.0000 Z9.0000
G00 Z0.5000
G01 Z-2.0000 F120
G00 Z0.5000
G00 Z-1.5000
G01 Z-4.0000
G00 Z0.5000
G00 Z-3.5000
G01 Z-6.0000
G00 Z9.0000


;No. 114: Drill 46
G00 X182.0000 Y182.0000 Z9.0000
G00 Z0.5000
G01 Z-2.0000 F120
G00 Z0.5000
G00 Z-1.5000
G01 Z-4.0000
G00 Z0.5000
G00 Z-3.5000
G01 Z-6.0000
G00 Z9.0000


;No. 115: Drill 19
G00 X230.0000 Y230.0000 Z9.0000
G00 Z0.5000
G01 Z-2.0000 F120
G00 Z0.5000
G00 Z-1.5000
G01 Z-4.0000
G00 Z0.5000
G00 Z-3.5000
G01 Z-6.0000
G00 Z9.0000


;No. 116: Drill 51
G00 X182.0000 Y278.0000 Z9.0000
G00 Z0.5000
G01 Z-2.0000 F120
G00 Z0.5000
G00 Z-1.5000
G01 Z-4.0000
G00 Z0.5000
G00 Z-3.5000
G01 Z-6.0000
G00 Z9.0000


;No. 117: Drill 18
G00 X134.0000 Y230.0000 Z9.0000
G00 Z0.5000
G01 Z-2.0000 F120
G00 Z0.5000
G00 Z-1.5000
G01 Z-4.0000
G00 Z0.5000
G00 Z-3.5000
G01 Z-6.0000
G00 Z9.0000


;No. 118: Drill 50
G00 X86.0000 Y278.0000 Z9.0000
G00 Z0.5000
G01 Z-2.0000 F120
G00 Z0.5000
G00 Z-1.5000
G01 Z-4.0000
G00 Z0.5000
G00 Z-3.5000
G01 Z-6.0000
G00 Z9.0000


;No. 119: Drill 24
G00 X134.0000 Y326.0000 Z9.0000
G00 Z0.5000
G01 Z-2.0000 F120
G00 Z0.5000
G00 Z-1.5000
G01 Z-4.0000
G00 Z0.5000
G00 Z-3.5000
G01 Z-6.0000
G00 Z9.0000


;No. 120: Drill 56
G00 X182.0000 Y374.0000 Z9.0000
G00 Z0.5000
G01 Z-2.0000 F120
G00 Z0.5000
G00 Z-1.5000
G01 Z-4.0000
G00 Z0.5000
G00 Z-3.5000
G01 Z-6.0000
G00 Z9.0000


;No. 121: Drill 25
G00 X230.0000 Y326.0000 Z9.0000
G00 Z0.5000
G01 Z-2.0000 F120
G00 Z0.5000
G00 Z-1.5000
G01 Z-4.0000
G00 Z0.5000
G00 Z-3.5000
G01 Z-6.0000
G00 Z9.0000


;No. 122: Drill 57
G00 X278.0000 Y374.0000 Z9.0000
G00 Z0.5000
G01 Z-2.0000 F120
G00 Z0.5000
G00 Z-1.5000
G01 Z-4.0000
G00 Z0.5000
G00 Z-3.5000
G01 Z-6.0000
G00 Z9.0000


;No. 123: Drill 31
G00 X230.0000 Y422.0000 Z9.0000
G00 Z0.5000
G01 Z-2.0000 F120
G00 Z0.5000
G00 Z-1.5000
G01 Z-4.0000
G00 Z0.5000
G00 Z-3.5000
G01 Z-6.0000
G00 Z9.0000


;No. 124: Drill 62
G00 X278.0000 Y470.0000 Z9.0000
G00 Z0.5000
G01 Z-2.0000 F120
G00 Z0.5000
G00 Z-1.5000
G01 Z-4.0000
G00 Z0.5000
G00 Z-3.5000
G01 Z-6.0000
G00 Z9.0000


;No. 125: Drill 32
G00 X326.0000 Y422.0000 Z9.0000
G00 Z0.5000
G01 Z-2.0000 F120
G00 Z0.5000
G00 Z-1.5000
G01 Z-4.0000
G00 Z0.5000
G00 Z-3.5000
G01 Z-6.0000
G00 Z9.0000


;No. 126: Drill 39
G00 X422.0000 Y518.0000 Z9.0000
G00 Z0.5000
G01 Z-2.0000 F120
G00 Z0.5000
G00 Z-1.5000
G01 Z-4.0000
G00 Z0.5000
G00 Z-3.5000
G01 Z-6.0000
G00 Z9.0000


;No. 127: Drill 64
G00 X470.0000 Y470.0000 Z9.0000
G00 Z0.5000
G01 Z-2.0000 F120
G00 Z0.5000
G00 Z-1.5000
G01 Z-4.0000
G00 Z0.5000
G00 Z-3.5000
G01 Z-6.0000
G00 Z9.0000


;No. 128: Drill 40
G00 X518.0000 Y518.0000 Z9.0000
G00 Z0.5000
G01 Z-2.0000 F120
G00 Z0.5000
G00 Z-1.5000
G01 Z-4.0000
G00 Z0.5000
G00 Z-3.5000
G01 Z-6.0000
G00 Z9.0000


;No. 129: Drill 69
G00 X546.0000 Y546.0000 Z9.0000
G00 Z0.5000
G01 Z-2.0000 F120
G00 Z0.5000
G00 Z-1.5000
G01 Z-4.0000
G00 Z0.5000
G00 Z-3.5000
G01 Z-6.0000
G00 Z9.0000


;No. 130: Drill 81
G00 X586.0000 Y546.0000 Z9.0000
G00 Z0.5000
G01 Z-2.0000 F120
G00 Z0.5000
G00 Z-1.5000
G01 Z-4.0000
G00 Z0.5000
G00 Z-3.5000
G01 Z-6.0000
G00 Z9.0000


;No. 131: Drill 87
G00 X614.0000 Y518.0000 Z9.0000
G00 Z0.5000
G01 Z-2.0000 F120
G00 Z0.5000
G00 Z-1.5000
G01 Z-4.0000
G00 Z0.5000
G00 Z-3.5000
G01 Z-6.0000
G00 Z9.0000


;No. 132: Drill 80
G00 X710.0000 Y422.0000 Z9.0000
G00 Z0.5000
G01 Z-2.0000 F120
G00 Z0.5000
G00 Z-1.5000
G01 Z-4.0000
G00 Z0.5000
G00 Z-3.5000
G01 Z-6.0000
G00 Z9.0000


;No. 133: Drill 36
G00 X134.0000 Y518.0000 Z9.0000
G00 Z0.5000
G01 Z-2.0000 F120
G00 Z0.5000
G00 Z-1.5000
G01 Z-4.0000
G00 Z0.5000
G00 Z-3.5000
G01 Z-6.0000
G00 Z9.0000


;No. 134: Drill 60
G00 X86.0000 Y470.0000 Z9.0000
G00 Z0.5000
G01 Z-2.0000 F120
G00 Z0.5000
G00 Z-1.5000
G01 Z-4.0000
G00 Z0.5000
G00 Z-3.5000
G01 Z-6.0000
G00 Z9.0000


;No. 135: Drill 29
G00 X38.0000 Y422.0000 Z9.0000
G00 Z0.5000
G01 Z-2.0000 F120
G00 Z0.5000
G00 Z-1.5000
G01 Z-4.0000
G00 Z0.5000
G00 Z-3.5000
G01 Z-6.0000
G00 Z9.0000


;No. 136: Drill 35
G00 X38.0000 Y518.0000 Z9.0000
G00 Z0.5000
G01 Z-2.0000 F120
G00 Z0.5000
G00 Z-1.5000
G01 Z-4.0000
G00 Z0.5000
G00 Z-3.5000
G01 Z-6.0000
G00 Z9.0000


;No. 137: Drill 67
G00 X10.0000 Y546.0000 Z9.0000
G00 Z0.5000
G01 Z-2.0000 F120
G00 Z0.5000
G00 Z-1.5000
G01 Z-4.0000
G00 Z0.5000
G00 Z-3.5000
G01 Z-6.0000
G00 Z9.0000


;No. 138: Drill 11
G00 X38.0000 Y134.0000 Z9.0000
G00 Z0.5000
G01 Z-2.0000 F120
G00 Z0.5000
G00 Z-1.5000
G01 Z-4.0000
G00 Z0.5000
G00 Z-3.5000
G01 Z-6.0000
G00 Z9.0000
G00 X0.0000 Y0.0000

M05
