;Project MFTF2xNNtmpl
;Created by Estlcam version 12 build 12.068
;Machining time about 00:02:16 hours

G90
M03 S10000
G00 Z9.0000


;No. 1: Part 1
G00 X18.2749 Y-2.9479 Z9.0000
G00 Z0.5000
G01 Z0.0000 F120 S10000
G01 X18.2637 Y-3.0612 Z-0.1139
G01 X18.2600 Y-3.1750 Z-0.2277
G01 Y-4.9473 Z-2.0000
G01 Y-16.8250 F1500
G03 X20.0000 Y-18.5650 I1.7400 J0.0000
G01 X220.0000
G03 X221.7400 Y-16.8250 I0.0000 J1.7400
G01 Y-3.1750
G03 X220.0000 Y-1.4350 I-1.7400 J0.0000
G01 X20.0000
G03 X18.2749 Y-2.9479 I0.0000 J-1.7400
G01 X18.2637 Y-3.0612 Z-2.1139 F120
G01 X18.2600 Y-3.1750 Z-2.2277
G01 Y-4.9473 Z-4.0000
G01 Y-16.8250 F1500
G03 X20.0000 Y-18.5650 I1.7400 J0.0000
G01 X220.0000
G03 X221.7400 Y-16.8250 I0.0000 J1.7400
G01 Y-3.1750
G03 X220.0000 Y-1.4350 I-1.7400 J0.0000
G01 X20.0000
G03 X18.2749 Y-2.9479 I0.0000 J-1.7400
G01 X18.2637 Y-3.0612 Z-4.1139 F120
G01 X18.2600 Y-3.1750 Z-4.2277
G01 Y-4.9473 Z-6.0000
G01 Y-16.8250 F1500
G03 X20.0000 Y-18.5650 I1.7400 J0.0000
G01 X220.0000
G03 X221.7400 Y-16.8250 I0.0000 J1.7400
G01 Y-3.1750
G03 X220.0000 Y-1.4350 I-1.7400 J0.0000
G01 X20.0000
G03 X18.2749 Y-2.9479 I0.0000 J-1.7400
G01 X18.2637 Y-3.0612
G01 X18.2600 Y-3.1750
G01 Y-4.9473
G00 X18.2600 Y-4.9473 Z-2.0000
G01 X18.4100 F1500
G01 Y-16.8250
G03 X20.0000 Y-18.4150 I1.5900 J0.0000
G01 X220.0000
G03 X221.5900 Y-16.8250 I0.0000 J1.5900
G01 Y-3.1750
G03 X220.0000 Y-1.5850 I-1.5900 J0.0000
G01 X20.0000
G03 X18.4100 Y-3.1750 I0.0000 J-1.5900
G01 Y-4.9473
G01 Y-6.9473 Z-4.0000 F120
G01 Y-16.8250 F1500
G03 X20.0000 Y-18.4150 I1.5900 J0.0000
G01 X220.0000
G03 X221.5900 Y-16.8250 I0.0000 J1.5900
G01 Y-3.1750
G03 X220.0000 Y-1.5850 I-1.5900 J0.0000
G01 X20.0000
G03 X18.4100 Y-3.1750 I0.0000 J-1.5900
G01 Y-4.9473
G01 Y-6.9473 Z-6.0000 F120
G01 Y-16.8250 F1500
G03 X20.0000 Y-18.4150 I1.5900 J0.0000
G01 X220.0000
G03 X221.5900 Y-16.8250 I0.0000 J1.5900
G01 Y-3.1750
G03 X220.0000 Y-1.5850 I-1.5900 J0.0000
G01 X20.0000
G03 X18.4100 Y-3.1750 I0.0000 J-1.5900
G01 Y-4.9473
G01 Y-6.9473
G00 Z9.0000
G00 X0.0000 Y0.0000

M05
