;Project MFTF2xNNtmpl
;Created by Estlcam version 12 build 12.068
;Machining time about 00:01:14 hours

G90
M03 S10000
G00 Z9.0000


;No. 1: Part 1
G00 X18.4236 Y-2.9675 Z9.0000
G00 Z0.5000
G01 Z0.0000 F120 S10000
G01 X18.4134 Y-3.0710 Z-0.1040
G01 X18.4100 Y-3.1750 Z-0.2081
G01 Y-4.9669 Z-2.0000
G01 Y-16.8250 F1500
G03 X20.0000 Y-18.4150 I1.5900 J0.0000
G01 X220.0000
G03 X221.5900 Y-16.8250 I0.0000 J1.5900
G01 Y-3.1750
G03 X220.0000 Y-1.5850 I-1.5900 J0.0000
G01 X20.0000
G03 X18.4236 Y-2.9675 I0.0000 J-1.5900
G01 X18.4134 Y-3.0710 Z-2.1040 F120
G01 X18.4100 Y-3.1750 Z-2.2081
G01 Y-4.9669 Z-4.0000
G01 Y-16.8250 F1500
G03 X20.0000 Y-18.4150 I1.5900 J0.0000
G01 X220.0000
G03 X221.5900 Y-16.8250 I0.0000 J1.5900
G01 Y-3.1750
G03 X220.0000 Y-1.5850 I-1.5900 J0.0000
G01 X20.0000
G03 X18.4236 Y-2.9675 I0.0000 J-1.5900
G01 X18.4134 Y-3.0710 Z-4.1040 F120
G01 X18.4100 Y-3.1750 Z-4.2081
G01 Y-4.9669 Z-6.0000
G01 Y-16.8250 F1500
G03 X20.0000 Y-18.4150 I1.5900 J0.0000
G01 X220.0000
G03 X221.5900 Y-16.8250 I0.0000 J1.5900
G01 Y-3.1750
G03 X220.0000 Y-1.5850 I-1.5900 J0.0000
G01 X20.0000
G03 X18.4236 Y-2.9675 I0.0000 J-1.5900
G01 X18.4134 Y-3.0710
G01 X18.4100 Y-3.1750
G01 Y-4.9669
G00 Z9.0000
G00 X0.0000 Y0.0000

M05
