;Project MftfreeMnt2x
;Created by Estlcam version 12 build 12.068
;Machining time about 00:22:42 hours

G90
M03 S10000
G00 Z9.0000


;No. 1: Helical drill 1
G00 X50.9100 Y10.0000 Z9.0000
G00 Z0.5000
G02 X49.5450 Y9.2119 Z-0.1667 I-0.9100 J0.0000 F120 S10000
G02 Y10.7881 Z-0.8333 I0.4550 J0.7881
G02 X50.9100 Y10.0000 Z-1.5000 I0.4550 J-0.7881
G02 X49.5450 Y9.2119 Z-2.1667 I-0.9100 J0.0000
G02 Y10.7881 Z-2.8333 I0.4550 J0.7881
G02 X50.9100 Y10.0000 Z-3.5000 I0.4550 J-0.7881
G02 X49.5450 Y9.2119 Z-4.1667 I-0.9100 J0.0000
G02 Y10.7881 Z-4.8333 I0.4550 J0.7881
G02 X50.9100 Y10.0000 Z-5.5000 I0.4550 J-0.7881
G02 X50.0000 Y9.0900 Z-6.0000 I-0.9100 J0.0000
G02 X49.2119 Y10.4550 I0.0000 J0.9100
G02 X50.7881 I0.7881 J-0.4550
G02 X50.0000 Y9.0900 I-0.7881 J-0.4550
G02 X49.5450 Y9.5450 Z-5.8863 I0.0000 J0.4550 F1500
G00 Z9.0000


;No. 2: Helical drill 2
G00 X10.9100 Y50.0000 Z9.0000
G00 Z0.5000
G02 X9.5450 Y49.2119 Z-0.1667 I-0.9100 J0.0000 F120
G02 Y50.7881 Z-0.8333 I0.4550 J0.7881
G02 X10.9100 Y50.0000 Z-1.5000 I0.4550 J-0.7881
G02 X9.5450 Y49.2119 Z-2.1667 I-0.9100 J0.0000
G02 Y50.7881 Z-2.8333 I0.4550 J0.7881
G02 X10.9100 Y50.0000 Z-3.5000 I0.4550 J-0.7881
G02 X9.5450 Y49.2119 Z-4.1667 I-0.9100 J0.0000
G02 Y50.7881 Z-4.8333 I0.4550 J0.7881
G02 X10.9100 Y50.0000 Z-5.5000 I0.4550 J-0.7881
G02 X10.0000 Y49.0900 Z-6.0000 I-0.9100 J0.0000
G02 X9.2119 Y50.4550 I0.0000 J0.9100
G02 X10.7881 I0.7881 J-0.4550
G02 X10.0000 Y49.0900 I-0.7881 J-0.4550
G02 X9.5450 Y49.5450 Z-5.8863 I0.0000 J0.4550 F1500
G00 Z9.0000


;No. 3: Helical drill 15
G00 X10.9100 Y141.2000 Z9.0000
G00 Z0.5000
G02 X9.5450 Y140.4119 Z-0.1667 I-0.9100 J0.0000 F120
G02 Y141.9881 Z-0.8333 I0.4550 J0.7881
G02 X10.9100 Y141.2000 Z-1.5000 I0.4550 J-0.7881
G02 X9.5450 Y140.4119 Z-2.1667 I-0.9100 J0.0000
G02 Y141.9881 Z-2.8333 I0.4550 J0.7881
G02 X10.9100 Y141.2000 Z-3.5000 I0.4550 J-0.7881
G02 X9.5450 Y140.4119 Z-4.1667 I-0.9100 J0.0000
G02 Y141.9881 Z-4.8333 I0.4550 J0.7881
G02 X10.9100 Y141.2000 Z-5.5000 I0.4550 J-0.7881
G02 X10.0000 Y140.2900 Z-6.0000 I-0.9100 J0.0000
G02 X9.2119 Y141.6550 I0.0000 J0.9100
G02 X10.7881 I0.7881 J-0.4550
G02 X10.0000 Y140.2900 I-0.7881 J-0.4550
G02 X9.5450 Y140.7450 Z-5.8862 I0.0000 J0.4550 F1500
G00 Z9.0000


;No. 4: Helical drill 17
G00 X10.9100 Y232.4000 Z9.0000
G00 Z0.5000
G02 X9.5450 Y231.6119 Z-0.1667 I-0.9100 J0.0000 F120
G02 Y233.1881 Z-0.8333 I0.4550 J0.7881
G02 X10.9100 Y232.4000 Z-1.5000 I0.4550 J-0.7881
G02 X9.5450 Y231.6119 Z-2.1667 I-0.9100 J0.0000
G02 Y233.1881 Z-2.8333 I0.4550 J0.7881
G02 X10.9100 Y232.4000 Z-3.5000 I0.4550 J-0.7881
G02 X9.5450 Y231.6119 Z-4.1667 I-0.9100 J0.0000
G02 Y233.1881 Z-4.8333 I0.4550 J0.7881
G02 X10.9100 Y232.4000 Z-5.5000 I0.4550 J-0.7881
G02 X10.0000 Y231.4900 Z-6.0000 I-0.9100 J0.0000
G02 X9.2119 Y232.8550 I0.0000 J0.9100
G02 X10.7881 I0.7881 J-0.4550
G02 X10.0000 Y231.4900 I-0.7881 J-0.4550
G02 X9.5450 Y231.9450 Z-5.8863 I0.0000 J0.4550 F1500
G00 Z9.0000


;No. 5: Helical drill 19
G00 X10.9100 Y323.6000 Z9.0000
G00 Z0.5000
G02 X9.5450 Y322.8119 Z-0.1667 I-0.9100 J0.0000 F120
G02 Y324.3881 Z-0.8333 I0.4550 J0.7881
G02 X10.9100 Y323.6000 Z-1.5000 I0.4550 J-0.7881
G02 X9.5450 Y322.8119 Z-2.1667 I-0.9100 J0.0000
G02 Y324.3881 Z-2.8333 I0.4550 J0.7881
G02 X10.9100 Y323.6000 Z-3.5000 I0.4550 J-0.7881
G02 X9.5450 Y322.8119 Z-4.1667 I-0.9100 J0.0000
G02 Y324.3881 Z-4.8333 I0.4550 J0.7881
G02 X10.9100 Y323.6000 Z-5.5000 I0.4550 J-0.7881
G02 X10.0000 Y322.6900 Z-6.0000 I-0.9100 J0.0000
G02 X9.2119 Y324.0550 I0.0000 J0.9100
G02 X10.7881 I0.7881 J-0.4550
G02 X10.0000 Y322.6900 I-0.7881 J-0.4550
G02 X9.5450 Y323.1450 Z-5.8863 I0.0000 J0.4550 F1500
G00 Z9.0000


;No. 6: Helical drill 21
G00 X10.9100 Y414.8000 Z9.0000
G00 Z0.5000
G02 X9.5450 Y414.0119 Z-0.1667 I-0.9100 J0.0000 F120
G02 Y415.5881 Z-0.8333 I0.4550 J0.7881
G02 X10.9100 Y414.8000 Z-1.5000 I0.4550 J-0.7881
G02 X9.5450 Y414.0119 Z-2.1667 I-0.9100 J0.0000
G02 Y415.5881 Z-2.8333 I0.4550 J0.7881
G02 X10.9100 Y414.8000 Z-3.5000 I0.4550 J-0.7881
G02 X9.5450 Y414.0119 Z-4.1667 I-0.9100 J0.0000
G02 Y415.5881 Z-4.8333 I0.4550 J0.7881
G02 X10.9100 Y414.8000 Z-5.5000 I0.4550 J-0.7881
G02 X10.0000 Y413.8900 Z-6.0000 I-0.9100 J0.0000
G02 X9.2119 Y415.2550 I0.0000 J0.9100
G02 X10.7881 I0.7881 J-0.4550
G02 X10.0000 Y413.8900 I-0.7881 J-0.4550
G02 X9.5450 Y414.3450 Z-5.8862 I0.0000 J0.4550 F1500
G00 Z9.0000


;No. 7: Helical drill 23
G00 X10.9100 Y506.0000 Z9.0000
G00 Z0.5000
G02 X9.5450 Y505.2119 Z-0.1667 I-0.9100 J0.0000 F120
G02 Y506.7881 Z-0.8333 I0.4550 J0.7881
G02 X10.9100 Y506.0000 Z-1.5000 I0.4550 J-0.7881
G02 X9.5450 Y505.2119 Z-2.1667 I-0.9100 J0.0000
G02 Y506.7881 Z-2.8333 I0.4550 J0.7881
G02 X10.9100 Y506.0000 Z-3.5000 I0.4550 J-0.7881
G02 X9.5450 Y505.2119 Z-4.1667 I-0.9100 J0.0000
G02 Y506.7881 Z-4.8333 I0.4550 J0.7881
G02 X10.9100 Y506.0000 Z-5.5000 I0.4550 J-0.7881
G02 X10.0000 Y505.0900 Z-6.0000 I-0.9100 J0.0000
G02 X9.2119 Y506.4550 I0.0000 J0.9100
G02 X10.7881 I0.7881 J-0.4550
G02 X10.0000 Y505.0900 I-0.7881 J-0.4550
G02 X9.5450 Y505.5450 Z-5.8863 I0.0000 J0.4550 F1500
G00 Z9.0000


;No. 8: Helical drill 8
G00 X50.9100 Y546.0000 Z9.0000
G00 Z0.5000
G02 X49.5450 Y545.2119 Z-0.1667 I-0.9100 J0.0000 F120
G02 Y546.7881 Z-0.8333 I0.4550 J0.7881
G02 X50.9100 Y546.0000 Z-1.5000 I0.4550 J-0.7881
G02 X49.5450 Y545.2119 Z-2.1667 I-0.9100 J0.0000
G02 Y546.7881 Z-2.8333 I0.4550 J0.7881
G02 X50.9100 Y546.0000 Z-3.5000 I0.4550 J-0.7881
G02 X49.5450 Y545.2119 Z-4.1667 I-0.9100 J0.0000
G02 Y546.7881 Z-4.8333 I0.4550 J0.7881
G02 X50.9100 Y546.0000 Z-5.5000 I0.4550 J-0.7881
G02 X50.0000 Y545.0900 Z-6.0000 I-0.9100 J0.0000
G02 X49.2119 Y546.4550 I0.0000 J0.9100
G02 X50.7881 I0.7881 J-0.4550
G02 X50.0000 Y545.0900 I-0.7881 J-0.4550
G02 X49.5450 Y545.5450 Z-5.8862 I0.0000 J0.4550 F1500
G00 Z9.0000


;No. 9: Helical drill 9
G00 X142.1100 Y546.0000 Z9.0000
G00 Z0.5000
G02 X140.7450 Y545.2119 Z-0.1667 I-0.9100 J0.0000 F120
G02 Y546.7881 Z-0.8333 I0.4550 J0.7881
G02 X142.1100 Y546.0000 Z-1.5000 I0.4550 J-0.7881
G02 X140.7450 Y545.2119 Z-2.1667 I-0.9100 J0.0000
G02 Y546.7881 Z-2.8333 I0.4550 J0.7881
G02 X142.1100 Y546.0000 Z-3.5000 I0.4550 J-0.7881
G02 X140.7450 Y545.2119 Z-4.1667 I-0.9100 J0.0000
G02 Y546.7881 Z-4.8333 I0.4550 J0.7881
G02 X142.1100 Y546.0000 Z-5.5000 I0.4550 J-0.7881
G02 X141.2000 Y545.0900 Z-6.0000 I-0.9100 J0.0000
G02 X140.4119 Y546.4550 I0.0000 J0.9100
G02 X141.9881 I0.7881 J-0.4550
G02 X141.2000 Y545.0900 I-0.7881 J-0.4550
G02 X140.7450 Y545.5450 Z-5.8862 I0.0000 J0.4550 F1500
G00 Z9.0000


;No. 10: Helical drill 10
G00 X233.3100 Y546.0000 Z9.0000
G00 Z0.5000
G02 X231.9450 Y545.2119 Z-0.1667 I-0.9100 J0.0000 F120
G02 Y546.7881 Z-0.8333 I0.4550 J0.7881
G02 X233.3100 Y546.0000 Z-1.5000 I0.4550 J-0.7881
G02 X231.9450 Y545.2119 Z-2.1667 I-0.9100 J0.0000
G02 Y546.7881 Z-2.8333 I0.4550 J0.7881
G02 X233.3100 Y546.0000 Z-3.5000 I0.4550 J-0.7881
G02 X231.9450 Y545.2119 Z-4.1667 I-0.9100 J0.0000
G02 Y546.7881 Z-4.8333 I0.4550 J0.7881
G02 X233.3100 Y546.0000 Z-5.5000 I0.4550 J-0.7881
G02 X232.4000 Y545.0900 Z-6.0000 I-0.9100 J0.0000
G02 X231.6119 Y546.4550 I0.0000 J0.9100
G02 X233.1881 I0.7881 J-0.4550
G02 X232.4000 Y545.0900 I-0.7881 J-0.4550
G02 X231.9450 Y545.5450 Z-5.8863 I0.0000 J0.4550 F1500
G00 Z9.0000


;No. 11: Helical drill 39
G00 X230.9100 Y506.0000 Z9.0000
G00 Z0.5000
G02 X229.5450 Y505.2119 Z-0.1667 I-0.9100 J0.0000 F120
G02 Y506.7881 Z-0.8333 I0.4550 J0.7881
G02 X230.9100 Y506.0000 Z-1.5000 I0.4550 J-0.7881
G02 X229.5450 Y505.2119 Z-2.1667 I-0.9100 J0.0000
G02 Y506.7881 Z-2.8333 I0.4550 J0.7881
G02 X230.9100 Y506.0000 Z-3.5000 I0.4550 J-0.7881
G02 X229.5450 Y505.2119 Z-4.1667 I-0.9100 J0.0000
G02 Y506.7881 Z-4.8333 I0.4550 J0.7881
G02 X230.9100 Y506.0000 Z-5.5000 I0.4550 J-0.7881
G02 X230.0000 Y505.0900 Z-6.0000 I-0.9100 J0.0000
G02 X229.2119 Y506.4550 I0.0000 J0.9100
G02 X230.7881 I0.7881 J-0.4550
G02 X230.0000 Y505.0900 I-0.7881 J-0.4550
G02 X229.5450 Y505.5450 Z-5.8862 I0.0000 J0.4550 F1500
G00 Z9.0000


;No. 12: Helical drill 37
G00 X230.9100 Y440.8571 Z9.0000
G00 Z0.5000
G02 X229.5450 Y440.0691 Z-0.1667 I-0.9100 J0.0000 F120
G02 Y441.6452 Z-0.8333 I0.4550 J0.7881
G02 X230.9100 Y440.8571 Z-1.5000 I0.4550 J-0.7881
G02 X229.5450 Y440.0691 Z-2.1667 I-0.9100 J0.0000
G02 Y441.6452 Z-2.8333 I0.4550 J0.7881
G02 X230.9100 Y440.8571 Z-3.5000 I0.4550 J-0.7881
G02 X229.5450 Y440.0691 Z-4.1667 I-0.9100 J0.0000
G02 Y441.6452 Z-4.8333 I0.4550 J0.7881
G02 X230.9100 Y440.8571 Z-5.5000 I0.4550 J-0.7881
G02 X230.0000 Y439.9471 Z-6.0000 I-0.9100 J0.0000
G02 X229.2119 Y441.3121 I0.0000 J0.9100
G02 X230.7881 I0.7881 J-0.4550
G02 X230.0000 Y439.9471 I-0.7881 J-0.4550
G02 X229.5450 Y440.4021 Z-5.8862 I0.0000 J0.4550 F1500
G00 Z9.0000


;No. 13: Helical drill 35
G00 X230.9100 Y375.7143 Z9.0000
G00 Z0.5000
G02 X229.5450 Y374.9262 Z-0.1667 I-0.9100 J0.0000 F120
G02 Y376.5024 Z-0.8333 I0.4550 J0.7881
G02 X230.9100 Y375.7143 Z-1.5000 I0.4550 J-0.7881
G02 X229.5450 Y374.9262 Z-2.1667 I-0.9100 J0.0000
G02 Y376.5024 Z-2.8333 I0.4550 J0.7881
G02 X230.9100 Y375.7143 Z-3.5000 I0.4550 J-0.7881
G02 X229.5450 Y374.9262 Z-4.1667 I-0.9100 J0.0000
G02 Y376.5024 Z-4.8333 I0.4550 J0.7881
G02 X230.9100 Y375.7143 Z-5.5000 I0.4550 J-0.7881
G02 X230.0000 Y374.8043 Z-6.0000 I-0.9100 J0.0000
G02 X229.2119 Y376.1693 I0.0000 J0.9100
G02 X230.7881 I0.7881 J-0.4550
G02 X230.0000 Y374.8043 I-0.7881 J-0.4550
G02 X229.5450 Y375.2593 Z-5.8863 I0.0000 J0.4550 F1500
G00 Z9.0000


;No. 14: Helical drill 33
G00 X230.9100 Y310.5714 Z9.0000
G00 Z0.5000
G02 X229.5450 Y309.7833 Z-0.1667 I-0.9100 J0.0000 F120
G02 Y311.3595 Z-0.8333 I0.4550 J0.7881
G02 X230.9100 Y310.5714 Z-1.5000 I0.4550 J-0.7881
G02 X229.5450 Y309.7833 Z-2.1667 I-0.9100 J0.0000
G02 Y311.3595 Z-2.8333 I0.4550 J0.7881
G02 X230.9100 Y310.5714 Z-3.5000 I0.4550 J-0.7881
G02 X229.5450 Y309.7833 Z-4.1667 I-0.9100 J0.0000
G02 Y311.3595 Z-4.8333 I0.4550 J0.7881
G02 X230.9100 Y310.5714 Z-5.5000 I0.4550 J-0.7881
G02 X230.0000 Y309.6614 Z-6.0000 I-0.9100 J0.0000
G02 X229.2119 Y311.0264 I0.0000 J0.9100
G02 X230.7881 I0.7881 J-0.4550
G02 X230.0000 Y309.6614 I-0.7881 J-0.4550
G02 X229.5450 Y310.1164 Z-5.8863 I0.0000 J0.4550 F1500
G00 Z9.0000


;No. 15: Helical drill 31
G00 X230.9100 Y245.4286 Z9.0000
G00 Z0.5000
G02 X229.5450 Y244.6405 Z-0.1667 I-0.9100 J0.0000 F120
G02 Y246.2167 Z-0.8333 I0.4550 J0.7881
G02 X230.9100 Y245.4286 Z-1.5000 I0.4550 J-0.7881
G02 X229.5450 Y244.6405 Z-2.1667 I-0.9100 J0.0000
G02 Y246.2167 Z-2.8333 I0.4550 J0.7881
G02 X230.9100 Y245.4286 Z-3.5000 I0.4550 J-0.7881
G02 X229.5450 Y244.6405 Z-4.1667 I-0.9100 J0.0000
G02 Y246.2167 Z-4.8333 I0.4550 J0.7881
G02 X230.9100 Y245.4286 Z-5.5000 I0.4550 J-0.7881
G02 X230.0000 Y244.5186 Z-6.0000 I-0.9100 J0.0000
G02 X229.2119 Y245.8836 I0.0000 J0.9100
G02 X230.7881 I0.7881 J-0.4550
G02 X230.0000 Y244.5186 I-0.7881 J-0.4550
G02 X229.5450 Y244.9736 Z-5.8862 I0.0000 J0.4550 F1500
G00 Z9.0000


;No. 16: Helical drill 29
G00 X230.9100 Y180.2857 Z9.0000
G00 Z0.5000
G02 X229.5450 Y179.4976 Z-0.1667 I-0.9100 J0.0000 F120
G02 Y181.0738 Z-0.8333 I0.4550 J0.7881
G02 X230.9100 Y180.2857 Z-1.5000 I0.4550 J-0.7881
G02 X229.5450 Y179.4976 Z-2.1667 I-0.9100 J0.0000
G02 Y181.0738 Z-2.8333 I0.4550 J0.7881
G02 X230.9100 Y180.2857 Z-3.5000 I0.4550 J-0.7881
G02 X229.5450 Y179.4976 Z-4.1667 I-0.9100 J0.0000
G02 Y181.0738 Z-4.8333 I0.4550 J0.7881
G02 X230.9100 Y180.2857 Z-5.5000 I0.4550 J-0.7881
G02 X230.0000 Y179.3757 Z-6.0000 I-0.9100 J0.0000
G02 X229.2119 Y180.7407 I0.0000 J0.9100
G02 X230.7881 I0.7881 J-0.4550
G02 X230.0000 Y179.3757 I-0.7881 J-0.4550
G02 X229.5450 Y179.8307 Z-5.8863 I0.0000 J0.4550 F1500
G00 Z9.0000


;No. 17: Helical drill 27
G00 X230.9100 Y115.1429 Z9.0000
G00 Z0.5000
G02 X229.5450 Y114.3548 Z-0.1667 I-0.9100 J0.0000 F120
G02 Y115.9309 Z-0.8333 I0.4550 J0.7881
G02 X230.9100 Y115.1429 Z-1.5000 I0.4550 J-0.7881
G02 X229.5450 Y114.3548 Z-2.1667 I-0.9100 J0.0000
G02 Y115.9309 Z-2.8333 I0.4550 J0.7881
G02 X230.9100 Y115.1429 Z-3.5000 I0.4550 J-0.7881
G02 X229.5450 Y114.3548 Z-4.1667 I-0.9100 J0.0000
G02 Y115.9309 Z-4.8333 I0.4550 J0.7881
G02 X230.9100 Y115.1429 Z-5.5000 I0.4550 J-0.7881
G02 X230.0000 Y114.2329 Z-6.0000 I-0.9100 J0.0000
G02 X229.2119 Y115.5979 I0.0000 J0.9100
G02 X230.7881 I0.7881 J-0.4550
G02 X230.0000 Y114.2329 I-0.7881 J-0.4550
G02 X229.5450 Y114.6879 Z-5.8863 I0.0000 J0.4550 F1500
G00 Z9.0000


;No. 18: Helical drill 25
G00 X230.9100 Y50.0000 Z9.0000
G00 Z0.5000
G02 X229.5450 Y49.2119 Z-0.1667 I-0.9100 J0.0000 F120
G02 Y50.7881 Z-0.8333 I0.4550 J0.7881
G02 X230.9100 Y50.0000 Z-1.5000 I0.4550 J-0.7881
G02 X229.5450 Y49.2119 Z-2.1667 I-0.9100 J0.0000
G02 Y50.7881 Z-2.8333 I0.4550 J0.7881
G02 X230.9100 Y50.0000 Z-3.5000 I0.4550 J-0.7881
G02 X229.5450 Y49.2119 Z-4.1667 I-0.9100 J0.0000
G02 Y50.7881 Z-4.8333 I0.4550 J0.7881
G02 X230.9100 Y50.0000 Z-5.5000 I0.4550 J-0.7881
G02 X230.0000 Y49.0900 Z-6.0000 I-0.9100 J0.0000
G02 X229.2119 Y50.4550 I0.0000 J0.9100
G02 X230.7881 I0.7881 J-0.4550
G02 X230.0000 Y49.0900 I-0.7881 J-0.4550
G02 X229.5450 Y49.5450 Z-5.8863 I0.0000 J0.4550 F1500
G00 Z9.0000


;No. 19: Helical drill 4
G00 X233.3100 Y10.0000 Z9.0000
G00 Z0.5000
G02 X231.9450 Y9.2119 Z-0.1667 I-0.9100 J0.0000 F120
G02 Y10.7881 Z-0.8333 I0.4550 J0.7881
G02 X233.3100 Y10.0000 Z-1.5000 I0.4550 J-0.7881
G02 X231.9450 Y9.2119 Z-2.1667 I-0.9100 J0.0000
G02 Y10.7881 Z-2.8333 I0.4550 J0.7881
G02 X233.3100 Y10.0000 Z-3.5000 I0.4550 J-0.7881
G02 X231.9450 Y9.2119 Z-4.1667 I-0.9100 J0.0000
G02 Y10.7881 Z-4.8333 I0.4550 J0.7881
G02 X233.3100 Y10.0000 Z-5.5000 I0.4550 J-0.7881
G02 X232.4000 Y9.0900 Z-6.0000 I-0.9100 J0.0000
G02 X231.6119 Y10.4550 I0.0000 J0.9100
G02 X233.1881 I0.7881 J-0.4550
G02 X232.4000 Y9.0900 I-0.7881 J-0.4550
G02 X231.9450 Y9.5450 Z-5.8863 I0.0000 J0.4550 F1500
G00 Z9.0000


;No. 20: Helical drill 5
G00 X324.5100 Y10.0000 Z9.0000
G00 Z0.5000
G02 X323.1450 Y9.2119 Z-0.1667 I-0.9100 J0.0000 F120
G02 Y10.7881 Z-0.8333 I0.4550 J0.7881
G02 X324.5100 Y10.0000 Z-1.5000 I0.4550 J-0.7881
G02 X323.1450 Y9.2119 Z-2.1667 I-0.9100 J0.0000
G02 Y10.7881 Z-2.8333 I0.4550 J0.7881
G02 X324.5100 Y10.0000 Z-3.5000 I0.4550 J-0.7881
G02 X323.1450 Y9.2119 Z-4.1667 I-0.9100 J0.0000
G02 Y10.7881 Z-4.8333 I0.4550 J0.7881
G02 X324.5100 Y10.0000 Z-5.5000 I0.4550 J-0.7881
G02 X323.6000 Y9.0900 Z-6.0000 I-0.9100 J0.0000
G02 X322.8119 Y10.4550 I0.0000 J0.9100
G02 X324.3881 I0.7881 J-0.4550
G02 X323.6000 Y9.0900 I-0.7881 J-0.4550
G02 X323.1450 Y9.5450 Z-5.8862 I0.0000 J0.4550 F1500
G00 Z9.0000


;No. 21: Helical drill 26
G00 X326.9100 Y50.0000 Z9.0000
G00 Z0.5000
G02 X325.5450 Y49.2119 Z-0.1667 I-0.9100 J0.0000 F120
G02 Y50.7881 Z-0.8333 I0.4550 J0.7881
G02 X326.9100 Y50.0000 Z-1.5000 I0.4550 J-0.7881
G02 X325.5450 Y49.2119 Z-2.1667 I-0.9100 J0.0000
G02 Y50.7881 Z-2.8333 I0.4550 J0.7881
G02 X326.9100 Y50.0000 Z-3.5000 I0.4550 J-0.7881
G02 X325.5450 Y49.2119 Z-4.1667 I-0.9100 J0.0000
G02 Y50.7881 Z-4.8333 I0.4550 J0.7881
G02 X326.9100 Y50.0000 Z-5.5000 I0.4550 J-0.7881
G02 X326.0000 Y49.0900 Z-6.0000 I-0.9100 J0.0000
G02 X325.2119 Y50.4550 I0.0000 J0.9100
G02 X326.7881 I0.7881 J-0.4550
G02 X326.0000 Y49.0900 I-0.7881 J-0.4550
G02 X325.5450 Y49.5450 Z-5.8862 I0.0000 J0.4550 F1500
G00 Z9.0000


;No. 22: Helical drill 28
G00 X326.9100 Y115.1429 Z9.0000
G00 Z0.5000
G02 X325.5450 Y114.3548 Z-0.1667 I-0.9100 J0.0000 F120
G02 Y115.9309 Z-0.8333 I0.4550 J0.7881
G02 X326.9100 Y115.1429 Z-1.5000 I0.4550 J-0.7881
G02 X325.5450 Y114.3548 Z-2.1667 I-0.9100 J0.0000
G02 Y115.9309 Z-2.8333 I0.4550 J0.7881
G02 X326.9100 Y115.1429 Z-3.5000 I0.4550 J-0.7881
G02 X325.5450 Y114.3548 Z-4.1667 I-0.9100 J0.0000
G02 Y115.9309 Z-4.8333 I0.4550 J0.7881
G02 X326.9100 Y115.1429 Z-5.5000 I0.4550 J-0.7881
G02 X326.0000 Y114.2329 Z-6.0000 I-0.9100 J0.0000
G02 X325.2119 Y115.5979 I0.0000 J0.9100
G02 X326.7881 I0.7881 J-0.4550
G02 X326.0000 Y114.2329 I-0.7881 J-0.4550
G02 X325.5450 Y114.6879 Z-5.8863 I0.0000 J0.4550 F1500
G00 Z9.0000


;No. 23: Helical drill 30
G00 X326.9100 Y180.2857 Z9.0000
G00 Z0.5000
G02 X325.5450 Y179.4976 Z-0.1667 I-0.9100 J0.0000 F120
G02 Y181.0738 Z-0.8333 I0.4550 J0.7881
G02 X326.9100 Y180.2857 Z-1.5000 I0.4550 J-0.7881
G02 X325.5450 Y179.4976 Z-2.1667 I-0.9100 J0.0000
G02 Y181.0738 Z-2.8333 I0.4550 J0.7881
G02 X326.9100 Y180.2857 Z-3.5000 I0.4550 J-0.7881
G02 X325.5450 Y179.4976 Z-4.1667 I-0.9100 J0.0000
G02 Y181.0738 Z-4.8333 I0.4550 J0.7881
G02 X326.9100 Y180.2857 Z-5.5000 I0.4550 J-0.7881
G02 X326.0000 Y179.3757 Z-6.0000 I-0.9100 J0.0000
G02 X325.2119 Y180.7407 I0.0000 J0.9100
G02 X326.7881 I0.7881 J-0.4550
G02 X326.0000 Y179.3757 I-0.7881 J-0.4550
G02 X325.5450 Y179.8307 Z-5.8862 I0.0000 J0.4550 F1500
G00 Z9.0000


;No. 24: Helical drill 32
G00 X326.9100 Y245.4286 Z9.0000
G00 Z0.5000
G02 X325.5450 Y244.6405 Z-0.1667 I-0.9100 J0.0000 F120
G02 Y246.2167 Z-0.8333 I0.4550 J0.7881
G02 X326.9100 Y245.4286 Z-1.5000 I0.4550 J-0.7881
G02 X325.5450 Y244.6405 Z-2.1667 I-0.9100 J0.0000
G02 Y246.2167 Z-2.8333 I0.4550 J0.7881
G02 X326.9100 Y245.4286 Z-3.5000 I0.4550 J-0.7881
G02 X325.5450 Y244.6405 Z-4.1667 I-0.9100 J0.0000
G02 Y246.2167 Z-4.8333 I0.4550 J0.7881
G02 X326.9100 Y245.4286 Z-5.5000 I0.4550 J-0.7881
G02 X326.0000 Y244.5186 Z-6.0000 I-0.9100 J0.0000
G02 X325.2119 Y245.8836 I0.0000 J0.9100
G02 X326.7881 I0.7881 J-0.4550
G02 X326.0000 Y244.5186 I-0.7881 J-0.4550
G02 X325.5450 Y244.9736 Z-5.8863 I0.0000 J0.4550 F1500
G00 Z9.0000


;No. 25: Helical drill 34
G00 X326.9100 Y310.5714 Z9.0000
G00 Z0.5000
G02 X325.5450 Y309.7833 Z-0.1667 I-0.9100 J0.0000 F120
G02 Y311.3595 Z-0.8333 I0.4550 J0.7881
G02 X326.9100 Y310.5714 Z-1.5000 I0.4550 J-0.7881
G02 X325.5450 Y309.7833 Z-2.1667 I-0.9100 J0.0000
G02 Y311.3595 Z-2.8333 I0.4550 J0.7881
G02 X326.9100 Y310.5714 Z-3.5000 I0.4550 J-0.7881
G02 X325.5450 Y309.7833 Z-4.1667 I-0.9100 J0.0000
G02 Y311.3595 Z-4.8333 I0.4550 J0.7881
G02 X326.9100 Y310.5714 Z-5.5000 I0.4550 J-0.7881
G02 X326.0000 Y309.6614 Z-6.0000 I-0.9100 J0.0000
G02 X325.2119 Y311.0264 I0.0000 J0.9100
G02 X326.7881 I0.7881 J-0.4550
G02 X326.0000 Y309.6614 I-0.7881 J-0.4550
G02 X325.5450 Y310.1164 Z-5.8862 I0.0000 J0.4550 F1500
G00 Z9.0000


;No. 26: Helical drill 36
G00 X326.9100 Y375.7143 Z9.0000
G00 Z0.5000
G02 X325.5450 Y374.9262 Z-0.1667 I-0.9100 J0.0000 F120
G02 Y376.5024 Z-0.8333 I0.4550 J0.7881
G02 X326.9100 Y375.7143 Z-1.5000 I0.4550 J-0.7881
G02 X325.5450 Y374.9262 Z-2.1667 I-0.9100 J0.0000
G02 Y376.5024 Z-2.8333 I0.4550 J0.7881
G02 X326.9100 Y375.7143 Z-3.5000 I0.4550 J-0.7881
G02 X325.5450 Y374.9262 Z-4.1667 I-0.9100 J0.0000
G02 Y376.5024 Z-4.8333 I0.4550 J0.7881
G02 X326.9100 Y375.7143 Z-5.5000 I0.4550 J-0.7881
G02 X326.0000 Y374.8043 Z-6.0000 I-0.9100 J0.0000
G02 X325.2119 Y376.1693 I0.0000 J0.9100
G02 X326.7881 I0.7881 J-0.4550
G02 X326.0000 Y374.8043 I-0.7881 J-0.4550
G02 X325.5450 Y375.2593 Z-5.8862 I0.0000 J0.4550 F1500
G00 Z9.0000


;No. 27: Helical drill 38
G00 X326.9100 Y440.8571 Z9.0000
G00 Z0.5000
G02 X325.5450 Y440.0691 Z-0.1667 I-0.9100 J0.0000 F120
G02 Y441.6452 Z-0.8333 I0.4550 J0.7881
G02 X326.9100 Y440.8571 Z-1.5000 I0.4550 J-0.7881
G02 X325.5450 Y440.0691 Z-2.1667 I-0.9100 J0.0000
G02 Y441.6452 Z-2.8333 I0.4550 J0.7881
G02 X326.9100 Y440.8571 Z-3.5000 I0.4550 J-0.7881
G02 X325.5450 Y440.0691 Z-4.1667 I-0.9100 J0.0000
G02 Y441.6452 Z-4.8333 I0.4550 J0.7881
G02 X326.9100 Y440.8571 Z-5.5000 I0.4550 J-0.7881
G02 X326.0000 Y439.9471 Z-6.0000 I-0.9100 J0.0000
G02 X325.2119 Y441.3121 I0.0000 J0.9100
G02 X326.7881 I0.7881 J-0.4550
G02 X326.0000 Y439.9471 I-0.7881 J-0.4550
G02 X325.5450 Y440.4021 Z-5.8863 I0.0000 J0.4550 F1500
G00 Z9.0000


;No. 28: Helical drill 40
G00 X326.9100 Y506.0000 Z9.0000
G00 Z0.5000
G02 X325.5450 Y505.2119 Z-0.1667 I-0.9100 J0.0000 F120
G02 Y506.7881 Z-0.8333 I0.4550 J0.7881
G02 X326.9100 Y506.0000 Z-1.5000 I0.4550 J-0.7881
G02 X325.5450 Y505.2119 Z-2.1667 I-0.9100 J0.0000
G02 Y506.7881 Z-2.8333 I0.4550 J0.7881
G02 X326.9100 Y506.0000 Z-3.5000 I0.4550 J-0.7881
G02 X325.5450 Y505.2119 Z-4.1667 I-0.9100 J0.0000
G02 Y506.7881 Z-4.8333 I0.4550 J0.7881
G02 X326.9100 Y506.0000 Z-5.5000 I0.4550 J-0.7881
G02 X326.0000 Y505.0900 Z-6.0000 I-0.9100 J0.0000
G02 X325.2119 Y506.4550 I0.0000 J0.9100
G02 X326.7881 I0.7881 J-0.4550
G02 X326.0000 Y505.0900 I-0.7881 J-0.4550
G02 X325.5450 Y505.5450 Z-5.8862 I0.0000 J0.4550 F1500
G00 Z9.0000


;No. 29: Helical drill 11
G00 X324.5100 Y546.0000 Z9.0000
G00 Z0.5000
G02 X323.1450 Y545.2119 Z-0.1667 I-0.9100 J0.0000 F120
G02 Y546.7881 Z-0.8333 I0.4550 J0.7881
G02 X324.5100 Y546.0000 Z-1.5000 I0.4550 J-0.7881
G02 X323.1450 Y545.2119 Z-2.1667 I-0.9100 J0.0000
G02 Y546.7881 Z-2.8333 I0.4550 J0.7881
G02 X324.5100 Y546.0000 Z-3.5000 I0.4550 J-0.7881
G02 X323.1450 Y545.2119 Z-4.1667 I-0.9100 J0.0000
G02 Y546.7881 Z-4.8333 I0.4550 J0.7881
G02 X324.5100 Y546.0000 Z-5.5000 I0.4550 J-0.7881
G02 X323.6000 Y545.0900 Z-6.0000 I-0.9100 J0.0000
G02 X322.8119 Y546.4550 I0.0000 J0.9100
G02 X324.3881 I0.7881 J-0.4550
G02 X323.6000 Y545.0900 I-0.7881 J-0.4550
G02 X323.1450 Y545.5450 Z-5.8863 I0.0000 J0.4550 F1500
G00 Z9.0000


;No. 30: Helical drill 12
G00 X415.7100 Y546.0000 Z9.0000
G00 Z0.5000
G02 X414.3450 Y545.2119 Z-0.1667 I-0.9100 J0.0000 F120
G02 Y546.7881 Z-0.8333 I0.4550 J0.7881
G02 X415.7100 Y546.0000 Z-1.5000 I0.4550 J-0.7881
G02 X414.3450 Y545.2119 Z-2.1667 I-0.9100 J0.0000
G02 Y546.7881 Z-2.8333 I0.4550 J0.7881
G02 X415.7100 Y546.0000 Z-3.5000 I0.4550 J-0.7881
G02 X414.3450 Y545.2119 Z-4.1667 I-0.9100 J0.0000
G02 Y546.7881 Z-4.8333 I0.4550 J0.7881
G02 X415.7100 Y546.0000 Z-5.5000 I0.4550 J-0.7881
G02 X414.8000 Y545.0900 Z-6.0000 I-0.9100 J0.0000
G02 X414.0119 Y546.4550 I0.0000 J0.9100
G02 X415.5881 I0.7881 J-0.4550
G02 X414.8000 Y545.0900 I-0.7881 J-0.4550
G02 X414.3450 Y545.5450 Z-5.8863 I0.0000 J0.4550 F1500
G00 Z9.0000


;No. 31: Helical drill 13
G00 X506.9100 Y546.0000 Z9.0000
G00 Z0.5000
G02 X505.5450 Y545.2119 Z-0.1667 I-0.9100 J0.0000 F120
G02 Y546.7881 Z-0.8333 I0.4550 J0.7881
G02 X506.9100 Y546.0000 Z-1.5000 I0.4550 J-0.7881
G02 X505.5450 Y545.2119 Z-2.1667 I-0.9100 J0.0000
G02 Y546.7881 Z-2.8333 I0.4550 J0.7881
G02 X506.9100 Y546.0000 Z-3.5000 I0.4550 J-0.7881
G02 X505.5450 Y545.2119 Z-4.1667 I-0.9100 J0.0000
G02 Y546.7881 Z-4.8333 I0.4550 J0.7881
G02 X506.9100 Y546.0000 Z-5.5000 I0.4550 J-0.7881
G02 X506.0000 Y545.0900 Z-6.0000 I-0.9100 J0.0000
G02 X505.2119 Y546.4550 I0.0000 J0.9100
G02 X506.7881 I0.7881 J-0.4550
G02 X506.0000 Y545.0900 I-0.7881 J-0.4550
G02 X505.5450 Y545.5450 Z-5.8863 I0.0000 J0.4550 F1500
G00 Z9.0000


;No. 32: Helical drill 24
G00 X546.9100 Y506.0000 Z9.0000
G00 Z0.5000
G02 X545.5450 Y505.2119 Z-0.1667 I-0.9100 J0.0000 F120
G02 Y506.7881 Z-0.8333 I0.4550 J0.7881
G02 X546.9100 Y506.0000 Z-1.5000 I0.4550 J-0.7881
G02 X545.5450 Y505.2119 Z-2.1667 I-0.9100 J0.0000
G02 Y506.7881 Z-2.8333 I0.4550 J0.7881
G02 X546.9100 Y506.0000 Z-3.5000 I0.4550 J-0.7881
G02 X545.5450 Y505.2119 Z-4.1667 I-0.9100 J0.0000
G02 Y506.7881 Z-4.8333 I0.4550 J0.7881
G02 X546.9100 Y506.0000 Z-5.5000 I0.4550 J-0.7881
G02 X546.0000 Y505.0900 Z-6.0000 I-0.9100 J0.0000
G02 X545.2119 Y506.4550 I0.0000 J0.9100
G02 X546.7881 I0.7881 J-0.4550
G02 X546.0000 Y505.0900 I-0.7881 J-0.4550
G02 X545.5450 Y505.5450 Z-5.8863 I0.0000 J0.4550 F1500
G00 Z9.0000


;No. 33: Helical drill 53
G00 X586.9100 Y506.0000 Z9.0000
G00 Z0.5000
G02 X585.5450 Y505.2119 Z-0.1667 I-0.9100 J0.0000 F120
G02 Y506.7881 Z-0.8333 I0.4550 J0.7881
G02 X586.9100 Y506.0000 Z-1.5000 I0.4550 J-0.7881
G02 X585.5450 Y505.2119 Z-2.1667 I-0.9100 J0.0000
G02 Y506.7881 Z-2.8333 I0.4550 J0.7881
G02 X586.9100 Y506.0000 Z-3.5000 I0.4550 J-0.7881
G02 X585.5450 Y505.2119 Z-4.1667 I-0.9100 J0.0000
G02 Y506.7881 Z-4.8333 I0.4550 J0.7881
G02 X586.9100 Y506.0000 Z-5.5000 I0.4550 J-0.7881
G02 X586.0000 Y505.0900 Z-6.0000 I-0.9100 J0.0000
G02 X585.2119 Y506.4550 I0.0000 J0.9100
G02 X586.7881 I0.7881 J-0.4550
G02 X586.0000 Y505.0900 I-0.7881 J-0.4550
G02 X585.5450 Y505.5450 Z-5.8862 I0.0000 J0.4550 F1500
G00 Z9.0000


;No. 34: Helical drill 45
G00 X626.9100 Y546.0000 Z9.0000
G00 Z0.5000
G02 X625.5450 Y545.2119 Z-0.1667 I-0.9100 J0.0000 F120
G02 Y546.7881 Z-0.8333 I0.4550 J0.7881
G02 X626.9100 Y546.0000 Z-1.5000 I0.4550 J-0.7881
G02 X625.5450 Y545.2119 Z-2.1667 I-0.9100 J0.0000
G02 Y546.7881 Z-2.8333 I0.4550 J0.7881
G02 X626.9100 Y546.0000 Z-3.5000 I0.4550 J-0.7881
G02 X625.5450 Y545.2119 Z-4.1667 I-0.9100 J0.0000
G02 Y546.7881 Z-4.8333 I0.4550 J0.7881
G02 X626.9100 Y546.0000 Z-5.5000 I0.4550 J-0.7881
G02 X626.0000 Y545.0900 Z-6.0000 I-0.9100 J0.0000
G02 X625.2119 Y546.4550 I0.0000 J0.9100
G02 X626.7881 I0.7881 J-0.4550
G02 X626.0000 Y545.0900 I-0.7881 J-0.4550
G02 X625.5450 Y545.5450 Z-5.8862 I0.0000 J0.4550 F1500
G00 Z9.0000


;No. 35: Helical drill 41
G00 X718.1100 Y546.0000 Z9.0000
G00 Z0.5000
G02 X716.7450 Y545.2119 Z-0.1667 I-0.9100 J0.0000 F120
G02 Y546.7881 Z-0.8333 I0.4550 J0.7881
G02 X718.1100 Y546.0000 Z-1.5000 I0.4550 J-0.7881
G02 X716.7450 Y545.2119 Z-2.1667 I-0.9100 J0.0000
G02 Y546.7881 Z-2.8333 I0.4550 J0.7881
G02 X718.1100 Y546.0000 Z-3.5000 I0.4550 J-0.7881
G02 X716.7450 Y545.2119 Z-4.1667 I-0.9100 J0.0000
G02 Y546.7881 Z-4.8333 I0.4550 J0.7881
G02 X718.1100 Y546.0000 Z-5.5000 I0.4550 J-0.7881
G02 X717.2000 Y545.0900 Z-6.0000 I-0.9100 J0.0000
G02 X716.4119 Y546.4550 I0.0000 J0.9100
G02 X717.9881 I0.7881 J-0.4550
G02 X717.2000 Y545.0900 I-0.7881 J-0.4550
G02 X716.7450 Y545.5450 Z-5.8862 I0.0000 J0.4550 F1500
G00 Z9.0000


;No. 36: Helical drill 46
G00 X809.3100 Y546.0000 Z9.0000
G00 Z0.5000
G02 X807.9450 Y545.2119 Z-0.1667 I-0.9100 J0.0000 F120
G02 Y546.7881 Z-0.8333 I0.4550 J0.7881
G02 X809.3100 Y546.0000 Z-1.5000 I0.4550 J-0.7881
G02 X807.9450 Y545.2119 Z-2.1667 I-0.9100 J0.0000
G02 Y546.7881 Z-2.8333 I0.4550 J0.7881
G02 X809.3100 Y546.0000 Z-3.5000 I0.4550 J-0.7881
G02 X807.9450 Y545.2119 Z-4.1667 I-0.9100 J0.0000
G02 Y546.7881 Z-4.8333 I0.4550 J0.7881
G02 X809.3100 Y546.0000 Z-5.5000 I0.4550 J-0.7881
G02 X808.4000 Y545.0900 Z-6.0000 I-0.9100 J0.0000
G02 X807.6119 Y546.4550 I0.0000 J0.9100
G02 X809.1881 I0.7881 J-0.4550
G02 X808.4000 Y545.0900 I-0.7881 J-0.4550
G02 X807.9450 Y545.5450 Z-5.8863 I0.0000 J0.4550 F1500
G00 Z9.0000


;No. 37: Helical drill 57
G00 X806.9100 Y506.0000 Z9.0000
G00 Z0.5000
G02 X805.5450 Y505.2119 Z-0.1667 I-0.9100 J0.0000 F120
G02 Y506.7881 Z-0.8333 I0.4550 J0.7881
G02 X806.9100 Y506.0000 Z-1.5000 I0.4550 J-0.7881
G02 X805.5450 Y505.2119 Z-2.1667 I-0.9100 J0.0000
G02 Y506.7881 Z-2.8333 I0.4550 J0.7881
G02 X806.9100 Y506.0000 Z-3.5000 I0.4550 J-0.7881
G02 X805.5450 Y505.2119 Z-4.1667 I-0.9100 J0.0000
G02 Y506.7881 Z-4.8333 I0.4550 J0.7881
G02 X806.9100 Y506.0000 Z-5.5000 I0.4550 J-0.7881
G02 X806.0000 Y505.0900 Z-6.0000 I-0.9100 J0.0000
G02 X805.2119 Y506.4550 I0.0000 J0.9100
G02 X806.7881 I0.7881 J-0.4550
G02 X806.0000 Y505.0900 I-0.7881 J-0.4550
G02 X805.5450 Y505.5450 Z-5.8862 I0.0000 J0.4550 F1500
G00 Z9.0000


;No. 38: Helical drill 58
G00 X806.9100 Y440.8571 Z9.0000
G00 Z0.5000
G02 X805.5450 Y440.0691 Z-0.1667 I-0.9100 J0.0000 F120
G02 Y441.6452 Z-0.8333 I0.4550 J0.7881
G02 X806.9100 Y440.8571 Z-1.5000 I0.4550 J-0.7881
G02 X805.5450 Y440.0691 Z-2.1667 I-0.9100 J0.0000
G02 Y441.6452 Z-2.8333 I0.4550 J0.7881
G02 X806.9100 Y440.8571 Z-3.5000 I0.4550 J-0.7881
G02 X805.5450 Y440.0691 Z-4.1667 I-0.9100 J0.0000
G02 Y441.6452 Z-4.8333 I0.4550 J0.7881
G02 X806.9100 Y440.8571 Z-5.5000 I0.4550 J-0.7881
G02 X806.0000 Y439.9471 Z-6.0000 I-0.9100 J0.0000
G02 X805.2119 Y441.3121 I0.0000 J0.9100
G02 X806.7881 I0.7881 J-0.4550
G02 X806.0000 Y439.9471 I-0.7881 J-0.4550
G02 X805.5450 Y440.4021 Z-5.8862 I0.0000 J0.4550 F1500
G00 Z9.0000


;No. 39: Helical drill 48
G00 X806.9100 Y375.7143 Z9.0000
G00 Z0.5000
G02 X805.5450 Y374.9262 Z-0.1667 I-0.9100 J0.0000 F120
G02 Y376.5024 Z-0.8333 I0.4550 J0.7881
G02 X806.9100 Y375.7143 Z-1.5000 I0.4550 J-0.7881
G02 X805.5450 Y374.9262 Z-2.1667 I-0.9100 J0.0000
G02 Y376.5024 Z-2.8333 I0.4550 J0.7881
G02 X806.9100 Y375.7143 Z-3.5000 I0.4550 J-0.7881
G02 X805.5450 Y374.9262 Z-4.1667 I-0.9100 J0.0000
G02 Y376.5024 Z-4.8333 I0.4550 J0.7881
G02 X806.9100 Y375.7143 Z-5.5000 I0.4550 J-0.7881
G02 X806.0000 Y374.8043 Z-6.0000 I-0.9100 J0.0000
G02 X805.2119 Y376.1693 I0.0000 J0.9100
G02 X806.7881 I0.7881 J-0.4550
G02 X806.0000 Y374.8043 I-0.7881 J-0.4550
G02 X805.5450 Y375.2593 Z-5.8863 I0.0000 J0.4550 F1500
G00 Z9.0000


;No. 40: Helical drill 80
G00 X806.9100 Y310.5714 Z9.0000
G00 Z0.5000
G02 X805.5450 Y309.7833 Z-0.1667 I-0.9100 J0.0000 F120
G02 Y311.3595 Z-0.8333 I0.4550 J0.7881
G02 X806.9100 Y310.5714 Z-1.5000 I0.4550 J-0.7881
G02 X805.5450 Y309.7833 Z-2.1667 I-0.9100 J0.0000
G02 Y311.3595 Z-2.8333 I0.4550 J0.7881
G02 X806.9100 Y310.5714 Z-3.5000 I0.4550 J-0.7881
G02 X805.5450 Y309.7833 Z-4.1667 I-0.9100 J0.0000
G02 Y311.3595 Z-4.8333 I0.4550 J0.7881
G02 X806.9100 Y310.5714 Z-5.5000 I0.4550 J-0.7881
G02 X806.0000 Y309.6614 Z-6.0000 I-0.9100 J0.0000
G02 X805.2119 Y311.0264 I0.0000 J0.9100
G02 X806.7881 I0.7881 J-0.4550
G02 X806.0000 Y309.6614 I-0.7881 J-0.4550
G02 X805.5450 Y310.1164 Z-5.8863 I0.0000 J0.4550 F1500
G00 Z9.0000


;No. 41: Helical drill 49
G00 X806.9100 Y245.4286 Z9.0000
G00 Z0.5000
G02 X805.5450 Y244.6405 Z-0.1667 I-0.9100 J0.0000 F120
G02 Y246.2167 Z-0.8333 I0.4550 J0.7881
G02 X806.9100 Y245.4286 Z-1.5000 I0.4550 J-0.7881
G02 X805.5450 Y244.6405 Z-2.1667 I-0.9100 J0.0000
G02 Y246.2167 Z-2.8333 I0.4550 J0.7881
G02 X806.9100 Y245.4286 Z-3.5000 I0.4550 J-0.7881
G02 X805.5450 Y244.6405 Z-4.1667 I-0.9100 J0.0000
G02 Y246.2167 Z-4.8333 I0.4550 J0.7881
G02 X806.9100 Y245.4286 Z-5.5000 I0.4550 J-0.7881
G02 X806.0000 Y244.5186 Z-6.0000 I-0.9100 J0.0000
G02 X805.2119 Y245.8836 I0.0000 J0.9100
G02 X806.7881 I0.7881 J-0.4550
G02 X806.0000 Y244.5186 I-0.7881 J-0.4550
G02 X805.5450 Y244.9736 Z-5.8862 I0.0000 J0.4550 F1500
G00 Z9.0000


;No. 42: Helical drill 63
G00 X806.9100 Y180.2857 Z9.0000
G00 Z0.5000
G02 X805.5450 Y179.4976 Z-0.1667 I-0.9100 J0.0000 F120
G02 Y181.0738 Z-0.8333 I0.4550 J0.7881
G02 X806.9100 Y180.2857 Z-1.5000 I0.4550 J-0.7881
G02 X805.5450 Y179.4976 Z-2.1667 I-0.9100 J0.0000
G02 Y181.0738 Z-2.8333 I0.4550 J0.7881
G02 X806.9100 Y180.2857 Z-3.5000 I0.4550 J-0.7881
G02 X805.5450 Y179.4976 Z-4.1667 I-0.9100 J0.0000
G02 Y181.0738 Z-4.8333 I0.4550 J0.7881
G02 X806.9100 Y180.2857 Z-5.5000 I0.4550 J-0.7881
G02 X806.0000 Y179.3757 Z-6.0000 I-0.9100 J0.0000
G02 X805.2119 Y180.7407 I0.0000 J0.9100
G02 X806.7881 I0.7881 J-0.4550
G02 X806.0000 Y179.3757 I-0.7881 J-0.4550
G02 X805.5450 Y179.8307 Z-5.8862 I0.0000 J0.4550 F1500
G00 Z9.0000


;No. 43: Helical drill 67
G00 X806.9100 Y115.1429 Z9.0000
G00 Z0.5000
G02 X805.5450 Y114.3548 Z-0.1667 I-0.9100 J0.0000 F120
G02 Y115.9309 Z-0.8333 I0.4550 J0.7881
G02 X806.9100 Y115.1429 Z-1.5000 I0.4550 J-0.7881
G02 X805.5450 Y114.3548 Z-2.1667 I-0.9100 J0.0000
G02 Y115.9309 Z-2.8333 I0.4550 J0.7881
G02 X806.9100 Y115.1429 Z-3.5000 I0.4550 J-0.7881
G02 X805.5450 Y114.3548 Z-4.1667 I-0.9100 J0.0000
G02 Y115.9309 Z-4.8333 I0.4550 J0.7881
G02 X806.9100 Y115.1429 Z-5.5000 I0.4550 J-0.7881
G02 X806.0000 Y114.2329 Z-6.0000 I-0.9100 J0.0000
G02 X805.2119 Y115.5979 I0.0000 J0.9100
G02 X806.7881 I0.7881 J-0.4550
G02 X806.0000 Y114.2329 I-0.7881 J-0.4550
G02 X805.5450 Y114.6879 Z-5.8862 I0.0000 J0.4550 F1500
G00 Z9.0000


;No. 44: Helical drill 78
G00 X806.9100 Y50.0000 Z9.0000
G00 Z0.5000
G02 X805.5450 Y49.2119 Z-0.1667 I-0.9100 J0.0000 F120
G02 Y50.7881 Z-0.8333 I0.4550 J0.7881
G02 X806.9100 Y50.0000 Z-1.5000 I0.4550 J-0.7881
G02 X805.5450 Y49.2119 Z-2.1667 I-0.9100 J0.0000
G02 Y50.7881 Z-2.8333 I0.4550 J0.7881
G02 X806.9100 Y50.0000 Z-3.5000 I0.4550 J-0.7881
G02 X805.5450 Y49.2119 Z-4.1667 I-0.9100 J0.0000
G02 Y50.7881 Z-4.8333 I0.4550 J0.7881
G02 X806.9100 Y50.0000 Z-5.5000 I0.4550 J-0.7881
G02 X806.0000 Y49.0900 Z-6.0000 I-0.9100 J0.0000
G02 X805.2119 Y50.4550 I0.0000 J0.9100
G02 X806.7881 I0.7881 J-0.4550
G02 X806.0000 Y49.0900 I-0.7881 J-0.4550
G02 X805.5450 Y49.5450 Z-5.8862 I0.0000 J0.4550 F1500
G00 Z9.0000


;No. 45: Helical drill 72
G00 X809.3100 Y10.0000 Z9.0000
G00 Z0.5000
G02 X807.9450 Y9.2119 Z-0.1667 I-0.9100 J0.0000 F120
G02 Y10.7881 Z-0.8333 I0.4550 J0.7881
G02 X809.3100 Y10.0000 Z-1.5000 I0.4550 J-0.7881
G02 X807.9450 Y9.2119 Z-2.1667 I-0.9100 J0.0000
G02 Y10.7881 Z-2.8333 I0.4550 J0.7881
G02 X809.3100 Y10.0000 Z-3.5000 I0.4550 J-0.7881
G02 X807.9450 Y9.2119 Z-4.1667 I-0.9100 J0.0000
G02 Y10.7881 Z-4.8333 I0.4550 J0.7881
G02 X809.3100 Y10.0000 Z-5.5000 I0.4550 J-0.7881
G02 X808.4000 Y9.0900 Z-6.0000 I-0.9100 J0.0000
G02 X807.6119 Y10.4550 I0.0000 J0.9100
G02 X809.1881 I0.7881 J-0.4550
G02 X808.4000 Y9.0900 I-0.7881 J-0.4550
G02 X807.9450 Y9.5450 Z-5.8862 I0.0000 J0.4550 F1500
G00 Z9.0000


;No. 46: Helical drill 69
G00 X718.1100 Y10.0000 Z9.0000
G00 Z0.5000
G02 X716.7450 Y9.2119 Z-0.1667 I-0.9100 J0.0000 F120
G02 Y10.7881 Z-0.8333 I0.4550 J0.7881
G02 X718.1100 Y10.0000 Z-1.5000 I0.4550 J-0.7881
G02 X716.7450 Y9.2119 Z-2.1667 I-0.9100 J0.0000
G02 Y10.7881 Z-2.8333 I0.4550 J0.7881
G02 X718.1100 Y10.0000 Z-3.5000 I0.4550 J-0.7881
G02 X716.7450 Y9.2119 Z-4.1667 I-0.9100 J0.0000
G02 Y10.7881 Z-4.8333 I0.4550 J0.7881
G02 X718.1100 Y10.0000 Z-5.5000 I0.4550 J-0.7881
G02 X717.2000 Y9.0900 Z-6.0000 I-0.9100 J0.0000
G02 X716.4119 Y10.4550 I0.0000 J0.9100
G02 X717.9881 I0.7881 J-0.4550
G02 X717.2000 Y9.0900 I-0.7881 J-0.4550
G02 X716.7450 Y9.5450 Z-5.8862 I0.0000 J0.4550 F1500
G00 Z9.0000


;No. 47: Helical drill 61
G00 X626.9100 Y10.0000 Z9.0000
G00 Z0.5000
G02 X625.5450 Y9.2119 Z-0.1667 I-0.9100 J0.0000 F120
G02 Y10.7881 Z-0.8333 I0.4550 J0.7881
G02 X626.9100 Y10.0000 Z-1.5000 I0.4550 J-0.7881
G02 X625.5450 Y9.2119 Z-2.1667 I-0.9100 J0.0000
G02 Y10.7881 Z-2.8333 I0.4550 J0.7881
G02 X626.9100 Y10.0000 Z-3.5000 I0.4550 J-0.7881
G02 X625.5450 Y9.2119 Z-4.1667 I-0.9100 J0.0000
G02 Y10.7881 Z-4.8333 I0.4550 J0.7881
G02 X626.9100 Y10.0000 Z-5.5000 I0.4550 J-0.7881
G02 X626.0000 Y9.0900 Z-6.0000 I-0.9100 J0.0000
G02 X625.2119 Y10.4550 I0.0000 J0.9100
G02 X626.7881 I0.7881 J-0.4550
G02 X626.0000 Y9.0900 I-0.7881 J-0.4550
G02 X625.5450 Y9.5450 Z-5.8862 I0.0000 J0.4550 F1500
G00 Z9.0000


;No. 48: Helical drill 55
G00 X586.9100 Y50.0000 Z9.0000
G00 Z0.5000
G02 X585.5450 Y49.2119 Z-0.1667 I-0.9100 J0.0000 F120
G02 Y50.7881 Z-0.8333 I0.4550 J0.7881
G02 X586.9100 Y50.0000 Z-1.5000 I0.4550 J-0.7881
G02 X585.5450 Y49.2119 Z-2.1667 I-0.9100 J0.0000
G02 Y50.7881 Z-2.8333 I0.4550 J0.7881
G02 X586.9100 Y50.0000 Z-3.5000 I0.4550 J-0.7881
G02 X585.5450 Y49.2119 Z-4.1667 I-0.9100 J0.0000
G02 Y50.7881 Z-4.8333 I0.4550 J0.7881
G02 X586.9100 Y50.0000 Z-5.5000 I0.4550 J-0.7881
G02 X586.0000 Y49.0900 Z-6.0000 I-0.9100 J0.0000
G02 X585.2119 Y50.4550 I0.0000 J0.9100
G02 X586.7881 I0.7881 J-0.4550
G02 X586.0000 Y49.0900 I-0.7881 J-0.4550
G02 X585.5450 Y49.5450 Z-5.8863 I0.0000 J0.4550 F1500
G00 Z9.0000


;No. 49: Helical drill 14
G00 X546.9100 Y50.0000 Z9.0000
G00 Z0.5000
G02 X545.5450 Y49.2119 Z-0.1667 I-0.9100 J0.0000 F120
G02 Y50.7881 Z-0.8333 I0.4550 J0.7881
G02 X546.9100 Y50.0000 Z-1.5000 I0.4550 J-0.7881
G02 X545.5450 Y49.2119 Z-2.1667 I-0.9100 J0.0000
G02 Y50.7881 Z-2.8333 I0.4550 J0.7881
G02 X546.9100 Y50.0000 Z-3.5000 I0.4550 J-0.7881
G02 X545.5450 Y49.2119 Z-4.1667 I-0.9100 J0.0000
G02 Y50.7881 Z-4.8333 I0.4550 J0.7881
G02 X546.9100 Y50.0000 Z-5.5000 I0.4550 J-0.7881
G02 X546.0000 Y49.0900 Z-6.0000 I-0.9100 J0.0000
G02 X545.2119 Y50.4550 I0.0000 J0.9100
G02 X546.7881 I0.7881 J-0.4550
G02 X546.0000 Y49.0900 I-0.7881 J-0.4550
G02 X545.5450 Y49.5450 Z-5.8862 I0.0000 J0.4550 F1500
G00 Z9.0000


;No. 50: Helical drill 7
G00 X506.9100 Y10.0000 Z9.0000
G00 Z0.5000
G02 X505.5450 Y9.2119 Z-0.1667 I-0.9100 J0.0000 F120
G02 Y10.7881 Z-0.8333 I0.4550 J0.7881
G02 X506.9100 Y10.0000 Z-1.5000 I0.4550 J-0.7881
G02 X505.5450 Y9.2119 Z-2.1667 I-0.9100 J0.0000
G02 Y10.7881 Z-2.8333 I0.4550 J0.7881
G02 X506.9100 Y10.0000 Z-3.5000 I0.4550 J-0.7881
G02 X505.5450 Y9.2119 Z-4.1667 I-0.9100 J0.0000
G02 Y10.7881 Z-4.8333 I0.4550 J0.7881
G02 X506.9100 Y10.0000 Z-5.5000 I0.4550 J-0.7881
G02 X506.0000 Y9.0900 Z-6.0000 I-0.9100 J0.0000
G02 X505.2119 Y10.4550 I0.0000 J0.9100
G02 X506.7881 I0.7881 J-0.4550
G02 X506.0000 Y9.0900 I-0.7881 J-0.4550
G02 X505.5450 Y9.5450 Z-5.8862 I0.0000 J0.4550 F1500
G00 Z9.0000


;No. 51: Helical drill 6
G00 X415.7100 Y10.0000 Z9.0000
G00 Z0.5000
G02 X414.3450 Y9.2119 Z-0.1667 I-0.9100 J0.0000 F120
G02 Y10.7881 Z-0.8333 I0.4550 J0.7881
G02 X415.7100 Y10.0000 Z-1.5000 I0.4550 J-0.7881
G02 X414.3450 Y9.2119 Z-2.1667 I-0.9100 J0.0000
G02 Y10.7881 Z-2.8333 I0.4550 J0.7881
G02 X415.7100 Y10.0000 Z-3.5000 I0.4550 J-0.7881
G02 X414.3450 Y9.2119 Z-4.1667 I-0.9100 J0.0000
G02 Y10.7881 Z-4.8333 I0.4550 J0.7881
G02 X415.7100 Y10.0000 Z-5.5000 I0.4550 J-0.7881
G02 X414.8000 Y9.0900 Z-6.0000 I-0.9100 J0.0000
G02 X414.0119 Y10.4550 I0.0000 J0.9100
G02 X415.5881 I0.7881 J-0.4550
G02 X414.8000 Y9.0900 I-0.7881 J-0.4550
G02 X414.3450 Y9.5450 Z-5.8863 I0.0000 J0.4550 F1500
G00 Z9.0000


;No. 52: Helical drill 16
G00 X546.9100 Y141.2000 Z9.0000
G00 Z0.5000
G02 X545.5450 Y140.4119 Z-0.1667 I-0.9100 J0.0000 F120
G02 Y141.9881 Z-0.8333 I0.4550 J0.7881
G02 X546.9100 Y141.2000 Z-1.5000 I0.4550 J-0.7881
G02 X545.5450 Y140.4119 Z-2.1667 I-0.9100 J0.0000
G02 Y141.9881 Z-2.8333 I0.4550 J0.7881
G02 X546.9100 Y141.2000 Z-3.5000 I0.4550 J-0.7881
G02 X545.5450 Y140.4119 Z-4.1667 I-0.9100 J0.0000
G02 Y141.9881 Z-4.8333 I0.4550 J0.7881
G02 X546.9100 Y141.2000 Z-5.5000 I0.4550 J-0.7881
G02 X546.0000 Y140.2900 Z-6.0000 I-0.9100 J0.0000
G02 X545.2119 Y141.6550 I0.0000 J0.9100
G02 X546.7881 I0.7881 J-0.4550
G02 X546.0000 Y140.2900 I-0.7881 J-0.4550
G02 X545.5450 Y140.7450 Z-5.8863 I0.0000 J0.4550 F1500
G00 Z9.0000


;No. 53: Helical drill 64
G00 X586.9100 Y141.2000 Z9.0000
G00 Z0.5000
G02 X585.5450 Y140.4119 Z-0.1667 I-0.9100 J0.0000 F120
G02 Y141.9881 Z-0.8333 I0.4550 J0.7881
G02 X586.9100 Y141.2000 Z-1.5000 I0.4550 J-0.7881
G02 X585.5450 Y140.4119 Z-2.1667 I-0.9100 J0.0000
G02 Y141.9881 Z-2.8333 I0.4550 J0.7881
G02 X586.9100 Y141.2000 Z-3.5000 I0.4550 J-0.7881
G02 X585.5450 Y140.4119 Z-4.1667 I-0.9100 J0.0000
G02 Y141.9881 Z-4.8333 I0.4550 J0.7881
G02 X586.9100 Y141.2000 Z-5.5000 I0.4550 J-0.7881
G02 X586.0000 Y140.2900 Z-6.0000 I-0.9100 J0.0000
G02 X585.2119 Y141.6550 I0.0000 J0.9100
G02 X586.7881 I0.7881 J-0.4550
G02 X586.0000 Y140.2900 I-0.7881 J-0.4550
G02 X585.5450 Y140.7450 Z-5.8862 I0.0000 J0.4550 F1500
G00 Z9.0000


;No. 54: Helical drill 66
G00 X586.9100 Y232.4000 Z9.0000
G00 Z0.5000
G02 X585.5450 Y231.6119 Z-0.1667 I-0.9100 J0.0000 F120
G02 Y233.1881 Z-0.8333 I0.4550 J0.7881
G02 X586.9100 Y232.4000 Z-1.5000 I0.4550 J-0.7881
G02 X585.5450 Y231.6119 Z-2.1667 I-0.9100 J0.0000
G02 Y233.1881 Z-2.8333 I0.4550 J0.7881
G02 X586.9100 Y232.4000 Z-3.5000 I0.4550 J-0.7881
G02 X585.5450 Y231.6119 Z-4.1667 I-0.9100 J0.0000
G02 Y233.1881 Z-4.8333 I0.4550 J0.7881
G02 X586.9100 Y232.4000 Z-5.5000 I0.4550 J-0.7881
G02 X586.0000 Y231.4900 Z-6.0000 I-0.9100 J0.0000
G02 X585.2119 Y232.8550 I0.0000 J0.9100
G02 X586.7881 I0.7881 J-0.4550
G02 X586.0000 Y231.4900 I-0.7881 J-0.4550
G02 X585.5450 Y231.9450 Z-5.8862 I0.0000 J0.4550 F1500
G00 Z9.0000


;No. 55: Helical drill 18
G00 X546.9100 Y232.4000 Z9.0000
G00 Z0.5000
G02 X545.5450 Y231.6119 Z-0.1667 I-0.9100 J0.0000 F120
G02 Y233.1881 Z-0.8333 I0.4550 J0.7881
G02 X546.9100 Y232.4000 Z-1.5000 I0.4550 J-0.7881
G02 X545.5450 Y231.6119 Z-2.1667 I-0.9100 J0.0000
G02 Y233.1881 Z-2.8333 I0.4550 J0.7881
G02 X546.9100 Y232.4000 Z-3.5000 I0.4550 J-0.7881
G02 X545.5450 Y231.6119 Z-4.1667 I-0.9100 J0.0000
G02 Y233.1881 Z-4.8333 I0.4550 J0.7881
G02 X546.9100 Y232.4000 Z-5.5000 I0.4550 J-0.7881
G02 X546.0000 Y231.4900 Z-6.0000 I-0.9100 J0.0000
G02 X545.2119 Y232.8550 I0.0000 J0.9100
G02 X546.7881 I0.7881 J-0.4550
G02 X546.0000 Y231.4900 I-0.7881 J-0.4550
G02 X545.5450 Y231.9450 Z-5.8863 I0.0000 J0.4550 F1500
G00 Z9.0000


;No. 56: Helical drill 20
G00 X546.9100 Y323.6000 Z9.0000
G00 Z0.5000
G02 X545.5450 Y322.8119 Z-0.1667 I-0.9100 J0.0000 F120
G02 Y324.3881 Z-0.8333 I0.4550 J0.7881
G02 X546.9100 Y323.6000 Z-1.5000 I0.4550 J-0.7881
G02 X545.5450 Y322.8119 Z-2.1667 I-0.9100 J0.0000
G02 Y324.3881 Z-2.8333 I0.4550 J0.7881
G02 X546.9100 Y323.6000 Z-3.5000 I0.4550 J-0.7881
G02 X545.5450 Y322.8119 Z-4.1667 I-0.9100 J0.0000
G02 Y324.3881 Z-4.8333 I0.4550 J0.7881
G02 X546.9100 Y323.6000 Z-5.5000 I0.4550 J-0.7881
G02 X546.0000 Y322.6900 Z-6.0000 I-0.9100 J0.0000
G02 X545.2119 Y324.0550 I0.0000 J0.9100
G02 X546.7881 I0.7881 J-0.4550
G02 X546.0000 Y322.6900 I-0.7881 J-0.4550
G02 X545.5450 Y323.1450 Z-5.8862 I0.0000 J0.4550 F1500
G00 Z9.0000


;No. 57: Helical drill 44
G00 X586.9100 Y323.6000 Z9.0000
G00 Z0.5000
G02 X585.5450 Y322.8119 Z-0.1667 I-0.9100 J0.0000 F120
G02 Y324.3881 Z-0.8333 I0.4550 J0.7881
G02 X586.9100 Y323.6000 Z-1.5000 I0.4550 J-0.7881
G02 X585.5450 Y322.8119 Z-2.1667 I-0.9100 J0.0000
G02 Y324.3881 Z-2.8333 I0.4550 J0.7881
G02 X586.9100 Y323.6000 Z-3.5000 I0.4550 J-0.7881
G02 X585.5450 Y322.8119 Z-4.1667 I-0.9100 J0.0000
G02 Y324.3881 Z-4.8333 I0.4550 J0.7881
G02 X586.9100 Y323.6000 Z-5.5000 I0.4550 J-0.7881
G02 X586.0000 Y322.6900 Z-6.0000 I-0.9100 J0.0000
G02 X585.2119 Y324.0550 I0.0000 J0.9100
G02 X586.7881 I0.7881 J-0.4550
G02 X586.0000 Y322.6900 I-0.7881 J-0.4550
G02 X585.5450 Y323.1450 Z-5.8863 I0.0000 J0.4550 F1500
G00 Z9.0000


;No. 58: Helical drill 79
G00 X586.9100 Y414.8000 Z9.0000
G00 Z0.5000
G02 X585.5450 Y414.0119 Z-0.1667 I-0.9100 J0.0000 F120
G02 Y415.5881 Z-0.8333 I0.4550 J0.7881
G02 X586.9100 Y414.8000 Z-1.5000 I0.4550 J-0.7881
G02 X585.5450 Y414.0119 Z-2.1667 I-0.9100 J0.0000
G02 Y415.5881 Z-2.8333 I0.4550 J0.7881
G02 X586.9100 Y414.8000 Z-3.5000 I0.4550 J-0.7881
G02 X585.5450 Y414.0119 Z-4.1667 I-0.9100 J0.0000
G02 Y415.5881 Z-4.8333 I0.4550 J0.7881
G02 X586.9100 Y414.8000 Z-5.5000 I0.4550 J-0.7881
G02 X586.0000 Y413.8900 Z-6.0000 I-0.9100 J0.0000
G02 X585.2119 Y415.2550 I0.0000 J0.9100
G02 X586.7881 I0.7881 J-0.4550
G02 X586.0000 Y413.8900 I-0.7881 J-0.4550
G02 X585.5450 Y414.3450 Z-5.8862 I0.0000 J0.4550 F1500
G00 Z9.0000


;No. 59: Helical drill 22
G00 X546.9100 Y414.8000 Z9.0000
G00 Z0.5000
G02 X545.5450 Y414.0119 Z-0.1667 I-0.9100 J0.0000 F120
G02 Y415.5881 Z-0.8333 I0.4550 J0.7881
G02 X546.9100 Y414.8000 Z-1.5000 I0.4550 J-0.7881
G02 X545.5450 Y414.0119 Z-2.1667 I-0.9100 J0.0000
G02 Y415.5881 Z-2.8333 I0.4550 J0.7881
G02 X546.9100 Y414.8000 Z-3.5000 I0.4550 J-0.7881
G02 X545.5450 Y414.0119 Z-4.1667 I-0.9100 J0.0000
G02 Y415.5881 Z-4.8333 I0.4550 J0.7881
G02 X546.9100 Y414.8000 Z-5.5000 I0.4550 J-0.7881
G02 X546.0000 Y413.8900 Z-6.0000 I-0.9100 J0.0000
G02 X545.2119 Y415.2550 I0.0000 J0.9100
G02 X546.7881 I0.7881 J-0.4550
G02 X546.0000 Y413.8900 I-0.7881 J-0.4550
G02 X545.5450 Y414.3450 Z-5.8862 I0.0000 J0.4550 F1500
G00 Z9.0000


;No. 60: Helical drill 71
G00 X902.9100 Y375.7143 Z9.0000
G00 Z0.5000
G02 X901.5450 Y374.9262 Z-0.1667 I-0.9100 J0.0000 F120
G02 Y376.5024 Z-0.8333 I0.4550 J0.7881
G02 X902.9100 Y375.7143 Z-1.5000 I0.4550 J-0.7881
G02 X901.5450 Y374.9262 Z-2.1667 I-0.9100 J0.0000
G02 Y376.5024 Z-2.8333 I0.4550 J0.7881
G02 X902.9100 Y375.7143 Z-3.5000 I0.4550 J-0.7881
G02 X901.5450 Y374.9262 Z-4.1667 I-0.9100 J0.0000
G02 Y376.5024 Z-4.8333 I0.4550 J0.7881
G02 X902.9100 Y375.7143 Z-5.5000 I0.4550 J-0.7881
G02 X902.0000 Y374.8043 Z-6.0000 I-0.9100 J0.0000
G02 X901.2119 Y376.1693 I0.0000 J0.9100
G02 X902.7881 I0.7881 J-0.4550
G02 X902.0000 Y374.8043 I-0.7881 J-0.4550
G02 X901.5450 Y375.2593 Z-5.8863 I0.0000 J0.4550 F1500
G00 Z9.0000


;No. 61: Helical drill 75
G00 X902.9100 Y440.8571 Z9.0000
G00 Z0.5000
G02 X901.5450 Y440.0691 Z-0.1667 I-0.9100 J0.0000 F120
G02 Y441.6452 Z-0.8333 I0.4550 J0.7881
G02 X902.9100 Y440.8571 Z-1.5000 I0.4550 J-0.7881
G02 X901.5450 Y440.0691 Z-2.1667 I-0.9100 J0.0000
G02 Y441.6452 Z-2.8333 I0.4550 J0.7881
G02 X902.9100 Y440.8571 Z-3.5000 I0.4550 J-0.7881
G02 X901.5450 Y440.0691 Z-4.1667 I-0.9100 J0.0000
G02 Y441.6452 Z-4.8333 I0.4550 J0.7881
G02 X902.9100 Y440.8571 Z-5.5000 I0.4550 J-0.7881
G02 X902.0000 Y439.9471 Z-6.0000 I-0.9100 J0.0000
G02 X901.2119 Y441.3121 I0.0000 J0.9100
G02 X902.7881 I0.7881 J-0.4550
G02 X902.0000 Y439.9471 I-0.7881 J-0.4550
G02 X901.5450 Y440.4021 Z-5.8863 I0.0000 J0.4550 F1500
G00 Z9.0000


;No. 62: Helical drill 73
G00 X902.9100 Y506.0000 Z9.0000
G00 Z0.5000
G02 X901.5450 Y505.2119 Z-0.1667 I-0.9100 J0.0000 F120
G02 Y506.7881 Z-0.8333 I0.4550 J0.7881
G02 X902.9100 Y506.0000 Z-1.5000 I0.4550 J-0.7881
G02 X901.5450 Y505.2119 Z-2.1667 I-0.9100 J0.0000
G02 Y506.7881 Z-2.8333 I0.4550 J0.7881
G02 X902.9100 Y506.0000 Z-3.5000 I0.4550 J-0.7881
G02 X901.5450 Y505.2119 Z-4.1667 I-0.9100 J0.0000
G02 Y506.7881 Z-4.8333 I0.4550 J0.7881
G02 X902.9100 Y506.0000 Z-5.5000 I0.4550 J-0.7881
G02 X902.0000 Y505.0900 Z-6.0000 I-0.9100 J0.0000
G02 X901.2119 Y506.4550 I0.0000 J0.9100
G02 X902.7881 I0.7881 J-0.4550
G02 X902.0000 Y505.0900 I-0.7881 J-0.4550
G02 X901.5450 Y505.5450 Z-5.8862 I0.0000 J0.4550 F1500
G00 Z9.0000


;No. 63: Helical drill 62
G00 X900.5100 Y546.0000 Z9.0000
G00 Z0.5000
G02 X899.1450 Y545.2119 Z-0.1667 I-0.9100 J0.0000 F120
G02 Y546.7881 Z-0.8333 I0.4550 J0.7881
G02 X900.5100 Y546.0000 Z-1.5000 I0.4550 J-0.7881
G02 X899.1450 Y545.2119 Z-2.1667 I-0.9100 J0.0000
G02 Y546.7881 Z-2.8333 I0.4550 J0.7881
G02 X900.5100 Y546.0000 Z-3.5000 I0.4550 J-0.7881
G02 X899.1450 Y545.2119 Z-4.1667 I-0.9100 J0.0000
G02 Y546.7881 Z-4.8333 I0.4550 J0.7881
G02 X900.5100 Y546.0000 Z-5.5000 I0.4550 J-0.7881
G02 X899.6000 Y545.0900 Z-6.0000 I-0.9100 J0.0000
G02 X898.8119 Y546.4550 I0.0000 J0.9100
G02 X900.3881 I0.7881 J-0.4550
G02 X899.6000 Y545.0900 I-0.7881 J-0.4550
G02 X899.1450 Y545.5450 Z-5.8862 I0.0000 J0.4550 F1500
G00 Z9.0000


;No. 64: Helical drill 70
G00 X991.7100 Y546.0000 Z9.0000
G00 Z0.5000
G02 X990.3450 Y545.2119 Z-0.1667 I-0.9100 J0.0000 F120
G02 Y546.7881 Z-0.8333 I0.4550 J0.7881
G02 X991.7100 Y546.0000 Z-1.5000 I0.4550 J-0.7881
G02 X990.3450 Y545.2119 Z-2.1667 I-0.9100 J0.0000
G02 Y546.7881 Z-2.8333 I0.4550 J0.7881
G02 X991.7100 Y546.0000 Z-3.5000 I0.4550 J-0.7881
G02 X990.3450 Y545.2119 Z-4.1667 I-0.9100 J0.0000
G02 Y546.7881 Z-4.8333 I0.4550 J0.7881
G02 X991.7100 Y546.0000 Z-5.5000 I0.4550 J-0.7881
G02 X990.8000 Y545.0900 Z-6.0000 I-0.9100 J0.0000
G02 X990.0119 Y546.4550 I0.0000 J0.9100
G02 X991.5881 I0.7881 J-0.4550
G02 X990.8000 Y545.0900 I-0.7881 J-0.4550
G02 X990.3450 Y545.5450 Z-5.8862 I0.0000 J0.4550 F1500
G00 Z9.0000


;No. 65: Helical drill 74
G00 X1082.9100 Y546.0000 Z9.0000
G00 Z0.5000
G02 X1081.5450 Y545.2119 Z-0.1667 I-0.9100 J0.0000 F120
G02 Y546.7881 Z-0.8333 I0.4550 J0.7881
G02 X1082.9100 Y546.0000 Z-1.5000 I0.4550 J-0.7881
G02 X1081.5450 Y545.2119 Z-2.1667 I-0.9100 J0.0000
G02 Y546.7881 Z-2.8333 I0.4550 J0.7881
G02 X1082.9100 Y546.0000 Z-3.5000 I0.4550 J-0.7881
G02 X1081.5450 Y545.2119 Z-4.1667 I-0.9100 J0.0000
G02 Y546.7881 Z-4.8333 I0.4550 J0.7881
G02 X1082.9100 Y546.0000 Z-5.5000 I0.4550 J-0.7881
G02 X1082.0000 Y545.0900 Z-6.0000 I-0.9100 J0.0000
G02 X1081.2119 Y546.4550 I0.0000 J0.9100
G02 X1082.7881 I0.7881 J-0.4550
G02 X1082.0000 Y545.0900 I-0.7881 J-0.4550
G02 X1081.5450 Y545.5450 Z-5.8862 I0.0000 J0.4550 F1500
G00 Z9.0000


;No. 66: Helical drill 43
G00 X1122.9100 Y506.0000 Z9.0000
G00 Z0.5000
G02 X1121.5450 Y505.2119 Z-0.1667 I-0.9100 J0.0000 F120
G02 Y506.7881 Z-0.8333 I0.4550 J0.7881
G02 X1122.9100 Y506.0000 Z-1.5000 I0.4550 J-0.7881
G02 X1121.5450 Y505.2119 Z-2.1667 I-0.9100 J0.0000
G02 Y506.7881 Z-2.8333 I0.4550 J0.7881
G02 X1122.9100 Y506.0000 Z-3.5000 I0.4550 J-0.7881
G02 X1121.5450 Y505.2119 Z-4.1667 I-0.9100 J0.0000
G02 Y506.7881 Z-4.8333 I0.4550 J0.7881
G02 X1122.9100 Y506.0000 Z-5.5000 I0.4550 J-0.7881
G02 X1122.0000 Y505.0900 Z-6.0000 I-0.9100 J0.0000
G02 X1121.2119 Y506.4550 I0.0000 J0.9100
G02 X1122.7881 I0.7881 J-0.4550
G02 X1122.0000 Y505.0900 I-0.7881 J-0.4550
G02 X1121.5450 Y505.5450 Z-5.8862 I0.0000 J0.4550 F1500
G00 Z9.0000


;No. 67: Helical drill 42
G00 X1122.9100 Y414.8000 Z9.0000
G00 Z0.5000
G02 X1121.5450 Y414.0119 Z-0.1667 I-0.9100 J0.0000 F120
G02 Y415.5881 Z-0.8333 I0.4550 J0.7881
G02 X1122.9100 Y414.8000 Z-1.5000 I0.4550 J-0.7881
G02 X1121.5450 Y414.0119 Z-2.1667 I-0.9100 J0.0000
G02 Y415.5881 Z-2.8333 I0.4550 J0.7881
G02 X1122.9100 Y414.8000 Z-3.5000 I0.4550 J-0.7881
G02 X1121.5450 Y414.0119 Z-4.1667 I-0.9100 J0.0000
G02 Y415.5881 Z-4.8333 I0.4550 J0.7881
G02 X1122.9100 Y414.8000 Z-5.5000 I0.4550 J-0.7881
G02 X1122.0000 Y413.8900 Z-6.0000 I-0.9100 J0.0000
G02 X1121.2119 Y415.2550 I0.0000 J0.9100
G02 X1122.7881 I0.7881 J-0.4550
G02 X1122.0000 Y413.8900 I-0.7881 J-0.4550
G02 X1121.5450 Y414.3450 Z-5.8862 I0.0000 J0.4550 F1500
G00 Z9.0000


;No. 68: Helical drill 47
G00 X1122.9100 Y323.6000 Z9.0000
G00 Z0.5000
G02 X1121.5450 Y322.8119 Z-0.1667 I-0.9100 J0.0000 F120
G02 Y324.3881 Z-0.8333 I0.4550 J0.7881
G02 X1122.9100 Y323.6000 Z-1.5000 I0.4550 J-0.7881
G02 X1121.5450 Y322.8119 Z-2.1667 I-0.9100 J0.0000
G02 Y324.3881 Z-2.8333 I0.4550 J0.7881
G02 X1122.9100 Y323.6000 Z-3.5000 I0.4550 J-0.7881
G02 X1121.5450 Y322.8119 Z-4.1667 I-0.9100 J0.0000
G02 Y324.3881 Z-4.8333 I0.4550 J0.7881
G02 X1122.9100 Y323.6000 Z-5.5000 I0.4550 J-0.7881
G02 X1122.0000 Y322.6900 Z-6.0000 I-0.9100 J0.0000
G02 X1121.2119 Y324.0550 I0.0000 J0.9100
G02 X1122.7881 I0.7881 J-0.4550
G02 X1122.0000 Y322.6900 I-0.7881 J-0.4550
G02 X1121.5450 Y323.1450 Z-5.8863 I0.0000 J0.4550 F1500
G00 Z9.0000


;No. 69: Helical drill 59
G00 X1122.9100 Y232.4000 Z9.0000
G00 Z0.5000
G02 X1121.5450 Y231.6119 Z-0.1667 I-0.9100 J0.0000 F120
G02 Y233.1881 Z-0.8333 I0.4550 J0.7881
G02 X1122.9100 Y232.4000 Z-1.5000 I0.4550 J-0.7881
G02 X1121.5450 Y231.6119 Z-2.1667 I-0.9100 J0.0000
G02 Y233.1881 Z-2.8333 I0.4550 J0.7881
G02 X1122.9100 Y232.4000 Z-3.5000 I0.4550 J-0.7881
G02 X1121.5450 Y231.6119 Z-4.1667 I-0.9100 J0.0000
G02 Y233.1881 Z-4.8333 I0.4550 J0.7881
G02 X1122.9100 Y232.4000 Z-5.5000 I0.4550 J-0.7881
G02 X1122.0000 Y231.4900 Z-6.0000 I-0.9100 J0.0000
G02 X1121.2119 Y232.8550 I0.0000 J0.9100
G02 X1122.7881 I0.7881 J-0.4550
G02 X1122.0000 Y231.4900 I-0.7881 J-0.4550
G02 X1121.5450 Y231.9450 Z-5.8863 I0.0000 J0.4550 F1500
G00 Z9.0000


;No. 70: Helical drill 50
G00 X1122.9100 Y141.2000 Z9.0000
G00 Z0.5000
G02 X1121.5450 Y140.4119 Z-0.1667 I-0.9100 J0.0000 F120
G02 Y141.9881 Z-0.8333 I0.4550 J0.7881
G02 X1122.9100 Y141.2000 Z-1.5000 I0.4550 J-0.7881
G02 X1121.5450 Y140.4119 Z-2.1667 I-0.9100 J0.0000
G02 Y141.9881 Z-2.8333 I0.4550 J0.7881
G02 X1122.9100 Y141.2000 Z-3.5000 I0.4550 J-0.7881
G02 X1121.5450 Y140.4119 Z-4.1667 I-0.9100 J0.0000
G02 Y141.9881 Z-4.8333 I0.4550 J0.7881
G02 X1122.9100 Y141.2000 Z-5.5000 I0.4550 J-0.7881
G02 X1122.0000 Y140.2900 Z-6.0000 I-0.9100 J0.0000
G02 X1121.2119 Y141.6550 I0.0000 J0.9100
G02 X1122.7881 I0.7881 J-0.4550
G02 X1122.0000 Y140.2900 I-0.7881 J-0.4550
G02 X1121.5450 Y140.7450 Z-5.8863 I0.0000 J0.4550 F1500
G00 Z9.0000


;No. 71: Helical drill 54
G00 X1122.9100 Y50.0000 Z9.0000
G00 Z0.5000
G02 X1121.5450 Y49.2119 Z-0.1667 I-0.9100 J0.0000 F120
G02 Y50.7881 Z-0.8333 I0.4550 J0.7881
G02 X1122.9100 Y50.0000 Z-1.5000 I0.4550 J-0.7881
G02 X1121.5450 Y49.2119 Z-2.1667 I-0.9100 J0.0000
G02 Y50.7881 Z-2.8333 I0.4550 J0.7881
G02 X1122.9100 Y50.0000 Z-3.5000 I0.4550 J-0.7881
G02 X1121.5450 Y49.2119 Z-4.1667 I-0.9100 J0.0000
G02 Y50.7881 Z-4.8333 I0.4550 J0.7881
G02 X1122.9100 Y50.0000 Z-5.5000 I0.4550 J-0.7881
G02 X1122.0000 Y49.0900 Z-6.0000 I-0.9100 J0.0000
G02 X1121.2119 Y50.4550 I0.0000 J0.9100
G02 X1122.7881 I0.7881 J-0.4550
G02 X1122.0000 Y49.0900 I-0.7881 J-0.4550
G02 X1121.5450 Y49.5450 Z-5.8862 I0.0000 J0.4550 F1500
G00 Z9.0000


;No. 72: Helical drill 68
G00 X1082.9100 Y10.0000 Z9.0000
G00 Z0.5000
G02 X1081.5450 Y9.2119 Z-0.1667 I-0.9100 J0.0000 F120
G02 Y10.7881 Z-0.8333 I0.4550 J0.7881
G02 X1082.9100 Y10.0000 Z-1.5000 I0.4550 J-0.7881
G02 X1081.5450 Y9.2119 Z-2.1667 I-0.9100 J0.0000
G02 Y10.7881 Z-2.8333 I0.4550 J0.7881
G02 X1082.9100 Y10.0000 Z-3.5000 I0.4550 J-0.7881
G02 X1081.5450 Y9.2119 Z-4.1667 I-0.9100 J0.0000
G02 Y10.7881 Z-4.8333 I0.4550 J0.7881
G02 X1082.9100 Y10.0000 Z-5.5000 I0.4550 J-0.7881
G02 X1082.0000 Y9.0900 Z-6.0000 I-0.9100 J0.0000
G02 X1081.2119 Y10.4550 I0.0000 J0.9100
G02 X1082.7881 I0.7881 J-0.4550
G02 X1082.0000 Y9.0900 I-0.7881 J-0.4550
G02 X1081.5450 Y9.5450 Z-5.8863 I0.0000 J0.4550 F1500
G00 Z9.0000


;No. 73: Helical drill 77
G00 X991.7100 Y10.0000 Z9.0000
G00 Z0.5000
G02 X990.3450 Y9.2119 Z-0.1667 I-0.9100 J0.0000 F120
G02 Y10.7881 Z-0.8333 I0.4550 J0.7881
G02 X991.7100 Y10.0000 Z-1.5000 I0.4550 J-0.7881
G02 X990.3450 Y9.2119 Z-2.1667 I-0.9100 J0.0000
G02 Y10.7881 Z-2.8333 I0.4550 J0.7881
G02 X991.7100 Y10.0000 Z-3.5000 I0.4550 J-0.7881
G02 X990.3450 Y9.2119 Z-4.1667 I-0.9100 J0.0000
G02 Y10.7881 Z-4.8333 I0.4550 J0.7881
G02 X991.7100 Y10.0000 Z-5.5000 I0.4550 J-0.7881
G02 X990.8000 Y9.0900 Z-6.0000 I-0.9100 J0.0000
G02 X990.0119 Y10.4550 I0.0000 J0.9100
G02 X991.5881 I0.7881 J-0.4550
G02 X990.8000 Y9.0900 I-0.7881 J-0.4550
G02 X990.3450 Y9.5450 Z-5.8862 I0.0000 J0.4550 F1500
G00 Z9.0000


;No. 74: Helical drill 65
G00 X900.5100 Y10.0000 Z9.0000
G00 Z0.5000
G02 X899.1450 Y9.2119 Z-0.1667 I-0.9100 J0.0000 F120
G02 Y10.7881 Z-0.8333 I0.4550 J0.7881
G02 X900.5100 Y10.0000 Z-1.5000 I0.4550 J-0.7881
G02 X899.1450 Y9.2119 Z-2.1667 I-0.9100 J0.0000
G02 Y10.7881 Z-2.8333 I0.4550 J0.7881
G02 X900.5100 Y10.0000 Z-3.5000 I0.4550 J-0.7881
G02 X899.1450 Y9.2119 Z-4.1667 I-0.9100 J0.0000
G02 Y10.7881 Z-4.8333 I0.4550 J0.7881
G02 X900.5100 Y10.0000 Z-5.5000 I0.4550 J-0.7881
G02 X899.6000 Y9.0900 Z-6.0000 I-0.9100 J0.0000
G02 X898.8119 Y10.4550 I0.0000 J0.9100
G02 X900.3881 I0.7881 J-0.4550
G02 X899.6000 Y9.0900 I-0.7881 J-0.4550
G02 X899.1450 Y9.5450 Z-5.8863 I0.0000 J0.4550 F1500
G00 Z9.0000


;No. 75: Helical drill 76
G00 X902.9100 Y50.0000 Z9.0000
G00 Z0.5000
G02 X901.5450 Y49.2119 Z-0.1667 I-0.9100 J0.0000 F120
G02 Y50.7881 Z-0.8333 I0.4550 J0.7881
G02 X902.9100 Y50.0000 Z-1.5000 I0.4550 J-0.7881
G02 X901.5450 Y49.2119 Z-2.1667 I-0.9100 J0.0000
G02 Y50.7881 Z-2.8333 I0.4550 J0.7881
G02 X902.9100 Y50.0000 Z-3.5000 I0.4550 J-0.7881
G02 X901.5450 Y49.2119 Z-4.1667 I-0.9100 J0.0000
G02 Y50.7881 Z-4.8333 I0.4550 J0.7881
G02 X902.9100 Y50.0000 Z-5.5000 I0.4550 J-0.7881
G02 X902.0000 Y49.0900 Z-6.0000 I-0.9100 J0.0000
G02 X901.2119 Y50.4550 I0.0000 J0.9100
G02 X902.7881 I0.7881 J-0.4550
G02 X902.0000 Y49.0900 I-0.7881 J-0.4550
G02 X901.5450 Y49.5450 Z-5.8863 I0.0000 J0.4550 F1500
G00 Z9.0000


;No. 76: Helical drill 52
G00 X902.9100 Y115.1429 Z9.0000
G00 Z0.5000
G02 X901.5450 Y114.3548 Z-0.1667 I-0.9100 J0.0000 F120
G02 Y115.9309 Z-0.8333 I0.4550 J0.7881
G02 X902.9100 Y115.1429 Z-1.5000 I0.4550 J-0.7881
G02 X901.5450 Y114.3548 Z-2.1667 I-0.9100 J0.0000
G02 Y115.9309 Z-2.8333 I0.4550 J0.7881
G02 X902.9100 Y115.1429 Z-3.5000 I0.4550 J-0.7881
G02 X901.5450 Y114.3548 Z-4.1667 I-0.9100 J0.0000
G02 Y115.9309 Z-4.8333 I0.4550 J0.7881
G02 X902.9100 Y115.1429 Z-5.5000 I0.4550 J-0.7881
G02 X902.0000 Y114.2329 Z-6.0000 I-0.9100 J0.0000
G02 X901.2119 Y115.5979 I0.0000 J0.9100
G02 X902.7881 I0.7881 J-0.4550
G02 X902.0000 Y114.2329 I-0.7881 J-0.4550
G02 X901.5450 Y114.6879 Z-5.8862 I0.0000 J0.4550 F1500
G00 Z9.0000


;No. 77: Helical drill 51
G00 X902.9100 Y180.2857 Z9.0000
G00 Z0.5000
G02 X901.5450 Y179.4976 Z-0.1667 I-0.9100 J0.0000 F120
G02 Y181.0738 Z-0.8333 I0.4550 J0.7881
G02 X902.9100 Y180.2857 Z-1.5000 I0.4550 J-0.7881
G02 X901.5450 Y179.4976 Z-2.1667 I-0.9100 J0.0000
G02 Y181.0738 Z-2.8333 I0.4550 J0.7881
G02 X902.9100 Y180.2857 Z-3.5000 I0.4550 J-0.7881
G02 X901.5450 Y179.4976 Z-4.1667 I-0.9100 J0.0000
G02 Y181.0738 Z-4.8333 I0.4550 J0.7881
G02 X902.9100 Y180.2857 Z-5.5000 I0.4550 J-0.7881
G02 X902.0000 Y179.3757 Z-6.0000 I-0.9100 J0.0000
G02 X901.2119 Y180.7407 I0.0000 J0.9100
G02 X902.7881 I0.7881 J-0.4550
G02 X902.0000 Y179.3757 I-0.7881 J-0.4550
G02 X901.5450 Y179.8307 Z-5.8863 I0.0000 J0.4550 F1500
G00 Z9.0000


;No. 78: Helical drill 56
G00 X902.9100 Y245.4286 Z9.0000
G00 Z0.5000
G02 X901.5450 Y244.6405 Z-0.1667 I-0.9100 J0.0000 F120
G02 Y246.2167 Z-0.8333 I0.4550 J0.7881
G02 X902.9100 Y245.4286 Z-1.5000 I0.4550 J-0.7881
G02 X901.5450 Y244.6405 Z-2.1667 I-0.9100 J0.0000
G02 Y246.2167 Z-2.8333 I0.4550 J0.7881
G02 X902.9100 Y245.4286 Z-3.5000 I0.4550 J-0.7881
G02 X901.5450 Y244.6405 Z-4.1667 I-0.9100 J0.0000
G02 Y246.2167 Z-4.8333 I0.4550 J0.7881
G02 X902.9100 Y245.4286 Z-5.5000 I0.4550 J-0.7881
G02 X902.0000 Y244.5186 Z-6.0000 I-0.9100 J0.0000
G02 X901.2119 Y245.8836 I0.0000 J0.9100
G02 X902.7881 I0.7881 J-0.4550
G02 X902.0000 Y244.5186 I-0.7881 J-0.4550
G02 X901.5450 Y244.9736 Z-5.8862 I0.0000 J0.4550 F1500
G00 Z9.0000


;No. 79: Helical drill 60
G00 X902.9100 Y310.5714 Z9.0000
G00 Z0.5000
G02 X901.5450 Y309.7833 Z-0.1667 I-0.9100 J0.0000 F120
G02 Y311.3595 Z-0.8333 I0.4550 J0.7881
G02 X902.9100 Y310.5714 Z-1.5000 I0.4550 J-0.7881
G02 X901.5450 Y309.7833 Z-2.1667 I-0.9100 J0.0000
G02 Y311.3595 Z-2.8333 I0.4550 J0.7881
G02 X902.9100 Y310.5714 Z-3.5000 I0.4550 J-0.7881
G02 X901.5450 Y309.7833 Z-4.1667 I-0.9100 J0.0000
G02 Y311.3595 Z-4.8333 I0.4550 J0.7881
G02 X902.9100 Y310.5714 Z-5.5000 I0.4550 J-0.7881
G02 X902.0000 Y309.6614 Z-6.0000 I-0.9100 J0.0000
G02 X901.2119 Y311.0264 I0.0000 J0.9100
G02 X902.7881 I0.7881 J-0.4550
G02 X902.0000 Y309.6614 I-0.7881 J-0.4550
G02 X901.5450 Y310.1164 Z-5.8863 I0.0000 J0.4550 F1500
G00 Z9.0000


;No. 80: Helical drill 3
G00 X142.1100 Y10.0000 Z9.0000
G00 Z0.5000
G02 X140.7450 Y9.2119 Z-0.1667 I-0.9100 J0.0000 F120
G02 Y10.7881 Z-0.8333 I0.4550 J0.7881
G02 X142.1100 Y10.0000 Z-1.5000 I0.4550 J-0.7881
G02 X140.7450 Y9.2119 Z-2.1667 I-0.9100 J0.0000
G02 Y10.7881 Z-2.8333 I0.4550 J0.7881
G02 X142.1100 Y10.0000 Z-3.5000 I0.4550 J-0.7881
G02 X140.7450 Y9.2119 Z-4.1667 I-0.9100 J0.0000
G02 Y10.7881 Z-4.8333 I0.4550 J0.7881
G02 X142.1100 Y10.0000 Z-5.5000 I0.4550 J-0.7881
G02 X141.2000 Y9.0900 Z-6.0000 I-0.9100 J0.0000
G02 X140.4119 Y10.4550 I0.0000 J0.9100
G02 X141.9881 I0.7881 J-0.4550
G02 X141.2000 Y9.0900 I-0.7881 J-0.4550
G02 X140.7450 Y9.5450 Z-5.8862 I0.0000 J0.4550 F1500
G00 Z9.0000
G00 X0.0000 Y0.0000

M05
