;Project MFTfreeRail
;Created by Estlcam version 12 build 12.068
;Machining time about 00:23:15 hours

G90
M03 S10000
G00 Z9.0000


;No. 1: Drill 1
G00 X566.0000 Y20.0000 Z9.0000
G00 Z0.5000
G01 Z-2.0000 F120 S10000
G00 Z0.5000
G00 Z-1.5000
G01 Z-4.0000
G00 Z0.5000
G00 Z-3.5000
G01 Z-6.0000
G00 Z9.0000


;No. 2: Drill 2
G00 X566.0000 Y71.6000 Z9.0000
G00 Z0.5000
G01 Z-2.0000 F120
G00 Z0.5000
G00 Z-1.5000
G01 Z-4.0000
G00 Z0.5000
G00 Z-3.5000
G01 Z-6.0000
G00 Z9.0000


;No. 3: Drill 3
G00 X566.0000 Y123.2000 Z9.0000
G00 Z0.5000
G01 Z-2.0000 F120
G00 Z0.5000
G00 Z-1.5000
G01 Z-4.0000
G00 Z0.5000
G00 Z-3.5000
G01 Z-6.0000
G00 Z9.0000


;No. 4: Drill 4
G00 X566.0000 Y174.8000 Z9.0000
G00 Z0.5000
G01 Z-2.0000 F120
G00 Z0.5000
G00 Z-1.5000
G01 Z-4.0000
G00 Z0.5000
G00 Z-3.5000
G01 Z-6.0000
G00 Z9.0000


;No. 5: Drill 5
G00 X566.0000 Y226.4000 Z9.0000
G00 Z0.5000
G01 Z-2.0000 F120
G00 Z0.5000
G00 Z-1.5000
G01 Z-4.0000
G00 Z0.5000
G00 Z-3.5000
G01 Z-6.0000
G00 Z9.0000


;No. 6: Drill 6
G00 X566.0000 Y278.0000 Z9.0000
G00 Z0.5000
G01 Z-2.0000 F120
G00 Z0.5000
G00 Z-1.5000
G01 Z-4.0000
G00 Z0.5000
G00 Z-3.5000
G01 Z-6.0000
G00 Z9.0000


;No. 7: Drill 7
G00 X566.0000 Y329.6000 Z9.0000
G00 Z0.5000
G01 Z-2.0000 F120
G00 Z0.5000
G00 Z-1.5000
G01 Z-4.0000
G00 Z0.5000
G00 Z-3.5000
G01 Z-6.0000
G00 Z9.0000


;No. 8: Drill 8
G00 X566.0000 Y381.2000 Z9.0000
G00 Z0.5000
G01 Z-2.0000 F120
G00 Z0.5000
G00 Z-1.5000
G01 Z-4.0000
G00 Z0.5000
G00 Z-3.5000
G01 Z-6.0000
G00 Z9.0000


;No. 9: Drill 9
G00 X566.0000 Y432.8000 Z9.0000
G00 Z0.5000
G01 Z-2.0000 F120
G00 Z0.5000
G00 Z-1.5000
G01 Z-4.0000
G00 Z0.5000
G00 Z-3.5000
G01 Z-6.0000
G00 Z9.0000


;No. 10: Drill 10
G00 X566.0000 Y484.4000 Z9.0000
G00 Z0.5000
G01 Z-2.0000 F120
G00 Z0.5000
G00 Z-1.5000
G01 Z-4.0000
G00 Z0.5000
G00 Z-3.5000
G01 Z-6.0000
G00 Z9.0000


;No. 11: Drill 11
G00 X566.0000 Y536.0000 Z9.0000
G00 Z0.5000
G01 Z-2.0000 F120
G00 Z0.5000
G00 Z-1.5000
G01 Z-4.0000
G00 Z0.5000
G00 Z-3.5000
G01 Z-6.0000
G00 Z9.0000


;No. 12: Part 1
G00 X554.4100 Y536.0000 Z9.0000
G00 Z0.5000
G01 Z0.0000 F120
G01 Y534.0000 Z-2.0000
G01 Y10.0000 F1500
G03 X556.0000 Y8.4100 I1.5900 J0.0000
G01 X576.0000
G03 X577.5900 Y10.0000 I0.0000 J1.5900
G01 Y546.0000
G03 X576.0000 Y547.5900 I-1.5900 J0.0000
G01 X556.0000
G03 X554.4100 Y546.0000 I0.0000 J-1.5900
G01 Y536.0000
G01 Y534.0000 Z-4.0000 F120
G01 Y10.0000 F1500
G03 X556.0000 Y8.4100 I1.5900 J0.0000
G01 X576.0000
G03 X577.5900 Y10.0000 I0.0000 J1.5900
G01 Y546.0000
G03 X576.0000 Y547.5900 I-1.5900 J0.0000
G01 X556.0000
G03 X554.4100 Y546.0000 I0.0000 J-1.5900
G01 Y536.0000
G01 Y534.0000 Z-6.0000 F120
G01 Y10.0000 F1500
G03 X556.0000 Y8.4100 I1.5900 J0.0000
G01 X576.0000
G03 X577.5900 Y10.0000 I0.0000 J1.5900
G01 Y546.0000
G03 X576.0000 Y547.5900 I-1.5900 J0.0000
G01 X556.0000
G03 X554.4100 Y546.0000 I0.0000 J-1.5900
G01 Y536.0000
G01 Y534.0000
G00 Z9.0000
G00 X0.0000 Y0.0000

M05
