;Project MFTfreeRail
;Created by Estlcam version 12 build 12.068
;Machining time about 00:02:41 hours

G90
M03 S10000
G00 Z9.0000


;No. 1: Part 1
G00 X554.4100 Y10.0000 Z9.0000
G00 Z0.5000
G01 Z0.0000 F120 S10000
G03 X555.5105 Y8.4872 Z-2.0000 I1.5900 J0.0000
G03 X556.0000 Y8.4100 I0.4895 J1.5128 F1500
G01 X576.0000
G03 X577.5900 Y10.0000 I0.0000 J1.5900
G01 Y546.0000
G03 X576.0000 Y547.5900 I-1.5900 J0.0000
G01 X556.0000
G03 X554.4100 Y546.0000 I0.0000 J-1.5900
G01 Y10.0000
G03 X555.5105 Y8.4872 Z-4.0000 I1.5900 J0.0000 F120
G03 X556.0000 Y8.4100 I0.4895 J1.5128 F1500
G01 X576.0000
G03 X577.5900 Y10.0000 I0.0000 J1.5900
G01 Y546.0000
G03 X576.0000 Y547.5900 I-1.5900 J0.0000
G01 X556.0000
G03 X554.4100 Y546.0000 I0.0000 J-1.5900
G01 Y10.0000
G03 X555.5105 Y8.4872 Z-6.0000 I1.5900 J0.0000 F120
G03 X556.0000 Y8.4100 I0.4895 J1.5128 F1500
G01 X576.0000
G03 X577.5900 Y10.0000 I0.0000 J1.5900
G01 Y546.0000
G03 X576.0000 Y547.5900 I-1.5900 J0.0000
G01 X556.0000
G03 X554.4100 Y546.0000 I0.0000 J-1.5900
G01 Y10.0000
G03 X555.5105 Y8.4872 I1.5900 J0.0000
G00 Z9.0000
G00 X0.0000 Y0.0000

M05
